; generated by PrusaSlicer 2.3.0+ on 2023-02-03 at 10:04:28 UTC

; 

; external perimeters extrusion width = 0.45mm
; perimeters extrusion width = 0.45mm
; infill extrusion width = 0.45mm
; solid infill extrusion width = 0.45mm
; top infill extrusion width = 0.40mm
; first layer extrusion width = 0.42mm

M201 X500 Y500 Z100 E5000 ; sets maximum accelerations, mm/sec^2
M203 X500 Y500 Z10 E60 ; sets maximum feedrates, mm/sec
M204 P500 R1000 T500 ; sets acceleration (P, T) and retract acceleration (R), mm/sec^2
M205 X8.00 Y8.00 Z0.40 E5.00 ; sets the jerk limits, mm/sec
M205 S0 T0 ; sets the minimum extruding and travel feed rate, mm/sec
M107
;TYPE:Custom
G90 ; use absolute coordinates
M83 ; extruder relative mode
M104 S210 ; set extruder temp
M140 S60 ; set bed temp
M190 S60 ; wait for bed temp
M109 S210 ; wait for extruder temp
G28 ; home all
G1 Z2 F240
G1 X2 Y10 F3000
G1 Z0.28 F240
G92 E0
G1 Y190 E15 F1500 ; intro line
G1 X2.3 F5000
G92 E0
G1 Y10 E15 F1200 ; intro line
G92 E0
G21 ; set units to millimeters
G90 ; use absolute coordinates
M83 ; use relative distances for extrusion
; Filament gcode
;LAYER_CHANGE
;Z:0.2
;HEIGHT:0.2
;BEFORE_LAYER_CHANGE
G92 E0
;0.2


G1 E-5.00000 F3600.000
G1 Z0.200 F9000.000
;AFTER_LAYER_CHANGE
;0.2
G1 X82.849 Y85.234
G1 E5.00000 F2400.000
;TYPE:Skirt
;WIDTH:0.42
G1 F1200.000
G1 X85.282 Y84.712 E0.07022
G1 X145.746 Y84.716 E1.70625
G1 X147.618 Y85.063 E0.05373
G1 X149.386 Y85.782 E0.05385
G1 X151.452 Y87.281 E0.07203
G1 X152.605 Y88.625 E0.04997
G1 X153.492 Y90.177 E0.05044
G1 X154.059 Y91.839 E0.04954
G1 X154.295 Y93.566 E0.04920
G1 X154.309 Y137.199 E1.23128
G1 X154.067 Y139.126 E0.05480
G1 X153.424 Y140.971 E0.05514
G1 X152.410 Y142.641 E0.05513
G1 X151.057 Y144.075 E0.05562
G1 X149.669 Y145.058 E0.04802
G1 X148.151 Y145.766 E0.04725
G1 X145.719 Y146.288 E0.07021
G1 X85.300 Y146.288 E1.70495
G1 X83.404 Y145.944 E0.05437
G1 X81.604 Y145.210 E0.05487
G1 X79.994 Y144.117 E0.05491
G1 X78.658 Y142.732 E0.05429
G1 X77.373 Y140.514 E0.07232
G1 X76.874 Y138.858 E0.04882
G1 X76.687 Y137.120 E0.04932
G1 X76.687 Y93.870 E1.22046
G1 X76.924 Y91.914 E0.05560
G1 X77.559 Y90.066 E0.05514
G1 X78.590 Y88.359 E0.05627
G1 X79.943 Y86.925 E0.05563
G1 X81.331 Y85.942 E0.04802
G1 X82.794 Y85.259 E0.04556
G1 X82.953 Y85.601 F9000.000
G1 F1200.000
G1 X85.301 Y85.089 E0.06783
G1 X145.729 Y85.093 E1.70519
G1 X147.530 Y85.430 E0.05171
G1 X149.222 Y86.123 E0.05160
G1 X151.181 Y87.544 E0.06829
G1 X152.287 Y88.829 E0.04784
G1 X153.141 Y90.317 E0.04842
G1 X153.688 Y91.908 E0.04748
G1 X153.920 Y93.604 E0.04831
G1 X153.934 Y137.164 E1.22919
G1 X153.695 Y139.059 E0.05390
G1 X153.075 Y140.827 E0.05289
G1 X152.099 Y142.427 E0.05290
G1 X150.797 Y143.801 E0.05341
G1 X149.465 Y144.740 E0.04596
G1 X148.012 Y145.415 E0.04523
G1 X145.699 Y145.911 E0.06676
G1 X85.317 Y145.911 E1.70390
G1 X83.492 Y145.577 E0.05237
G1 X81.765 Y144.869 E0.05265
G1 X80.222 Y143.817 E0.05270
G1 X78.946 Y142.487 E0.05201
G1 X77.728 Y140.385 E0.06857
G1 X77.240 Y138.766 E0.04771
G1 X77.064 Y137.110 E0.04699
G1 X77.064 Y93.882 E1.21986
G1 X77.296 Y91.980 E0.05406
G1 X77.908 Y90.209 E0.05289
G1 X78.902 Y88.573 E0.05401
G1 X80.203 Y87.199 E0.05341
G1 X81.535 Y86.260 E0.04596
G1 X82.899 Y85.626 E0.04245
G1 X83.057 Y85.968 F9000.000
G1 F1200.000
G1 X83.127 Y85.936 E0.00219
G1 X85.321 Y85.466 E0.06332
G1 X145.711 Y85.470 E1.70412
G1 X147.440 Y85.797 E0.04967
G1 X149.058 Y86.463 E0.04935
G1 X150.909 Y87.807 E0.06457
G1 X151.990 Y89.061 E0.04671
G1 X152.805 Y90.488 E0.04638
G1 X153.325 Y92.012 E0.04545
G1 X153.545 Y93.642 E0.04641
G1 X153.558 Y137.129 E1.22716
G1 X153.333 Y138.954 E0.05188
G1 X152.742 Y140.648 E0.05062
G1 X151.787 Y142.214 E0.05176
G1 X150.537 Y143.528 E0.05119
G1 X149.263 Y144.421 E0.04391
G1 X147.873 Y145.064 E0.04322
G1 X145.679 Y145.534 E0.06331
G1 X85.334 Y145.534 E1.70285
G1 X83.580 Y145.209 E0.05035
G1 X81.928 Y144.528 E0.05044
G1 X80.452 Y143.517 E0.05048
G1 X79.234 Y142.243 E0.04973
G1 X78.082 Y140.254 E0.06485
G1 X77.613 Y138.708 E0.04560
G1 X77.441 Y137.100 E0.04564
G1 X77.441 Y93.893 E1.21924
G1 X77.667 Y92.046 E0.05251
G1 X78.258 Y90.352 E0.05062
G1 X79.213 Y88.786 E0.05176
G1 X80.463 Y87.472 E0.05119
G1 X81.737 Y86.579 E0.04391
G1 X83.002 Y85.994 E0.03934
G1 X83.161 Y86.336 F9000.000
G1 F1200.000
G1 X83.266 Y86.287 E0.00329
G1 X85.341 Y85.843 E0.05987
G1 X145.693 Y85.847 E1.70305
G1 X147.350 Y86.164 E0.04762
G1 X148.893 Y86.802 E0.04710
G1 X150.639 Y88.070 E0.06088
G1 X151.672 Y89.265 E0.04458
G1 X152.454 Y90.627 E0.04433
G1 X152.962 Y92.116 E0.04440
G1 X153.169 Y93.679 E0.04449
G1 X153.182 Y137.095 E1.22516
G1 X152.970 Y138.850 E0.04988
G1 X152.409 Y140.470 E0.04837
G1 X151.499 Y141.969 E0.04949
G1 X150.304 Y143.230 E0.04904
G1 X149.089 Y144.086 E0.04194
G1 X147.734 Y144.713 E0.04214
G1 X145.659 Y145.157 E0.05987
G1 X85.352 Y145.157 E1.70179
G1 X83.669 Y144.842 E0.04832
G1 X82.091 Y144.187 E0.04822
G1 X80.682 Y143.218 E0.04826
G1 X79.522 Y142.000 E0.04746
G1 X78.437 Y140.124 E0.06117
G1 X77.986 Y138.649 E0.04350
G1 X77.818 Y137.090 E0.04427
G1 X77.818 Y93.904 E1.21864
G1 X78.030 Y92.150 E0.04987
G1 X78.591 Y90.530 E0.04837
G1 X79.501 Y89.031 E0.04949
G1 X80.696 Y87.770 E0.04904
G1 X81.911 Y86.914 E0.04194
G1 X83.106 Y86.361 E0.03716
G1 X83.263 Y86.703 F9000.000
G1 F1200.000
G1 X83.405 Y86.638 E0.00439
G1 X85.361 Y86.220 E0.05645
G1 X145.675 Y86.224 E1.70198
G1 X147.260 Y86.530 E0.04555
G1 X148.727 Y87.142 E0.04486
G1 X150.368 Y88.333 E0.05723
G1 X151.354 Y89.468 E0.04242
G1 X152.118 Y90.799 E0.04328
G1 X152.599 Y92.219 E0.04232
G1 X152.794 Y93.715 E0.04259
G1 X152.805 Y137.084 E1.22382
G1 X152.606 Y138.747 E0.04725
G1 X152.076 Y140.292 E0.04612
G1 X151.211 Y141.725 E0.04723
G1 X150.071 Y142.933 E0.04687
G1 X148.886 Y143.768 E0.04090
G1 X147.595 Y144.362 E0.04010
G1 X145.639 Y144.780 E0.05645
G1 X85.370 Y144.780 E1.70073
G1 X83.759 Y144.476 E0.04627
G1 X82.255 Y143.847 E0.04599
G1 X80.913 Y142.919 E0.04605
G1 X79.811 Y141.756 E0.04520
G1 X78.791 Y139.993 E0.05750
G1 X78.352 Y138.557 E0.04238
G1 X78.195 Y137.080 E0.04191
G1 X78.195 Y93.915 E1.21805
G1 X78.394 Y92.253 E0.04724
G1 X78.924 Y90.708 E0.04612
G1 X79.789 Y89.275 E0.04723
G1 X80.929 Y88.067 E0.04687
G1 X82.114 Y87.232 E0.04090
G1 X83.209 Y86.728 E0.03401
G1 X83.366 Y87.071 F9000.000
G1 F1200.000
G1 X83.543 Y86.990 E0.00550
G1 X85.381 Y86.597 E0.05302
G1 X145.656 Y86.601 E1.70090
G1 X147.168 Y86.896 E0.04347
G1 X148.561 Y87.481 E0.04262
G1 X150.098 Y88.597 E0.05361
G1 X151.037 Y89.673 E0.04029
G1 X151.766 Y90.937 E0.04119
G1 X152.235 Y92.322 E0.04125
G1 X152.418 Y93.751 E0.04066
G1 X152.428 Y137.073 E1.22249
G1 X152.235 Y138.681 E0.04571
G1 X151.726 Y140.150 E0.04386
G1 X150.923 Y141.482 E0.04389
G1 X149.838 Y142.637 E0.04471
G1 X148.713 Y143.433 E0.03889
G1 X147.457 Y144.010 E0.03901
G1 X145.619 Y144.403 E0.05302
G1 X85.387 Y144.403 E1.69968
G1 X83.885 Y144.120 E0.04314
G1 X82.452 Y143.525 E0.04378
G1 X81.173 Y142.645 E0.04382
G1 X80.100 Y141.513 E0.04401
G1 X79.145 Y139.861 E0.05384
G1 X78.725 Y138.498 E0.04025
G1 X78.572 Y137.070 E0.04054
G1 X78.572 Y93.927 E1.21744
G1 X78.765 Y92.319 E0.04571
G1 X79.274 Y90.850 E0.04386
G1 X80.077 Y89.518 E0.04389
G1 X81.162 Y88.363 E0.04471
G1 X82.287 Y87.567 E0.03889
G1 X83.312 Y87.096 E0.03182
G1 X83.681 Y87.341 F9000.000
G1 F1200.000
G1 X85.401 Y86.974 E0.04961
G1 X145.638 Y86.978 E1.69982
G1 X147.076 Y87.262 E0.04136
G1 X148.394 Y87.820 E0.04039
G1 X149.828 Y88.861 E0.05001
G1 X150.740 Y89.907 E0.03916
G1 X151.430 Y91.108 E0.03910
G1 X151.872 Y92.424 E0.03915
G1 X152.042 Y93.786 E0.03875
G1 X152.051 Y137.062 E1.22120
G1 X151.871 Y138.578 E0.04309
G1 X151.392 Y139.974 E0.04163
G1 X150.633 Y141.239 E0.04165
G1 X149.604 Y142.340 E0.04253
G1 X148.509 Y143.115 E0.03784
G1 X147.319 Y143.659 E0.03694
G1 X145.599 Y144.026 E0.04961
G1 X85.405 Y144.026 E1.69861
G1 X83.975 Y143.753 E0.04108
G1 X82.616 Y143.185 E0.04157
G1 X81.404 Y142.346 E0.04159
G1 X80.390 Y141.271 E0.04173
G1 X79.499 Y139.729 E0.05024
G1 X79.098 Y138.439 E0.03812
G1 X78.949 Y137.059 E0.03916
G1 X78.949 Y93.938 E1.21684
G1 X79.129 Y92.422 E0.04308
G1 X79.608 Y91.026 E0.04163
G1 X80.367 Y89.761 E0.04165
G1 X81.396 Y88.660 E0.04253
G1 X82.491 Y87.885 E0.03784
G1 X83.627 Y87.366 E0.03524
G1 X83.783 Y87.709 F9000.000
G1 F1200.000
G1 X85.420 Y87.351 E0.04729
G1 X145.619 Y87.355 E1.69873
G1 X146.982 Y87.628 E0.03924
G1 X148.226 Y88.158 E0.03816
G1 X149.559 Y89.126 E0.04646
G1 X150.423 Y90.112 E0.03701
G1 X151.079 Y91.247 E0.03698
G1 X151.508 Y92.525 E0.03807
G1 X151.667 Y93.820 E0.03681
G1 X151.674 Y137.051 E1.21993
G1 X151.508 Y138.476 E0.04048
G1 X151.058 Y139.798 E0.03940
G1 X150.343 Y140.997 E0.03940
G1 X149.369 Y142.044 E0.04035
G1 X148.336 Y142.779 E0.03578
G1 X147.181 Y143.307 E0.03584
G1 X145.580 Y143.649 E0.04620
G1 X85.424 Y143.649 E1.69754
G1 X84.066 Y143.387 E0.03900
G1 X82.781 Y142.846 E0.03935
G1 X81.636 Y142.049 E0.03937
G1 X80.680 Y141.029 E0.03946
G1 X79.853 Y139.597 E0.04665
G1 X79.464 Y138.345 E0.03700
G1 X79.326 Y137.050 E0.03676
G1 X79.326 Y93.949 E1.21626
G1 X79.492 Y92.524 E0.04048
G1 X79.942 Y91.202 E0.03940
G1 X80.657 Y90.003 E0.03940
G1 X81.631 Y88.956 E0.04035
G1 X82.664 Y88.221 E0.03578
G1 X83.729 Y87.734 E0.03304
G1 X83.884 Y88.077 F9000.000
G1 F1200.000
G1 X83.956 Y88.045 E0.00222
G1 X85.440 Y87.728 E0.04282
G1 X145.600 Y87.732 E1.69763
G1 X146.888 Y87.994 E0.03709
G1 X148.058 Y88.496 E0.03594
G1 X149.290 Y89.391 E0.04296
G1 X150.106 Y90.317 E0.03484
G1 X150.742 Y91.418 E0.03589
G1 X151.144 Y92.626 E0.03591
G1 X151.291 Y93.854 E0.03489
G1 X151.297 Y137.041 E1.21869
G1 X151.144 Y138.375 E0.03790
G1 X150.723 Y139.623 E0.03717
G1 X150.053 Y140.756 E0.03716
G1 X149.135 Y141.748 E0.03814
G1 X148.133 Y142.461 E0.03471
G1 X147.044 Y142.955 E0.03374
G1 X145.560 Y143.272 E0.04282
G1 X85.442 Y143.272 E1.69646
G1 X84.159 Y143.021 E0.03690
G1 X82.947 Y142.506 E0.03714
G1 X81.869 Y141.751 E0.03714
G1 X80.970 Y140.787 E0.03719
G1 X80.206 Y139.465 E0.04311
G1 X79.837 Y138.286 E0.03485
G1 X79.703 Y137.039 E0.03538
G1 X79.703 Y93.959 E1.21568
G1 X79.856 Y92.625 E0.03790
G1 X80.277 Y91.377 E0.03717
G1 X80.947 Y90.244 E0.03716
G1 X81.865 Y89.252 E0.03814
G1 X82.867 Y88.539 E0.03471
G1 X83.830 Y88.102 E0.02982
G1 X83.986 Y88.445 F9000.000
G1 F1200.000
G1 X84.093 Y88.396 E0.00334
G1 X85.460 Y88.105 E0.03943
G1 X145.580 Y88.110 E1.69652
G1 X146.792 Y88.359 E0.03492
G1 X147.889 Y88.834 E0.03373
G1 X149.021 Y89.656 E0.03947
G1 X149.811 Y90.552 E0.03371
G1 X150.406 Y91.589 E0.03374
G1 X150.780 Y92.725 E0.03376
G1 X150.915 Y93.886 E0.03298
G1 X150.920 Y137.030 E1.21749
G1 X150.780 Y138.275 E0.03534
G1 X150.388 Y139.450 E0.03495
G1 X149.761 Y140.516 E0.03491
G1 X148.899 Y141.453 E0.03593
G1 X147.960 Y142.126 E0.03259
G1 X146.907 Y142.604 E0.03263
G1 X145.540 Y142.895 E0.03943
G1 X85.461 Y142.895 E1.69537
G1 X84.252 Y142.655 E0.03478
G1 X83.114 Y142.168 E0.03492
G1 X82.103 Y141.455 E0.03492
G1 X81.261 Y140.547 E0.03494
G1 X80.560 Y139.332 E0.03959
G1 X80.202 Y138.191 E0.03373
G1 X80.080 Y137.030 E0.03296
G1 X80.080 Y93.969 E1.21511
G1 X80.220 Y92.725 E0.03534
G1 X80.612 Y91.550 E0.03495
G1 X81.239 Y90.484 E0.03491
G1 X82.101 Y89.547 E0.03593
G1 X83.040 Y88.874 E0.03259
G1 X83.931 Y88.470 E0.02760
G1 X84.229 Y88.749 F9000.000
G1 F1200.000
G1 X85.480 Y88.483 E0.03607
G1 X145.560 Y88.487 E1.69541
G1 X146.695 Y88.724 E0.03272
G1 X147.719 Y89.171 E0.03152
G1 X148.752 Y89.922 E0.03604
G1 X149.494 Y90.757 E0.03153
G1 X150.054 Y91.727 E0.03159
G1 X150.408 Y92.788 E0.03157
G1 X150.539 Y93.919 E0.03212
G1 X150.543 Y137.020 E1.21626
G1 X150.408 Y138.212 E0.03387
G1 X150.037 Y139.310 E0.03269
G1 X149.447 Y140.307 E0.03269
G1 X148.664 Y141.158 E0.03264
G1 X147.756 Y141.808 E0.03151
G1 X146.771 Y142.251 E0.03048
G1 X145.520 Y142.517 E0.03607
G1 X85.480 Y142.517 E1.69428
G1 X84.346 Y142.289 E0.03263
G1 X83.283 Y141.830 E0.03269
G1 X82.338 Y141.159 E0.03269
G1 X81.553 Y140.307 E0.03269
G1 X80.913 Y139.198 E0.03612
G1 X80.575 Y138.132 E0.03155
G1 X80.457 Y137.020 E0.03157
G1 X80.457 Y93.980 E1.21453
G1 X80.592 Y92.788 E0.03387
G1 X80.963 Y91.690 E0.03269
G1 X81.553 Y90.693 E0.03269
G1 X82.336 Y89.842 E0.03264
G1 X83.244 Y89.192 E0.03151
G1 X84.175 Y88.773 E0.02879
G1 X84.329 Y89.117 F9000.000
G1 F1200.000
G1 X85.499 Y88.860 E0.03381
G1 X145.540 Y88.864 E1.69428
G1 X146.597 Y89.089 E0.03050
G1 X147.548 Y89.508 E0.02933
G1 X148.485 Y90.188 E0.03267
G1 X149.177 Y90.963 E0.02933
G1 X149.718 Y91.898 E0.03048
G1 X150.043 Y92.887 E0.02938
G1 X150.163 Y93.950 E0.03019
G1 X150.166 Y137.010 E1.21508
G1 X150.043 Y138.113 E0.03131
G1 X149.702 Y139.137 E0.03047
G1 X149.155 Y140.068 E0.03047
G1 X148.427 Y140.864 E0.03045
G1 X147.583 Y141.472 E0.02935
G1 X146.634 Y141.899 E0.02937
G1 X145.501 Y142.140 E0.03271
G1 X85.499 Y142.140 E1.69317
G1 X84.442 Y141.924 E0.03046
G1 X83.452 Y141.492 E0.03047
G1 X82.574 Y140.864 E0.03047
G1 X81.845 Y140.068 E0.03046
G1 X81.266 Y139.064 E0.03272
G1 X80.948 Y138.073 E0.02937
G1 X80.834 Y137.010 E0.03017
G1 X80.834 Y93.990 E1.21395
G1 X80.957 Y92.887 E0.03131
G1 X81.298 Y91.863 E0.03047
G1 X81.845 Y90.932 E0.03047
G1 X82.573 Y90.136 E0.03045
G1 X83.417 Y89.528 E0.02935
G1 X84.275 Y89.142 E0.02655
G1 X84.429 Y89.486 F9000.000
G1 F1200.000
G1 X84.502 Y89.453 E0.00225
G1 X85.519 Y89.237 E0.02934
G1 X145.520 Y89.241 E1.69315
G1 X146.498 Y89.453 E0.02824
G1 X147.377 Y89.844 E0.02714
G1 X148.218 Y90.455 E0.02935
G1 X148.862 Y91.170 E0.02714
G1 X149.366 Y92.035 E0.02825
G1 X149.679 Y92.986 E0.02824
G1 X149.788 Y93.981 E0.02823
G1 X149.789 Y137.000 E1.21395
G1 X149.679 Y138.014 E0.02879
G1 X149.366 Y138.965 E0.02824
G1 X148.862 Y139.829 E0.02824
G1 X148.189 Y140.571 E0.02825
G1 X147.411 Y141.136 E0.02716
G1 X146.498 Y141.547 E0.02824
G1 X145.481 Y141.763 E0.02934
G1 X85.519 Y141.763 E1.69206
G1 X84.539 Y141.559 E0.02825
G1 X83.623 Y141.156 E0.02824
G1 X82.811 Y140.571 E0.02824
G1 X82.138 Y139.830 E0.02823
G1 X81.619 Y138.930 E0.02933
G1 X81.313 Y137.977 E0.02824
G1 X81.211 Y137.000 E0.02770
G1 X81.211 Y94.000 E1.21341
G1 X81.321 Y92.986 E0.02879
G1 X81.634 Y92.035 E0.02824
G1 X82.138 Y91.171 E0.02824
G1 X82.811 Y90.429 E0.02825
G1 X83.589 Y89.864 E0.02716
G1 X84.375 Y89.510 E0.02430
G1 X84.577 Y89.965 F9000.000
;TYPE:External perimeter
G1 F1200.000
G1 X84.675 Y89.922 E0.00301
G1 X85.552 Y89.735 E0.02530
G1 X145.450 Y89.736 E1.69025
G1 X146.325 Y89.922 E0.02526
G1 X147.144 Y90.286 E0.02530
G1 X147.869 Y90.813 E0.02530
G1 X148.469 Y91.479 E0.02530
G1 X148.918 Y92.256 E0.02530
G1 X149.195 Y93.108 E0.02530
G1 X149.290 Y94.016 E0.02576
G1 X149.290 Y136.984 E1.21249
G1 X149.195 Y137.892 E0.02576
G1 X148.918 Y138.744 E0.02530
G1 X148.469 Y139.521 E0.02530
G1 X147.869 Y140.187 E0.02530
G1 X147.144 Y140.714 E0.02530
G1 X146.325 Y141.078 E0.02530
G1 X145.448 Y141.265 E0.02530
G1 X85.552 Y141.265 E1.69021
G1 X84.675 Y141.078 E0.02530
G1 X83.856 Y140.714 E0.02530
G1 X83.131 Y140.187 E0.02530
G1 X82.531 Y139.521 E0.02530
G1 X82.082 Y138.744 E0.02530
G1 X81.805 Y137.892 E0.02530
G1 X81.710 Y136.984 E0.02576
G1 X81.710 Y94.016 E1.21249
G1 X81.805 Y93.108 E0.02576
G1 X82.082 Y92.256 E0.02530
G1 X82.531 Y91.479 E0.02530
G1 X83.131 Y90.813 E0.02530
G1 X83.856 Y90.286 E0.02530
G1 X84.522 Y89.989 E0.02059
G1 X84.666 Y90.025 F9000.000
G1 X84.792 Y90.282
;TYPE:Perimeter
G1 F1200.000
G1 X85.591 Y90.112 E0.02306
G1 X145.410 Y90.113 E1.68802
G1 X146.208 Y90.282 E0.02302
G1 X146.955 Y90.615 E0.02306
G1 X147.616 Y91.095 E0.02306
G1 X148.163 Y91.702 E0.02306
G1 X148.571 Y92.410 E0.02306
G1 X148.824 Y93.187 E0.02306
G1 X148.913 Y94.036 E0.02408
G1 X148.913 Y136.964 E1.21138
G1 X148.824 Y137.813 E0.02408
G1 X148.571 Y138.590 E0.02306
G1 X148.163 Y139.298 E0.02306
G1 X147.616 Y139.905 E0.02306
G1 X146.955 Y140.385 E0.02306
G1 X146.208 Y140.718 E0.02306
G1 X145.409 Y140.888 E0.02306
G1 X85.591 Y140.888 E1.68797
G1 X84.792 Y140.718 E0.02306
G1 X84.045 Y140.385 E0.02306
G1 X83.384 Y139.905 E0.02306
G1 X82.837 Y139.298 E0.02306
G1 X82.429 Y138.590 E0.02306
G1 X82.176 Y137.813 E0.02306
G1 X82.087 Y136.964 E0.02408
G1 X82.087 Y94.036 E1.21138
G1 X82.176 Y93.187 E0.02408
