; generated by PrusaSlicer 2.3.0+ on 2022-10-21 at 19:42:11 UTC

; 

; external perimeters extrusion width = 0.90mm
; perimeters extrusion width = 0.90mm
; infill extrusion width = 0.90mm
; solid infill extrusion width = 0.90mm
; top infill extrusion width = 0.80mm
; support material extrusion width = 0.90mm
; first layer extrusion width = 0.84mm

M201 X500 Y500 Z100 E5000 ; sets maximum accelerations, mm/sec^2
M203 X500 Y500 Z10 E60 ; sets maximum feedrates, mm/sec
M204 P500 R1000 T500 ; sets acceleration (P, T) and retract acceleration (R), mm/sec^2
M205 X8.00 Y8.00 Z0.40 E5.00 ; sets the jerk limits, mm/sec
M205 S0 T0 ; sets the minimum extruding and travel feed rate, mm/sec
M107
;TYPE:Custom
G90 ; use absolute coordinates
M83 ; extruder relative mode
M104 S210 ; set extruder temp
M140 S60 ; set bed temp
M190 S60 ; wait for bed temp
M109 S210 ; wait for extruder temp
G28 ; home all
G1 Z2 F240
G1 X2 Y10 F3000
G1 Z0.28 F240
G92 E0
G1 Y190 E15 F1500 ; intro line
G1 X2.3 F5000
G92 E0
G1 Y10 E15 F1200 ; intro line
G92 E0
G21 ; set units to millimeters
G90 ; use absolute coordinates
M83 ; use relative distances for extrusion
; Filament gcode
;LAYER_CHANGE
;Z:0.4
;HEIGHT:0.4
;BEFORE_LAYER_CHANGE
G92 E0
;0.4


G1 E-5.00000 F3600.000
G1 Z0.400 F9000.000
;AFTER_LAYER_CHANGE
;0.4
G1 X83.050 Y85.764
G1 E5.00000 F2400.000
;TYPE:Skirt
;WIDTH:0.84
G1 F1200.000
G1 X85.322 Y85.277 E0.26226
G1 X145.751 Y85.286 E6.82100
G1 X147.439 Y85.600 E0.19375
G1 X149.127 Y86.287 E0.20572
G1 X151.054 Y87.685 E0.26871
G1 X152.136 Y88.943 E0.18734
G1 X152.955 Y90.365 E0.18525
G1 X153.513 Y91.991 E0.19405
G1 X153.732 Y93.622 E0.18569
G1 X153.742 Y137.196 E4.91844
G1 X153.511 Y139.014 E0.20691
G1 X152.905 Y140.744 E0.20693
G1 X151.951 Y142.309 E0.20683
G1 X150.647 Y143.680 E0.21358
G1 X149.370 Y144.577 E0.17621
G1 X147.948 Y145.237 E0.17694
G1 X145.678 Y145.723 E0.26193
G1 X85.333 Y145.723 E6.81156
G1 X83.578 Y145.404 E0.20135
G1 X81.886 Y144.718 E0.20609
G1 X80.371 Y143.694 E0.20638
G1 X79.094 Y142.369 E0.20769
G1 X77.903 Y140.311 E0.26843
G1 X77.426 Y138.727 E0.18671
G1 X77.252 Y137.099 E0.18480
G1 X77.252 Y93.895 E4.87670
G1 X77.487 Y91.994 E0.21626
G1 X78.091 Y90.265 E0.20672
G1 X79.045 Y88.697 E0.20717
G1 X80.350 Y87.322 E0.21389
G1 X81.627 Y86.425 E0.17620
G1 X82.941 Y85.815 E0.16355
G1 X83.256 Y86.499 F9000.000
G1 F1200.000
G1 X83.326 Y86.467 E0.00877
G1 X85.361 Y86.031 E0.23489
G1 X145.715 Y86.040 E6.81244
G1 X147.259 Y86.333 E0.17738
G1 X148.797 Y86.967 E0.18781
G1 X150.513 Y88.212 E0.23928
G1 X151.501 Y89.351 E0.17024
G1 X152.283 Y90.708 E0.17680
G1 X152.786 Y92.196 E0.17726
G1 X152.981 Y93.694 E0.17048
G1 X152.991 Y137.128 E4.90261
G1 X152.785 Y138.807 E0.19096
G1 X152.238 Y140.390 E0.18907
G1 X151.374 Y141.822 E0.18878
G1 X150.182 Y143.085 E0.19602
G1 X148.965 Y143.940 E0.16787
G1 X147.671 Y144.534 E0.16070
G1 X145.639 Y144.969 E0.23460
G1 X85.368 Y144.969 E6.80311
G1 X83.754 Y144.670 E0.18521
G1 X82.210 Y144.036 E0.18844
G1 X80.830 Y143.095 E0.18859
G1 X79.671 Y141.882 E0.18936
G1 X78.611 Y140.049 E0.23896
G1 X78.171 Y138.610 E0.16985
G1 X78.006 Y137.079 E0.17383
G1 X78.006 Y93.917 E4.87189
G1 X78.213 Y92.200 E0.19520
G1 X78.758 Y90.618 E0.18886
G1 X79.623 Y89.183 E0.18910
G1 X80.815 Y87.917 E0.19631
G1 X82.032 Y87.062 E0.16784
G1 X83.147 Y86.549 E0.13853
G1 X83.462 Y87.235 F9000.000
G1 F1200.000
G1 X83.604 Y87.169 E0.01760
G1 X85.401 Y86.786 E0.20744
G1 X145.678 Y86.794 E6.80378
G1 X147.076 Y87.066 E0.16074
G1 X148.466 Y87.645 E0.16999
G1 X149.971 Y88.739 E0.21005
G1 X150.907 Y89.817 E0.16110
G1 X151.609 Y91.048 E0.15999
G1 X152.059 Y92.398 E0.16055
G1 X152.230 Y93.763 E0.15537
G1 X152.240 Y137.062 E4.88740
G1 X152.058 Y138.603 E0.17512
G1 X151.569 Y140.039 E0.17122
G1 X150.794 Y141.338 E0.17069
G1 X149.714 Y142.493 E0.17853
G1 X148.618 Y143.269 E0.15164
G1 X147.394 Y143.831 E0.15195
G1 X145.599 Y144.214 E0.20718
G1 X85.404 Y144.214 E6.79459
G1 X83.934 Y143.937 E0.16880
G1 X82.538 Y143.356 E0.17074
G1 X81.292 Y142.497 E0.17080
G1 X80.250 Y141.396 E0.17114
G1 X79.320 Y139.788 E0.20970
G1 X78.903 Y138.425 E0.16084
G1 X78.760 Y137.060 E0.15494
G1 X78.760 Y93.939 E4.86732
G1 X78.940 Y92.403 E0.17445
G1 X79.427 Y90.969 E0.17105
G1 X80.203 Y89.667 E0.17100
G1 X81.284 Y88.509 E0.17880
G1 X82.379 Y87.732 E0.15160
G1 X83.353 Y87.285 E0.12095
G1 X83.877 Y87.873 F9000.000
G1 F1200.000
G1 X85.440 Y87.540 E0.18040
G1 X145.640 Y87.548 E6.79501
G1 X146.889 Y87.797 E0.14378
G1 X148.131 Y88.323 E0.15229
G1 X149.433 Y89.268 E0.18155
G1 X150.273 Y90.227 E0.14393
G1 X150.907 Y91.327 E0.14332
G1 X151.315 Y92.530 E0.14338
G1 X151.478 Y93.834 E0.14830
G1 X151.485 Y137.040 E4.87690
G1 X151.314 Y138.472 E0.16283
G1 X150.870 Y139.753 E0.15300
G1 X150.170 Y140.913 E0.15301
G1 X149.244 Y141.902 E0.15285
G1 X148.269 Y142.599 E0.13532
G1 X147.117 Y143.129 E0.14308
G1 X145.560 Y143.460 E0.17976
G1 X85.441 Y143.460 E6.78597
G1 X84.118 Y143.204 E0.15209
G1 X82.869 Y142.678 E0.15299
G1 X81.757 Y141.902 E0.15300
G1 X80.830 Y140.913 E0.15304
G1 X80.027 Y139.523 E0.18119
G1 X79.649 Y138.307 E0.14369
G1 X79.515 Y137.039 E0.14392
G1 X79.515 Y93.959 E4.86270
G1 X79.669 Y92.603 E0.15405
G1 X80.098 Y91.315 E0.15328
G1 X80.785 Y90.148 E0.15288
G1 X81.752 Y89.101 E0.16085
G1 X82.785 Y88.369 E0.14291
G1 X83.768 Y87.923 E0.12182
G1 X84.080 Y88.609 F9000.000
G1 F1200.000
G1 X84.152 Y88.577 E0.00893
G1 X85.480 Y88.294 E0.15325
G1 X145.600 Y88.302 E6.78611
G1 X146.698 Y88.528 E0.12645
G1 X147.794 Y88.998 E0.13474
G1 X148.893 Y89.797 E0.15330
G1 X149.680 Y90.695 E0.13475
G1 X150.233 Y91.666 E0.12614
G1 X150.587 Y92.730 E0.12661
G1 X150.727 Y93.900 E0.13297
G1 X150.731 Y137.019 E4.86708
G1 X150.587 Y138.269 E0.14205
G1 X150.201 Y139.403 E0.13516
G1 X149.588 Y140.432 E0.13520
G1 X148.774 Y141.311 E0.13534
G1 X147.861 Y141.964 E0.12660
G1 X146.844 Y142.425 E0.12601
G1 X145.520 Y142.706 E0.15280
G1 X85.479 Y142.706 E6.77723
G1 X84.305 Y142.473 E0.13503
G1 X83.204 Y142.001 E0.13521
G1 X82.226 Y141.310 E0.13520
G1 X81.413 Y140.432 E0.13506
G1 X80.733 Y139.255 E0.15342
G1 X80.395 Y138.188 E0.12642
G1 X80.269 Y137.019 E0.13270
G1 X80.269 Y93.981 E4.85790
G1 X80.413 Y92.731 E0.14205
G1 X80.799 Y91.597 E0.13516
G1 X81.412 Y90.568 E0.13521
G1 X82.223 Y89.691 E0.13489
G1 X83.132 Y89.040 E0.12614
G1 X83.971 Y88.659 E0.10400
G1 X84.426 Y89.280 F9000.000
G1 F1200.000
G1 X85.519 Y89.048 E0.12611
G1 X145.559 Y89.056 E6.77705
G1 X146.501 Y89.257 E0.10868
G1 X147.454 Y89.673 E0.11740
G1 X148.357 Y90.328 E0.12595
G1 X149.047 Y91.107 E0.11740
G1 X149.530 Y91.942 E0.10884
G1 X149.859 Y92.930 E0.11756
G1 X149.975 Y93.962 E0.11725
G1 X149.977 Y136.999 E4.85782
G1 X149.859 Y138.071 E0.12170
G1 X149.530 Y139.057 E0.11736
G1 X149.003 Y139.954 E0.11740
G1 X148.302 Y140.722 E0.11740
G1 X147.455 Y141.328 E0.11756
G1 X146.575 Y141.719 E0.10868
G1 X145.481 Y141.952 E0.12627
G1 X85.518 Y141.952 E6.76834
G1 X84.498 Y141.743 E0.11756
G1 X83.544 Y141.327 E0.11740
G1 X82.698 Y140.722 E0.11740
G1 X81.998 Y139.955 E0.11724
G1 X81.440 Y138.989 E0.12595
G1 X81.126 Y137.997 E0.11736
G1 X81.023 Y137.000 E0.11315
G1 X81.023 Y94.001 E4.85357
G1 X81.141 Y92.929 E0.12170
G1 X81.470 Y91.943 E0.11736
G1 X81.997 Y91.046 E0.11740
G1 X82.699 Y90.277 E0.11756
G1 X83.479 Y89.710 E0.10884
G1 X84.317 Y89.330 E0.10385
G1 X84.804 Y90.423 F9000.000
;TYPE:External perimeter
G1 F1200.000
G1 X85.605 Y90.245 E0.09269
G1 X145.395 Y90.245 E6.74874
G1 X146.167 Y90.409 E0.08909
G1 X146.888 Y90.730 E0.08909
G1 X147.526 Y91.194 E0.08909
G1 X148.054 Y91.781 E0.08909
G1 X148.449 Y92.464 E0.08909
G1 X148.693 Y93.215 E0.08909
G1 X148.780 Y94.043 E0.09397
G1 X148.780 Y136.957 E4.84394
G1 X148.693 Y137.785 E0.09397
G1 X148.449 Y138.536 E0.08909
G1 X148.054 Y139.219 E0.08909
G1 X147.526 Y139.806 E0.08909
G1 X146.888 Y140.270 E0.08909
G1 X146.167 Y140.591 E0.08909
G1 X145.395 Y140.755 E0.08909
G1 X85.605 Y140.755 E6.74875
G1 X84.833 Y140.591 E0.08909
G1 X84.112 Y140.270 E0.08909
G1 X83.474 Y139.806 E0.08909
G1 X82.946 Y139.219 E0.08909
G1 X82.551 Y138.536 E0.08909
G1 X82.307 Y137.785 E0.08909
G1 X82.220 Y136.957 E0.09397
G1 X82.220 Y94.043 E4.84394
G1 X82.307 Y93.215 E0.09397
G1 X82.551 Y92.464 E0.08909
G1 X82.946 Y91.781 E0.08909
G1 X83.474 Y91.194 E0.08909
G1 X84.112 Y90.730 E0.08909
G1 X84.694 Y90.471 E0.07187
G1 X85.401 Y90.954 F9000.000
G1 E-3.50000 F3600.000
;WIPE_START
G1 F7200.000
G1 X85.605 Y90.245 E-0.44605
G1 X87.666 Y90.245 E-0.97896
;WIPE_END
G1 E-0.07500 F3600.000
G1 X145.636 Y91.067 F9000.000
G1 E5.00000 F2400.000
;TYPE:Perimeter
G1 F1200.000
G1 X145.932 Y91.131 E0.03424
G1 X146.509 Y91.387 E0.07120
G1 X147.019 Y91.758 E0.07120
G1 X147.441 Y92.227 E0.07120
G1 X147.756 Y92.773 E0.07120
G1 X147.951 Y93.373 E0.07120
G1 X148.026 Y94.082 E0.08056
G1 X148.026 Y136.918 E4.83502
G1 X147.951 Y137.627 E0.08056
G1 X147.756 Y138.227 E0.07120
G1 X147.441 Y138.773 E0.07120
G1 X147.019 Y139.242 E0.07120
G1 X146.509 Y139.613 E0.07120
G1 X145.932 Y139.870 E0.07120
G1 X145.315 Y140.001 E0.07120
G1 X85.685 Y140.001 E6.73085
G1 X85.068 Y139.870 E0.07120
G1 X84.491 Y139.613 E0.07120
G1 X83.981 Y139.242 E0.07120
G1 X83.559 Y138.773 E0.07120
G1 X83.244 Y138.227 E0.07120
G1 X83.049 Y137.627 E0.07120
G1 X82.974 Y136.917 E0.08056
G1 X82.974 Y94.083 E4.83502
G1 X83.049 Y93.373 E0.08056
G1 X83.244 Y92.773 E0.07120
G1 X83.559 Y92.227 E0.07120
G1 X83.981 Y91.758 E0.07120
G1 X84.491 Y91.387 E0.07120
G1 X85.068 Y91.131 E0.07120
G1 X85.685 Y90.999 E0.07120
G1 X145.315 Y90.999 E6.73085
G1 X145.518 Y91.042 E0.02341
G1 E-3.50000 F3600.000
;WIPE_START
G1 F7200.000
G1 X145.932 Y91.131 E-0.20110
G1 X146.509 Y91.387 E-0.29961
G1 X147.019 Y91.758 E-0.29961
G1 X147.441 Y92.227 E-0.29961
G1 X147.756 Y92.773 E-0.29961
G1 X147.773 Y92.824 E-0.02546
;WIPE_END
G1 E-0.07500 F3600.000
G1 X144.420 Y109.680 F9000.000
G1 E5.00000 F2400.000
;TYPE:External perimeter
G1 F1200.000
G1 X144.420 Y121.320 E1.31387
G1 X140.780 Y121.320 E0.41087
G1 X140.780 Y109.680 E1.31387
G1 X144.300 Y109.680 E0.39732
G1 X145.150 Y109.352 F9000.000
G1 E-3.50000 F3600.000
;WIPE_START
G1 F7200.000
G1 X144.331 Y112.680 E-1.42500
;WIPE_END
G1 E-0.07500 F3600.000
G1 X140.026 Y108.926 F9000.000
G1 E5.00000 F2400.000
;TYPE:Perimeter
G1 F1200.000
G1 X145.174 Y108.926 E0.58112
G1 X145.174 Y122.074 E1.48412
G1 X140.026 Y122.074 E0.58112
G1 X140.026 Y109.046 E1.47058
G1 E-3.50000 F3600.000
;WIPE_START
G1 F7200.000
G1 X143.025 Y108.976 E-1.42500
;WIPE_END
G1 E-0.07500 F3600.000
G1 X147.800 Y94.408 F9000.000
G1 E5.00000 F2400.000
;TYPE:Solid infill
;WIDTH:0.840912
G1 F1200.000
G1 X144.957 Y91.565 E0.45439
G1 X143.889 Y91.565 E0.12068
G1 X147.460 Y95.137 E0.57082
G1 X147.460 Y96.204 E0.12068
G1 X142.821 Y91.565 E0.74148
G1 X141.753 Y91.565 E0.12068
G1 X147.460 Y97.272 E0.91215
G1 X147.460 Y98.340 E0.12068
G1 X140.685 Y91.565 E1.08281
G1 X139.617 Y91.565 E0.12068
G1 X147.460 Y99.408 E1.25347
G1 X147.460 Y100.476 E0.12068
G1 X138.550 Y91.565 E1.42414
G1 X137.482 Y91.565 E0.12068
G1 X147.460 Y101.544 E1.59480
G1 X147.460 Y102.611 E0.12068
G1 X136.414 Y91.565 E1.76547
G1 X135.346 Y91.565 E0.12068
G1 X147.460 Y103.679 E1.93613
G1 X147.460 Y104.747 E0.12068
G1 X134.278 Y91.565 E2.10679
G1 X133.210 Y91.565 E0.12068
G1 X147.460 Y105.815 E2.27746
G1 X147.460 Y106.883 E0.12068
G1 X132.143 Y91.565 E2.44812
G1 X131.075 Y91.565 E0.12068
G1 X147.460 Y107.951 E2.61879
G1 X147.460 Y109.018 E0.12068
G1 X130.007 Y91.565 E2.78945
G1 X128.939 Y91.565 E0.12068
G1 X147.800 Y110.426 E3.01435
G1 E-3.50000 F3600.000
;WIPE_START
G1 F7200.000
G1 X145.678 Y108.304 E-1.42500
;WIPE_END
G1 E-0.07500 F3600.000
G1 X145.006 Y108.700 F9000.000
G1 E5.00000 F2400.000
G1 F1200.000
G1 X127.871 Y91.565 E2.73851
G1 X126.803 Y91.565 E0.12068
G1 X143.599 Y108.360 E2.68427
G1 X142.531 Y108.360 E0.12068
G1 X125.736 Y91.565 E2.68427
G1 X124.668 Y91.565 E0.12068
G1 X141.463 Y108.360 E2.68427
G1 X140.395 Y108.360 E0.12068
G1 X123.600 Y91.565 E2.68427
G1 X122.532 Y91.565 E0.12068
G1 X139.460 Y108.493 E2.70552
G1 X139.460 Y109.561 E0.12068
G1 X121.464 Y91.565 E2.87618
G1 X120.396 Y91.565 E0.12068
G1 X139.460 Y110.629 E3.04684
G1 X139.460 Y111.697 E0.12068
G1 X119.329 Y91.565 E3.21751
G1 X118.261 Y91.565 E0.12068
G1 X139.460 Y112.764 E3.38817
G1 X139.460 Y113.832 E0.12068
G1 X117.193 Y91.565 E3.55884
G1 X116.125 Y91.565 E0.12068
G1 X139.460 Y114.900 E3.72950
G1 X139.460 Y115.968 E0.12068
G1 X115.057 Y91.565 E3.90016
G1 X113.989 Y91.565 E0.12068
G1 X139.460 Y117.036 E4.07083
G1 X139.460 Y118.104 E0.12068
G1 X112.922 Y91.565 E4.24149
G1 X111.854 Y91.565 E0.12068
G1 X139.460 Y119.171 E4.41216
G1 X139.460 Y120.239 E0.12068
G1 X110.786 Y91.565 E4.58282
G1 X109.718 Y91.565 E0.12068
G1 X139.800 Y121.647 E4.80772
G1 E-3.50000 F3600.000
;WIPE_START
G1 F7200.000
G1 X137.678 Y119.525 E-1.42500
;WIPE_END
G1 E-0.07500 F3600.000
G1 X147.800 Y111.493 F9000.000
G1 E5.00000 F2400.000
G1 F1200.000
G1 X145.740 Y109.434 E0.32921
G1 X145.740 Y110.501 E0.12068
G1 X147.460 Y112.222 E0.27497
G1 X147.460 Y113.290 E0.12068
G1 X145.740 Y111.569 E0.27497
G1 X145.740 Y112.637 E0.12068
G1 X147.460 Y114.357 E0.27497
G1 X147.460 Y115.425 E0.12068
G1 X145.740 Y113.705 E0.27497
G1 X145.740 Y114.773 E0.12068
G1 X147.460 Y116.493 E0.27497
G1 X147.460 Y117.561 E0.12068
G1 X145.740 Y115.841 E0.27497
G1 X145.740 Y116.908 E0.12068
G1 X147.460 Y118.629 E0.27497
G1 X147.460 Y119.697 E0.12068
G1 X145.740 Y117.976 E0.27497
G1 X145.740 Y119.044 E0.12068
G1 X147.460 Y120.764 E0.27497
G1 X147.460 Y121.832 E0.12068
G1 X145.740 Y120.112 E0.27497
G1 X145.740 Y121.180 E0.12068
G1 X147.460 Y122.900 E0.27497
G1 X147.460 Y123.968 E0.12068
G1 X145.740 Y122.248 E0.27497
G1 X145.740 Y122.640 E0.04433
G1 X145.064 Y122.640 E0.07635
G1 X147.460 Y125.036 E0.38294
G1 X147.460 Y126.104 E0.12068
G1 X143.996 Y122.640 E0.55361
G1 X142.929 Y122.640 E0.12068
G1 X147.460 Y127.171 E0.72427
G1 X147.460 Y128.239 E0.12068
G1 X141.861 Y122.640 E0.89494
G1 X140.793 Y122.640 E0.12068
G1 X147.460 Y129.307 E1.06560
G1 X147.460 Y130.375 E0.12068
G1 X108.650 Y91.565 E6.20273
G1 X107.582 Y91.565 E0.12068
G1 X147.460 Y131.443 E6.37340
G1 X147.460 Y132.511 E0.12068
G1 X106.515 Y91.565 E6.54406
G1 X105.447 Y91.565 E0.12068
G1 X147.460 Y133.578 E6.71472
G1 X147.460 Y134.646 E0.12068
G1 X104.379 Y91.565 E6.88539
G1 X103.311 Y91.565 E0.12068
G1 X147.460 Y135.714 E7.05605
G1 X147.460 Y136.782 E0.12068
G1 X102.243 Y91.565 E7.22672
G1 X101.175 Y91.565 E0.12068
G1 X147.327 Y137.717 E7.37615
G1 X147.237 Y137.996 E0.03314
G1 X146.981 Y138.439 E0.05777
G1 X100.108 Y91.565 E7.49148
G1 X99.040 Y91.565 E0.12068
G1 X146.439 Y138.964 E7.57551
G1 X146.224 Y139.120 E0.03001
G1 X145.739 Y139.332 E0.05981
G1 X97.972 Y91.565 E7.63432
G1 X96.904 Y91.565 E0.12068
G1 X144.774 Y139.435 E7.65074
G1 X143.706 Y139.435 E0.12068
G1 X95.836 Y91.565 E7.65074
G1 X94.768 Y91.565 E0.12068
G1 X142.638 Y139.435 E7.65074
G1 X141.571 Y139.435 E0.12068
G1 X93.701 Y91.565 E7.65074
G1 X92.633 Y91.565 E0.12068
G1 X140.503 Y139.435 E7.65074
G1 X139.435 Y139.435 E0.12068
G1 X91.565 Y91.565 E7.65074
G1 X90.497 Y91.565 E0.12068
G1 X138.367 Y139.435 E7.65074
G1 X137.299 Y139.435 E0.12068
G1 X89.429 Y91.565 E7.65074
G1 X88.361 Y91.565 E0.12068
G1 X136.231 Y139.435 E7.65074
G1 X135.164 Y139.435 E0.12068
G1 X87.294 Y91.565 E7.65074
G1 X86.226 Y91.565 E0.12068
G1 X134.096 Y139.435 E7.65074
G1 X133.028 Y139.435 E0.12068
G1 X85.261 Y91.668 E7.63432
G1 X85.243 Y91.671 E0.00200
G1 X84.776 Y91.880 E0.05785
G1 X84.561 Y92.036 E0.03002
G1 X131.960 Y139.435 E7.57550
G1 X130.892 Y139.435 E0.12068
G1 X84.019 Y92.561 E7.49147
G1 X83.763 Y93.004 E0.05776
G1 X83.673 Y93.283 E0.03315
G1 X129.825 Y139.435 E7.37614
G1 X128.757 Y139.435 E0.12068
G1 X83.540 Y94.218 E7.22670
G1 X83.540 Y95.286 E0.12068
G1 X127.689 Y139.435 E7.05604
G1 X126.621 Y139.435 E0.12068
G1 X83.540 Y96.354 E6.88537
G1 X83.540 Y97.422 E0.12068
G1 X125.553 Y139.435 E6.71471
G1 X124.485 Y139.435 E0.12068
G1 X83.540 Y98.489 E6.54405
G1 X83.540 Y99.557 E0.12068
G1 X123.418 Y139.435 E6.37338
G1 X122.350 Y139.435 E0.12068
G1 X83.540 Y100.625 E6.20272
G1 X83.540 Y101.693 E0.12068
G1 X121.282 Y139.435 E6.03205
G1 X120.214 Y139.435 E0.12068
