; generated by PrusaSlicer 2.5.0+MacOS-arm64 on 2023-03-16 at 22:18:48 UTC

; 

; external perimeters extrusion width = 0.45mm
; perimeters extrusion width = 0.45mm
; infill extrusion width = 0.45mm
; solid infill extrusion width = 0.45mm
; top infill extrusion width = 0.40mm
; first layer extrusion width = 0.42mm

M201 X500 Y500 Z100 E5000 ; sets maximum accelerations, mm/sec^2
M203 X500 Y500 Z10 E60 ; sets maximum feedrates, mm / sec
M204 P500 R1000 T500 ; sets acceleration (P, T) and retract acceleration (R), mm/sec^2
M205 X8.00 Y8.00 Z0.40 E5.00 ; sets the jerk limits, mm/sec
M205 S0 T0 ; sets the minimum extruding and travel feed rate, mm/sec
M107
;TYPE:Custom
G90 ; use absolute coordinates
M83 ; extruder relative mode
M104 S240 ; set extruder temp
M140 S70 ; set bed temp
M190 S70 ; wait for bed temp
M109 S240 ; wait for extruder temp
G28 ; home all
G1 Z2 F240
G1 X2 Y10 F3000
G1 Z0.28 F240
G92 E0
G1 Y190 E15 F1500 ; intro line
G1 X2.3 F5000
G92 E0
G1 Y10 E15 F1200 ; intro line
G92 E0
G21 ; set units to millimeters
G90 ; use absolute coordinates
M83 ; use relative distances for extrusion
; Filament gcode
M107
;LAYER_CHANGE
;Z:0.2
;HEIGHT:0.2
;BEFORE_LAYER_CHANGE
G92 E0
;0.2


G1 E-5 F3600
G1 Z.2 F9000
;AFTER_LAYER_CHANGE
;0.2
G1 X84.747 Y92.786
G1 E5 F2400
;TYPE:Perimeter
;WIDTH:0.419999
G1 F1200
G1 X85.026 Y92.567 E.01112
G1 X85.39 Y92.455 E.01195
G1 X145.61 Y92.455 E1.88814
G1 X146.025 Y92.59 E.0137
G1 X146.35 Y92.882 E.0137
G1 X146.494 Y93.177 E.01028
G1 X146.559 Y93.576 E.01266
G1 X146.559 Y137.362 E1.37291
G1 X146.552 Y137.486 E.00388
G1 X146.46 Y137.927 E.01414
G1 X146.287 Y138.188 E.00981
G1 X145.974 Y138.433 E.01246
G1 X145.61 Y138.545 E.01195
G1 X85.39 Y138.545 E1.88814
G1 X84.975 Y138.41 E.0137
G1 X84.65 Y138.118 E.0137
G1 X84.506 Y137.823 E.01028
G1 X84.441 Y137.424 E.01266
G1 X84.441 Y93.576 E1.37485
G1 X84.54 Y93.073 E.01607
G1 X84.704 Y92.827 E.00926
G1 X84.534 Y92.447 F9000
G1 F1200
G1 X84.942 Y92.192 E.01508
G1 X85.351 Y92.078 E.01329
G1 X145.5 Y92.078 E1.88594
G1 X145.942 Y92.14 E.01399
G1 X146.336 Y92.349 E.01399
G1 X146.657 Y92.659 E.01399
G1 X146.853 Y93.061 E.01399
G1 X146.936 Y93.556 E.01575
G1 X146.936 Y137.362 E1.37353
G1 X146.899 Y137.797 E.01368
G1 X146.734 Y138.206 E.01382
G1 X146.466 Y138.553 E.01376
G1 X146.058 Y138.808 E.01508
G1 X145.649 Y138.922 E.0133
G1 X85.5 Y138.922 E1.88594
G1 X85.058 Y138.86 E.01399
G1 X84.664 Y138.651 E.01399
G1 X84.343 Y138.341 E.01399
G1 X84.147 Y137.939 E.01399
G1 X84.064 Y137.444 E.01575
G1 X84.064 Y93.556 E1.37609
G1 X84.101 Y93.203 E.01113
G1 X84.266 Y92.794 E.01382
G1 X84.498 Y92.494 E.01188
G1 X84.284 Y92.161 F9000
G1 F1200
G1 X84.789 Y91.847 E.01863
G1 X85.311 Y91.701 E.017
G1 X145.689 Y91.701 E1.89311
G1 X146.059 Y91.779 E.01186
G1 X146.405 Y91.933 E.01186
G1 X146.711 Y92.156 E.01186
G1 X146.964 Y92.437 E.01186
G1 X147.153 Y92.764 E.01186
G1 X147.27 Y93.124 E.01186
G1 X147.313 Y93.536 E.01299
G1 X147.313 Y137.362 E1.37415
G1 X147.302 Y137.565 E.00636
G1 X147.212 Y138.053 E.01557
G1 X147.051 Y138.413 E.01236
G1 X146.716 Y138.839 E.01699
G1 X146.211 Y139.153 E.01863
G1 X145.689 Y139.299 E.017
G1 X85.311 Y139.299 E1.89311
G1 X84.941 Y139.221 E.01186
G1 X84.595 Y139.067 E.01186
G1 X84.289 Y138.844 E.01186
G1 X84.036 Y138.563 E.01186
G1 X83.847 Y138.236 E.01186
G1 X83.73 Y137.876 E.01186
G1 X83.687 Y137.464 E.01299
G1 X83.687 Y93.536 E1.37733
G1 X83.788 Y92.947 E.01874
G1 X83.949 Y92.587 E.01236
G1 X84.247 Y92.208 E.0151
G1 X84.034 Y91.876 F9000
;TYPE:External perimeter
G1 F1200
G1 X84.323 Y91.677 E.011
G1 X84.824 Y91.419 E.01766
G1 X85.271 Y91.324 E.01434
G1 X145.729 Y91.324 E1.8956
G1 X146.176 Y91.419 E.01434
G1 X146.594 Y91.605 E.01434
G1 X146.964 Y91.874 E.01434
G1 X147.27 Y92.214 E.01434
G1 X147.499 Y92.61 E.01434
G1 X147.64 Y93.045 E.01434
G1 X147.69 Y93.516 E.01486
G1 X147.69 Y137.362 E1.37477
G1 X147.64 Y137.955 E.01864
G1 X147.499 Y138.39 E.01434
G1 X147.27 Y138.786 E.01434
G1 X146.966 Y139.124 E.01426
G1 X146.677 Y139.323 E.011
G1 X146.176 Y139.581 E.01766
G1 X145.729 Y139.676 E.01434
G1 X85.271 Y139.676 E1.8956
G1 X84.824 Y139.581 E.01434
G1 X84.406 Y139.395 E.01434
G1 X84.036 Y139.126 E.01434
G1 X83.73 Y138.786 E.01434
G1 X83.501 Y138.39 E.01434
G1 X83.36 Y137.955 E.01434
G1 X83.31 Y137.484 E.01486
G1 X83.31 Y93.516 E1.37857
G1 X83.36 Y93.045 E.01486
G1 X83.501 Y92.61 E.01434
G1 X83.73 Y92.214 E.01434
G1 X83.994 Y91.92 E.01238
G1 X84.366 Y91.99 F9000
G1 E-3.5 F3600
;WIPE_START
G1 F7200
G1 X84.323 Y91.677 E-.19453
G1 X84.824 Y91.419 E-.26748
G1 X85.271 Y91.324 E-.2173
G1 X86.841 Y91.324 E-.74569
;WIPE_END
G1 E-.075 F3600
G1 X145.118 Y92.568 F9000
G1 E5 F2400
;TYPE:Solid infill
;WIDTH:0.420162
G1 F1200
G1 X146.276 Y93.726 E.05137
G1 X146.276 Y94.26 E.01673
G1 X144.754 Y92.738 E.06751
G1 X144.221 Y92.738 E.01673
G1 X146.276 Y94.793 E.09118
G1 X146.276 Y95.327 E.01673
G1 X143.687 Y92.738 E.11484
G1 X143.154 Y92.738 E.01673
G1 X146.276 Y95.86 E.13851
G1 X146.276 Y96.394 E.01673
G1 X142.62 Y92.738 E.16218
G1 X142.087 Y92.738 E.01673
G1 X146.276 Y96.927 E.18584
G1 X146.276 Y97.461 E.01673
G1 X141.553 Y92.738 E.20951
G1 X141.02 Y92.738 E.01673
G1 X146.276 Y97.994 E.23318
G1 X146.276 Y98.528 E.01673
G1 X140.486 Y92.738 E.25684
G1 X139.953 Y92.738 E.01673
G1 X146.276 Y99.061 E.28051
G1 X146.276 Y99.595 E.01673
G1 X139.419 Y92.738 E.30418
G1 X138.886 Y92.738 E.01673
G1 X146.276 Y100.128 E.32784
G1 X146.276 Y100.662 E.01673
G1 X138.352 Y92.738 E.35151
G1 X137.819 Y92.738 E.01673
G1 X146.276 Y101.195 E.37518
G1 X146.276 Y101.729 E.01673
G1 X137.285 Y92.738 E.39884
G1 X136.752 Y92.738 E.01673
G1 X146.276 Y102.262 E.42251
G1 X146.276 Y102.796 E.01673
G1 X136.218 Y92.738 E.44617
G1 X135.685 Y92.738 E.01673
G1 X146.276 Y103.329 E.46984
G1 X146.276 Y103.863 E.01673
G1 X135.151 Y92.738 E.49351
G1 X134.618 Y92.738 E.01673
G1 X146.276 Y104.396 E.51717
G1 X146.276 Y104.93 E.01673
G1 X134.084 Y92.738 E.54084
G1 X133.551 Y92.738 E.01673
G1 X146.276 Y105.463 E.56451
G1 X146.276 Y105.997 E.01673
G1 X133.017 Y92.738 E.58817
G1 X132.484 Y92.738 E.01673
G1 X146.276 Y106.53 E.61184
G1 X146.276 Y107.064 E.01673
G1 X131.95 Y92.738 E.63551
G1 X131.417 Y92.738 E.01673
G1 X146.276 Y107.597 E.65917
G1 X146.276 Y108.131 E.01673
G1 X130.883 Y92.738 E.68284
G1 X130.35 Y92.738 E.01673
G1 X146.276 Y108.664 E.70651
G1 X146.276 Y109.198 E.01673
G1 X129.816 Y92.738 E.73017
G1 X129.283 Y92.738 E.01673
G1 X146.276 Y109.731 E.75384
G1 X146.276 Y110.265 E.01673
G1 X128.749 Y92.738 E.77751
G1 X128.216 Y92.738 E.01673
G1 X146.276 Y110.798 E.80117
G1 X146.276 Y111.332 E.01673
G1 X127.682 Y92.738 E.82484
G1 X127.149 Y92.738 E.01673
G1 X146.276 Y111.865 E.84851
G1 X146.276 Y112.399 E.01673
G1 X126.615 Y92.738 E.87217
G1 X126.082 Y92.738 E.01673
G1 X146.276 Y112.932 E.89584
G1 X146.276 Y113.466 E.01673
G1 X125.548 Y92.738 E.9195
G1 X125.015 Y92.738 E.01673
G1 X146.276 Y113.999 E.94317
G1 X146.276 Y114.533 E.01673
G1 X124.481 Y92.738 E.96684
G1 X123.948 Y92.738 E.01673
G1 X146.276 Y115.066 E.9905
G1 X146.276 Y115.6 E.01673
G1 X123.414 Y92.738 E1.01417
G1 X122.881 Y92.738 E.01673
G1 X146.276 Y116.133 E1.03784
G1 X146.276 Y116.667 E.01673
G1 X122.347 Y92.738 E1.0615
G1 X121.814 Y92.738 E.01673
G1 X146.276 Y117.2 E1.08517
G1 X146.276 Y117.734 E.01673
G1 X121.28 Y92.738 E1.10884
G1 X120.747 Y92.738 E.01673
G1 X146.276 Y118.267 E1.1325
G1 X146.276 Y118.801 E.01673
G1 X120.213 Y92.738 E1.15617
G1 X119.68 Y92.738 E.01673
G1 X146.276 Y119.334 E1.17984
G1 X146.276 Y119.868 E.01673
G1 X119.146 Y92.738 E1.2035
G1 X118.613 Y92.738 E.01673
G1 X146.276 Y120.401 E1.22717
G1 X146.276 Y120.935 E.01673
G1 X118.079 Y92.738 E1.25084
G1 X117.546 Y92.738 E.01673
G1 X146.276 Y121.468 E1.2745
G1 X146.276 Y122.002 E.01673
G1 X117.012 Y92.738 E1.29817
G1 X116.479 Y92.738 E.01673
G1 X146.276 Y122.535 E1.32184
G1 X146.276 Y123.069 E.01673
G1 X115.945 Y92.738 E1.3455
G1 X115.412 Y92.738 E.01673
G1 X146.276 Y123.602 E1.36917
G1 X146.276 Y124.136 E.01673
G1 X114.878 Y92.738 E1.39284
G1 X114.345 Y92.738 E.01673
G1 X146.276 Y124.669 E1.4165
G1 X146.276 Y125.203 E.01673
G1 X113.811 Y92.738 E1.44017
G1 X113.278 Y92.738 E.01673
G1 X146.276 Y125.736 E1.46383
G1 X146.276 Y126.27 E.01673
G1 X112.744 Y92.738 E1.4875
G1 X112.211 Y92.738 E.01673
G1 X146.276 Y126.803 E1.51117
G1 X146.276 Y127.337 E.01673
G1 X111.677 Y92.738 E1.53483
G1 X111.144 Y92.738 E.01673
G1 X146.276 Y127.87 E1.5585
G1 X146.276 Y128.404 E.01673
G1 X110.61 Y92.738 E1.58217
G1 X110.077 Y92.738 E.01673
G1 X146.276 Y128.937 E1.60583
G1 X146.276 Y129.471 E.01673
G1 X109.543 Y92.738 E1.6295
G1 X109.01 Y92.738 E.01673
G1 X146.276 Y130.004 E1.65317
G1 X146.276 Y130.538 E.01673
G1 X108.476 Y92.738 E1.67683
G1 X107.943 Y92.738 E.01673
G1 X146.276 Y131.071 E1.7005
G1 X146.276 Y131.605 E.01673
G1 X107.409 Y92.738 E1.72417
G1 X106.876 Y92.738 E.01673
G1 X146.276 Y132.138 E1.74783
G1 X146.276 Y132.672 E.01673
G1 X106.342 Y92.738 E1.7715
G1 X105.809 Y92.738 E.01673
G1 X146.276 Y133.205 E1.79517
G1 X146.276 Y133.739 E.01673
G1 X105.275 Y92.738 E1.81883
G1 X104.742 Y92.738 E.01673
G1 X146.276 Y134.272 E1.8425
G1 X146.276 Y134.806 E.01673
G1 X104.208 Y92.738 E1.86617
G1 X103.675 Y92.738 E.01673
G1 X146.276 Y135.339 E1.88983
G1 X146.276 Y135.873 E.01673
G1 X103.141 Y92.738 E1.9135
G1 X102.608 Y92.738 E.01673
G1 X146.276 Y136.406 E1.93716
G1 X146.276 Y136.94 E.01673
G1 X102.074 Y92.738 E1.96083
G1 X101.541 Y92.738 E.01673
G1 X146.27 Y137.467 E1.98423
G1 X146.25 Y137.659 E.00606
G1 X146.157 Y137.887 E.00772
G1 X101.007 Y92.738 E2.00287
G1 X100.474 Y92.738 E.01673
G1 X145.886 Y138.15 E2.01454
G1 X145.737 Y138.229 E.00529
G1 X145.58 Y138.262 E.00503
G1 X145.465 Y138.262 E.00362
G1 X99.94 Y92.738 E2.0195
G1 X99.407 Y92.738 E.01673
G1 X144.931 Y138.262 E2.0195
G1 X144.398 Y138.262 E.01673
G1 X98.873 Y92.738 E2.0195
G1 X98.34 Y92.738 E.01673
G1 X143.864 Y138.262 E2.0195
G1 X143.331 Y138.262 E.01673
G1 X97.806 Y92.738 E2.0195
G1 X97.273 Y92.738 E.01673
G1 X142.797 Y138.262 E2.0195
G1 X142.264 Y138.262 E.01673
G1 X96.739 Y92.738 E2.0195
G1 X96.206 Y92.738 E.01673
G1 X141.73 Y138.262 E2.0195
G1 X141.197 Y138.262 E.01673
G1 X95.672 Y92.738 E2.0195
G1 X95.139 Y92.738 E.01673
G1 X140.663 Y138.262 E2.0195
G1 X140.13 Y138.262 E.01673
G1 X94.605 Y92.738 E2.0195
G1 X94.072 Y92.738 E.01673
G1 X139.596 Y138.262 E2.0195
G1 X139.063 Y138.262 E.01673
G1 X93.538 Y92.738 E2.0195
G1 X93.005 Y92.738 E.01673
G1 X138.529 Y138.262 E2.0195
G1 X137.996 Y138.262 E.01673
G1 X92.471 Y92.738 E2.0195
G1 X91.938 Y92.738 E.01673
G1 X137.462 Y138.262 E2.0195
G1 X136.929 Y138.262 E.01673
G1 X91.404 Y92.738 E2.0195
G1 X90.871 Y92.738 E.01673
G1 X136.395 Y138.262 E2.0195
G1 X135.862 Y138.262 E.01673
G1 X90.337 Y92.738 E2.0195
G1 X89.804 Y92.738 E.01673
G1 X135.328 Y138.262 E2.0195
G1 X134.795 Y138.262 E.01673
G1 X89.27 Y92.738 E2.0195
G1 X88.737 Y92.738 E.01673
G1 X134.261 Y138.262 E2.0195
G1 X133.728 Y138.262 E.01673
G1 X88.203 Y92.738 E2.0195
G1 X87.67 Y92.738 E.01673
G1 X133.194 Y138.262 E2.0195
G1 X132.661 Y138.262 E.01673
G1 X87.136 Y92.738 E2.0195
G1 X86.603 Y92.738 E.01673
G1 X132.127 Y138.262 E2.0195
G1 X131.594 Y138.262 E.01673
G1 X86.069 Y92.738 E2.0195
G1 X85.536 Y92.738 E.01673
G1 X131.06 Y138.262 E2.0195
G1 X130.527 Y138.262 E.01673
G1 X85.114 Y92.85 E2.01454
G1 X84.972 Y92.947 E.00538
G1 X84.843 Y93.113 E.00659
G1 X129.993 Y138.262 E2.00287
G1 X129.46 Y138.262 E.01673
G1 X84.73 Y93.533 E1.98423
G1 X84.724 Y94.06 E.01655
G1 X128.926 Y138.262 E1.96084
G1 X128.393 Y138.262 E.01673
G1 X84.724 Y94.594 E1.93717
G1 X84.724 Y95.127 E.01673
G1 X127.859 Y138.262 E1.9135
G1 X127.326 Y138.262 E.01673
G1 X84.724 Y95.661 E1.88984
G1 X84.724 Y96.194 E.01673
G1 X126.792 Y138.262 E1.86617
G1 X126.259 Y138.262 E.01673
G1 X84.724 Y96.728 E1.8425
G1 X84.724 Y97.261 E.01673
G1 X125.725 Y138.262 E1.81884
G1 X125.192 Y138.262 E.01673
G1 X84.724 Y97.795 E1.79517
G1 X84.724 Y98.328 E.01673
G1 X124.658 Y138.262 E1.7715
G1 X124.125 Y138.262 E.01673
G1 X84.724 Y98.862 E1.74784
G1 X84.724 Y99.395 E.01673
G1 X123.591 Y138.262 E1.72417
G1 X123.058 Y138.262 E.01673
G1 X84.724 Y99.929 E1.7005
G1 X84.724 Y100.462 E.01673
G1 X122.524 Y138.262 E1.67684
G1 X121.991 Y138.262 E.01673
G1 X84.724 Y100.996 E1.65317
G1 X84.724 Y101.529 E.01673
G1 X121.457 Y138.262 E1.6295
G1 X120.924 Y138.262 E.01673
G1 X84.724 Y102.063 E1.60584
G1 X84.724 Y102.596 E.01673
G1 X120.39 Y138.262 E1.58217
G1 X119.857 Y138.262 E.01673
G1 X84.724 Y103.13 E1.55851
G1 X84.724 Y103.663 E.01673
G1 X119.323 Y138.262 E1.53484
G1 X118.79 Y138.262 E.01673
G1 X84.724 Y104.197 E1.51117
G1 X84.724 Y104.73 E.01673
G1 X118.256 Y138.262 E1.48751
G1 X117.723 Y138.262 E.01673
G1 X84.724 Y105.264 E1.46384
G1 X84.724 Y105.797 E.01673
G1 X117.189 Y138.262 E1.44017
G1 X116.656 Y138.262 E.01673
G1 X84.724 Y106.331 E1.41651
G1 X84.724 Y106.864 E.01673
G1 X116.122 Y138.262 E1.39284
G1 X115.589 Y138.262 E.01673
G1 X84.724 Y107.398 E1.36917
G1 X84.724 Y107.931 E.01673
G1 X115.055 Y138.262 E1.34551
G1 X114.522 Y138.262 E.01673
G1 X84.724 Y108.465 E1.32184
G1 X84.724 Y108.998 E.01673
G1 X113.988 Y138.262 E1.29817
G1 X113.455 Y138.262 E.01673
G1 X84.724 Y109.532 E1.27451
G1 X84.724 Y110.065 E.01673
G1 X112.921 Y138.262 E1.25084
G1 X112.388 Y138.262 E.01673
G1 X84.724 Y110.599 E1.22717
G1 X84.724 Y111.132 E.01673
G1 X111.854 Y138.262 E1.20351
G1 X111.321 Y138.262 E.01673
G1 X84.724 Y111.666 E1.17984
G1 X84.724 Y112.199 E.01673
G1 X110.787 Y138.262 E1.15617
G1 X110.254 Y138.262 E.01673
G1 X84.724 Y112.733 E1.13251
G1 X84.724 Y113.266 E.01673
G1 X109.72 Y138.262 E1.10884
G1 X109.187 Y138.262 E.01673
G1 X84.724 Y113.8 E1.08518
G1 X84.724 Y114.333 E.01673
G1 X108.653 Y138.262 E1.06151
G1 X108.12 Y138.262 E.01673
G1 X84.724 Y114.867 E1.03784
G1 X84.724 Y115.4 E.01673
G1 X107.586 Y138.262 E1.01418
G1 X107.053 Y138.262 E.01673
G1 X84.724 Y115.934 E.99051
G1 X84.724 Y116.467 E.01673
G1 X106.519 Y138.262 E.96684
G1 X105.986 Y138.262 E.01673
G1 X84.724 Y117.001 E.94318
G1 X84.724 Y117.534 E.01673
G1 X105.452 Y138.262 E.91951
G1 X104.919 Y138.262 E.01673
G1 X84.724 Y118.068 E.89584
G1 X84.724 Y118.601 E.01673
G1 X104.385 Y138.262 E.87218
G1 X103.852 Y138.262 E.01673
G1 X84.724 Y119.135 E.84851
G1 X84.724 Y119.668 E.01673
G1 X103.318 Y138.262 E.82484
G1 X102.785 Y138.262 E.01673
G1 X84.724 Y120.202 E.80118
G1 X84.724 Y120.735 E.01673
G1 X102.251 Y138.262 E.77751
G1 X101.718 Y138.262 E.01673
G1 X84.724 Y121.269 E.75384
G1 X84.724 Y121.802 E.01673
G1 X101.184 Y138.262 E.73018
G1 X100.651 Y138.262 E.01673
G1 X84.724 Y122.336 E.70651
G1 X84.724 Y122.869 E.01673
G1 X100.117 Y138.262 E.68284
G1 X99.584 Y138.262 E.01673
G1 X84.724 Y123.403 E.65918
G1 X84.724 Y123.936 E.01673
G1 X99.05 Y138.262 E.63551
G1 X98.517 Y138.262 E.01673
G1 X84.724 Y124.47 E.61185
G1 X84.724 Y125.003 E.01673
G1 X97.983 Y138.262 E.58818
G1 X97.45 Y138.262 E.01673
G1 X84.724 Y125.537 E.56451
G1 X84.724 Y126.07 E.01673
G1 X96.916 Y138.262 E.54085
G1 X96.383 Y138.262 E.01673
G1 X84.724 Y126.604 E.51718
G1 X84.724 Y127.137 E.01673
G1 X95.849 Y138.262 E.49351
G1 X95.316 Y138.262 E.01673
G1 X84.724 Y127.671 E.46985
G1 X84.724 Y128.204 E.01673
G1 X94.782 Y138.262 E.44618
G1 X94.249 Y138.262 E.01673
G1 X84.724 Y128.738 E.42251
G1 X84.724 Y129.271 E.01673
G1 X93.715 Y138.262 E.39885
G1 X93.182 Y138.262 E.01673
G1 X84.724 Y129.805 E.37518
G1 X84.724 Y130.338 E.01673
G1 X92.648 Y138.262 E.35151
G1 X92.115 Y138.262 E.01673
G1 X84.724 Y130.872 E.32785
G1 X84.724 Y131.405 E.01673
G1 X91.581 Y138.262 E.30418
G1 X91.048 Y138.262 E.01673
G1 X84.724 Y131.939 E.28051
G1 X84.724 Y132.472 E.01673
G1 X90.514 Y138.262 E.25685
G1 X89.981 Y138.262 E.01673
G1 X84.724 Y133.006 E.23318
G1 X84.724 Y133.539 E.01673
G1 X89.447 Y138.262 E.20951
G1 X88.914 Y138.262 E.01673
G1 X84.724 Y134.073 E.18585
G1 X84.724 Y134.606 E.01673
G1 X88.38 Y138.262 E.16218
G1 X87.847 Y138.262 E.01673
G1 X84.724 Y135.14 E.13852
G1 X84.724 Y135.673 E.01673
G1 X87.313 Y138.262 E.11485
G1 X86.78 Y138.262 E.01673
G1 X84.724 Y136.207 E.09118
G1 X84.724 Y136.74 E.01673
G1 X86.246 Y138.262 E.06752
G1 X85.713 Y138.262 E.01673
G1 X84.554 Y137.104 E.05138
;LAYER_CHANGE
;Z:0.4
