; generated by PrusaSlicer 2.3.0+ on 2023-02-03 at 10:05:47 UTC

; 

; external perimeters extrusion width = 0.45mm
; perimeters extrusion width = 0.45mm
; infill extrusion width = 0.45mm
; solid infill extrusion width = 0.45mm
; top infill extrusion width = 0.40mm
; first layer extrusion width = 0.42mm

M201 X500 Y500 Z100 E5000 ; sets maximum accelerations, mm/sec^2
M203 X500 Y500 Z10 E60 ; sets maximum feedrates, mm/sec
M204 P500 R1000 T500 ; sets acceleration (P, T) and retract acceleration (R), mm/sec^2
M205 X8.00 Y8.00 Z0.40 E5.00 ; sets the jerk limits, mm/sec
M205 S0 T0 ; sets the minimum extruding and travel feed rate, mm/sec
M107
;TYPE:Custom
G90 ; use absolute coordinates
M83 ; extruder relative mode
M104 S210 ; set extruder temp
M140 S60 ; set bed temp
M190 S60 ; wait for bed temp
M109 S210 ; wait for extruder temp
G28 ; home all
G1 Z2 F240
G1 X2 Y10 F3000
G1 Z0.28 F240
G92 E0
G1 Y190 E15 F1500 ; intro line
G1 X2.3 F5000
G92 E0
G1 Y10 E15 F1200 ; intro line
G92 E0
G21 ; set units to millimeters
G90 ; use absolute coordinates
M83 ; use relative distances for extrusion
; Filament gcode
;LAYER_CHANGE
;Z:0.2
;HEIGHT:0.2
;BEFORE_LAYER_CHANGE
G92 E0
;0.2


G1 E-5.00000 F3600.000
G1 Z0.200 F9000.000
;AFTER_LAYER_CHANGE
;0.2
G1 X117.166 Y53.703
G1 E5.00000 F2400.000
;TYPE:Skirt
;WIDTH:0.42
G1 F1200.000
G1 X131.274 Y53.713 E0.39813
G1 X132.192 Y53.849 E0.02617
G1 X133.076 Y54.149 E0.02634
G1 X134.144 Y54.782 E0.03503
G1 X135.086 Y55.703 E0.03716
G1 X150.114 Y55.703 E0.42409
G1 X151.204 Y55.853 E0.03105
G1 X152.244 Y56.225 E0.03117
G1 X153.382 Y56.978 E0.03851
G1 X154.279 Y57.986 E0.03808
G1 X154.872 Y59.150 E0.03685
G1 X155.149 Y60.387 E0.03578
G1 X155.176 Y69.003 E0.24312
G1 X180.877 Y69.003 E0.72524
G1 X182.100 Y69.301 E0.03552
G1 X182.916 Y69.710 E0.02576
G1 X183.928 Y70.608 E0.03818
G1 X184.463 Y71.304 E0.02479
G1 X185.081 Y73.169 E0.05543
G1 X185.081 Y139.933 E1.88400
G1 X201.754 Y151.608 E0.57437
G1 X202.585 Y152.554 E0.03553
G1 X203.030 Y153.379 E0.02647
G1 X203.375 Y155.394 E0.05767
G1 X203.186 Y156.522 E0.03227
G1 X202.749 Y157.516 E0.03064
G1 X185.798 Y181.725 E0.83398
G1 X184.335 Y182.851 E0.05209
G1 X183.402 Y183.168 E0.02782
G1 X182.033 Y183.328 E0.03888
G1 X181.130 Y183.194 E0.02576
G1 X179.957 Y182.737 E0.03552
G1 X166.025 Y172.982 E0.47992
G1 X125.355 Y158.180 E1.22132
G1 X73.907 Y158.180 E1.45180
G1 X72.645 Y157.870 E0.03668
G1 X71.553 Y157.236 E0.03564
G1 X70.806 Y156.521 E0.02917
G1 X70.280 Y155.801 E0.02514
G1 X69.764 Y154.380 E0.04267
G1 X69.723 Y150.180 E0.11854
G1 X32.687 Y150.180 E1.04511
G1 X31.332 Y149.947 E0.03880
G1 X30.093 Y149.380 E0.03845
G1 X29.050 Y148.515 E0.03825
G1 X28.246 Y147.380 E0.03925
G1 X27.821 Y146.272 E0.03349
G1 X27.654 Y145.116 E0.03295
G1 X27.654 Y69.801 E2.12530
G1 X27.751 Y68.915 E0.02515
G1 X27.980 Y68.099 E0.02392
G1 X28.339 Y67.333 E0.02388
G1 X28.846 Y66.595 E0.02527
G1 X29.651 Y65.816 E0.03161
G1 X30.579 Y65.233 E0.03092
G1 X31.602 Y64.858 E0.03075
G1 X32.733 Y64.703 E0.03221
G1 X69.706 Y64.703 E1.04332
G1 X69.710 Y57.671 E0.19843
G1 X69.826 Y56.798 E0.02484
G1 X70.139 Y55.839 E0.02849
G1 X70.879 Y54.620 E0.04024
G1 X71.861 Y53.692 E0.03812
G1 X73.060 Y53.042 E0.03847
G1 X73.924 Y52.798 E0.02533
G1 X74.795 Y52.703 E0.02474
G1 X88.732 Y52.703 E0.39329
G1 X88.748 Y52.247 E0.01287
G1 X88.985 Y51.226 E0.02957
G1 X89.397 Y50.318 E0.02813
G1 X89.987 Y49.491 E0.02866
G1 X90.705 Y48.811 E0.02791
G1 X91.564 Y48.263 E0.02877
G1 X92.250 Y47.977 E0.02096
G1 X92.938 Y47.788 E0.02014
G1 X112.416 Y47.723 E0.54964
G1 X113.082 Y47.823 E0.01902
G1 X113.752 Y48.016 E0.01966
G1 X114.681 Y48.465 E0.02910
G1 X115.454 Y49.041 E0.02721
G1 X116.091 Y49.727 E0.02644
G1 X116.628 Y50.581 E0.02847
G1 X116.981 Y51.490 E0.02750
G1 X117.161 Y52.473 E0.02821
G1 X117.166 Y53.643 E0.03303
G1 X116.791 Y54.080 F9000.000
G1 F1200.000
G1 X131.234 Y54.088 E0.40758
G1 X132.089 Y54.212 E0.02437
G1 X132.901 Y54.484 E0.02417
G1 X133.931 Y55.095 E0.03380
G1 X134.737 Y55.888 E0.03189
G1 X134.871 Y56.080 E0.00661
G1 X150.101 Y56.080 E0.42979
G1 X151.132 Y56.223 E0.02938
G1 X152.095 Y56.572 E0.02888
G1 X153.118 Y57.248 E0.03462
G1 X153.955 Y58.181 E0.03537
G1 X154.509 Y59.258 E0.03417
G1 X154.772 Y60.409 E0.03334
G1 X154.800 Y69.380 E0.25313
G1 X180.853 Y69.380 E0.73519
G1 X181.987 Y69.661 E0.03297
G1 X182.723 Y70.034 E0.02327
G1 X183.662 Y70.877 E0.03561
G1 X184.145 Y71.508 E0.02242
G1 X184.704 Y73.199 E0.05027
G1 X184.704 Y140.130 E1.88869
G1 X201.518 Y151.903 E0.57925
G1 X202.286 Y152.785 E0.03298
G1 X202.683 Y153.530 E0.02383
G1 X202.998 Y155.365 E0.05254
G1 X202.831 Y156.394 E0.02941
G1 X202.429 Y157.315 E0.02837
G1 X185.505 Y181.485 E0.83263
G1 X184.182 Y182.504 E0.04712
G1 X183.336 Y182.797 E0.02528
G1 X182.061 Y182.951 E0.03624
G1 X181.244 Y182.835 E0.02327
G1 X180.154 Y182.415 E0.03297
G1 X166.201 Y172.645 E0.48067
G1 X125.421 Y157.802 E1.22460
G1 X73.931 Y157.802 E1.45301
G1 X72.764 Y157.511 E0.03395
G1 X71.764 Y156.923 E0.03273
G1 X71.080 Y156.262 E0.02683
G1 X70.601 Y155.601 E0.02303
G1 X70.141 Y154.344 E0.03778
G1 X70.097 Y149.802 E0.12816
G1 X32.703 Y149.802 E1.05521
G1 X31.465 Y149.594 E0.03544
G1 X30.313 Y149.072 E0.03568
G1 X29.341 Y148.275 E0.03546
G1 X28.588 Y147.221 E0.03655
G1 X28.191 Y146.196 E0.03104
G1 X28.031 Y145.102 E0.03118
G1 X28.031 Y69.811 E2.12463
G1 X28.118 Y69.001 E0.02299
G1 X28.329 Y68.244 E0.02219
G1 X28.660 Y67.532 E0.02215
G1 X29.122 Y66.852 E0.02320
G1 X29.899 Y66.101 E0.03048
G1 X30.761 Y65.563 E0.02868
G1 X31.711 Y65.220 E0.02851
G1 X32.746 Y65.080 E0.02946
G1 X70.083 Y65.080 E1.05360
G1 X70.087 Y57.683 E0.20872
G1 X70.190 Y56.897 E0.02238
G1 X70.474 Y56.013 E0.02619
G1 X71.157 Y54.876 E0.03745
G1 X72.102 Y53.983 E0.03668
G1 X73.183 Y53.399 E0.03467
G1 X73.981 Y53.171 E0.02343
G1 X74.806 Y53.080 E0.02341
G1 X89.104 Y53.080 E0.40349
G1 X89.120 Y52.310 E0.02171
G1 X89.337 Y51.363 E0.02742
G1 X89.716 Y50.521 E0.02607
G1 X90.261 Y49.751 E0.02661
G1 X90.923 Y49.119 E0.02583
G1 X91.753 Y48.590 E0.02776
G1 X92.382 Y48.330 E0.01922
G1 X93.013 Y48.158 E0.01844
G1 X112.374 Y48.098 E0.54635
G1 X113.014 Y48.194 E0.01825
G1 X113.631 Y48.374 E0.01813
G1 X114.499 Y48.796 E0.02724
G1 X115.213 Y49.332 E0.02520
G1 X115.802 Y49.970 E0.02451
G1 X116.284 Y50.736 E0.02553
G1 X116.614 Y51.577 E0.02549
G1 X116.784 Y52.492 E0.02626
G1 X116.790 Y54.020 E0.04314
G1 X116.415 Y54.457 F9000.000
G1 F1200.000
G1 X131.195 Y54.464 E0.41707
G1 X131.987 Y54.575 E0.02258
G1 X132.728 Y54.820 E0.02201
G1 X133.684 Y55.380 E0.03126
G1 X134.456 Y56.141 E0.03059
G1 X134.664 Y56.457 E0.01068
G1 X150.089 Y56.457 E0.43526
G1 X151.023 Y56.585 E0.02661
G1 X151.944 Y56.919 E0.02766
G1 X152.888 Y57.548 E0.03201
G1 X153.657 Y58.413 E0.03265
G1 X154.162 Y59.406 E0.03147
G1 X154.399 Y60.471 E0.03077
G1 X154.424 Y69.757 E0.26204
G1 X180.830 Y69.757 E0.74513
G1 X181.873 Y70.021 E0.03038
G1 X182.528 Y70.358 E0.02077
G1 X183.398 Y71.145 E0.03311
G1 X183.798 Y71.660 E0.01839
G1 X184.327 Y73.231 E0.04677
G1 X184.327 Y140.326 E1.89335
G1 X201.282 Y152.199 E0.58411
G1 X201.986 Y153.014 E0.03038
G1 X202.335 Y153.679 E0.02120
G1 X202.621 Y155.337 E0.04749
G1 X202.475 Y156.267 E0.02655
G1 X202.109 Y157.115 E0.02607
G1 X185.213 Y181.246 E0.83127
G1 X184.029 Y182.159 E0.04219
G1 X183.268 Y182.425 E0.02275
G1 X182.087 Y182.574 E0.03360
G1 X181.357 Y182.474 E0.02077
G1 X180.351 Y182.092 E0.03038
G1 X166.377 Y172.308 E0.48139
G1 X125.488 Y157.425 E1.22788
G1 X73.955 Y157.425 E1.45421
G1 X72.884 Y157.153 E0.03118
G1 X71.977 Y156.611 E0.02980
G1 X71.355 Y156.003 E0.02456
G1 X70.944 Y155.443 E0.01958
G1 X70.518 Y154.306 E0.03427
G1 X70.470 Y149.425 E0.13775
G1 X32.719 Y149.425 E1.06529
G1 X31.553 Y149.226 E0.03338
G1 X30.493 Y148.740 E0.03291
G1 X29.601 Y148.001 E0.03269
G1 X28.931 Y147.062 E0.03256
G1 X28.561 Y146.118 E0.02859
G1 X28.408 Y145.088 E0.02939
G1 X28.408 Y69.822 E2.12393
G1 X28.491 Y69.058 E0.02168
G1 X28.688 Y68.361 E0.02043
G1 X28.994 Y67.706 E0.02041
G1 X29.422 Y67.082 E0.02136
G1 X30.145 Y66.388 E0.02828
G1 X30.942 Y65.895 E0.02644
G1 X31.819 Y65.582 E0.02627
G1 X32.758 Y65.457 E0.02674
G1 X70.459 Y65.457 E1.06389
G1 X70.464 Y57.695 E0.21902
G1 X70.555 Y56.994 E0.01996
G1 X70.810 Y56.186 E0.02390
G1 X71.437 Y55.130 E0.03466
G1 X72.305 Y54.302 E0.03385
G1 X73.308 Y53.756 E0.03224
G1 X74.040 Y53.544 E0.02149
G1 X74.816 Y53.457 E0.02206
G1 X89.477 Y53.457 E0.41372
G1 X89.492 Y52.373 E0.03058
G1 X89.689 Y51.500 E0.02525
G1 X90.052 Y50.693 E0.02499
G1 X90.557 Y49.985 E0.02452
G1 X91.168 Y49.405 E0.02378
G1 X91.940 Y48.918 E0.02574
G1 X92.513 Y48.683 E0.01750
G1 X93.087 Y48.529 E0.01676
G1 X112.333 Y48.473 E0.54311
G1 X112.921 Y48.560 E0.01677
G1 X113.510 Y48.731 E0.01730
G1 X114.317 Y49.126 E0.02537
G1 X114.949 Y49.601 E0.02230
G1 X115.494 Y50.187 E0.02258
G1 X115.940 Y50.892 E0.02355
G1 X116.247 Y51.665 E0.02347
G1 X116.407 Y52.511 E0.02430
G1 X116.415 Y54.397 E0.05323
G1 X116.040 Y54.834 F9000.000
G1 F1200.000
G1 X131.157 Y54.839 E0.42659
G1 X131.888 Y54.939 E0.02082
G1 X132.557 Y55.156 E0.01986
G1 X133.436 Y55.666 E0.02868
G1 X134.175 Y56.393 E0.02925
G1 X134.455 Y56.834 E0.01473
G1 X150.075 Y56.834 E0.44079
G1 X150.950 Y56.955 E0.02493
G1 X151.793 Y57.264 E0.02531
G1 X152.657 Y57.846 E0.02940
G1 X153.357 Y58.643 E0.02992
G1 X153.814 Y59.554 E0.02876
G1 X154.027 Y60.531 E0.02822
G1 X154.048 Y70.134 E0.27099
G1 X180.805 Y70.134 E0.75506
G1 X181.757 Y70.381 E0.02774
G1 X182.331 Y70.680 E0.01827
G1 X183.130 Y71.412 E0.03059
G1 X183.480 Y71.865 E0.01614
G1 X183.949 Y73.261 E0.04157
G1 X183.949 Y140.522 E1.89803
G1 X201.046 Y152.493 E0.58896
G1 X201.684 Y153.241 E0.02774
G1 X201.987 Y153.825 E0.01855
G1 X202.244 Y155.367 E0.04411
G1 X202.107 Y156.181 E0.02329
G1 X201.789 Y156.914 E0.02255
G1 X184.920 Y181.006 E0.82993
G1 X183.874 Y181.814 E0.03730
G1 X183.198 Y182.054 E0.02024
G1 X182.110 Y182.197 E0.03097
G1 X181.468 Y182.113 E0.01827
G1 X180.547 Y181.769 E0.02774
G1 X166.552 Y171.970 E0.48210
G1 X125.554 Y157.048 E1.23116
G1 X73.979 Y157.048 E1.45539
G1 X73.007 Y156.795 E0.02836
G1 X72.193 Y156.301 E0.02687
G1 X71.630 Y155.745 E0.02233
G1 X71.286 Y155.283 E0.01626
G1 X70.895 Y154.268 E0.03069
G1 X70.843 Y149.048 E0.14730
G1 X32.736 Y149.048 E1.07536
G1 X31.643 Y148.859 E0.03130
G1 X30.675 Y148.409 E0.03010
G1 X29.863 Y147.728 E0.02992
G1 X29.253 Y146.864 E0.02985
G1 X28.921 Y146.003 E0.02604
G1 X28.785 Y145.075 E0.02648
G1 X28.785 Y69.832 E2.12328
G1 X28.859 Y69.144 E0.01952
G1 X29.036 Y68.505 E0.01869
G1 X29.315 Y67.904 E0.01871
G1 X29.698 Y67.340 E0.01924
G1 X30.391 Y66.674 E0.02712
G1 X31.121 Y66.227 E0.02415
G1 X31.925 Y65.944 E0.02404
G1 X32.770 Y65.834 E0.02405
G1 X70.836 Y65.834 E1.07419
G1 X70.841 Y57.707 E0.22932
G1 X70.920 Y57.089 E0.01759
G1 X71.146 Y56.357 E0.02162
G1 X71.718 Y55.383 E0.03187
G1 X72.509 Y54.620 E0.03102
G1 X73.433 Y54.112 E0.02976
G1 X74.129 Y53.911 E0.02043
G1 X74.827 Y53.834 E0.01981
G1 X89.849 Y53.834 E0.42393
G1 X89.869 Y52.399 E0.04050
G1 X90.052 Y51.604 E0.02302
G1 X90.387 Y50.866 E0.02287
G1 X90.852 Y50.221 E0.02244
G1 X91.413 Y49.693 E0.02173
G1 X92.125 Y49.247 E0.02372
G1 X92.643 Y49.038 E0.01577
G1 X93.161 Y48.899 E0.01511
G1 X112.292 Y48.848 E0.53987
G1 X112.853 Y48.931 E0.01599
G1 X113.387 Y49.088 E0.01572
G1 X114.134 Y49.456 E0.02349
G1 X114.708 Y49.891 E0.02033
G1 X115.185 Y50.405 E0.01979
G1 X115.597 Y51.049 E0.02159
G1 X115.880 Y51.754 E0.02144
G1 X116.030 Y52.530 E0.02230
G1 X116.039 Y54.774 E0.06332
G1 X115.664 Y55.211 F9000.000
G1 F1200.000
G1 X131.120 Y55.214 E0.43613
G1 X131.788 Y55.303 E0.01903
G1 X132.421 Y55.509 E0.01878
G1 X133.225 Y55.979 E0.02627
G1 X133.892 Y56.644 E0.02659
G1 X134.243 Y57.211 E0.01883
G1 X150.062 Y57.211 E0.44639
G1 X150.877 Y57.326 E0.02322
G1 X151.639 Y57.609 E0.02294
G1 X152.424 Y58.144 E0.02680
G1 X153.056 Y58.871 E0.02719
G1 X153.465 Y59.698 E0.02606
G1 X153.654 Y60.589 E0.02569
G1 X153.671 Y70.511 E0.27998
G1 X180.780 Y70.511 E0.76498
G1 X181.638 Y70.739 E0.02505
G1 X182.131 Y71.001 E0.01577
G1 X182.862 Y71.677 E0.02809
G1 X183.162 Y72.069 E0.01391
G1 X183.572 Y73.292 E0.03641
G1 X183.572 Y140.718 E1.90270
G1 X200.809 Y152.788 E0.59379
G1 X201.381 Y153.467 E0.02505
G1 X201.638 Y153.970 E0.01594
G1 X201.867 Y155.338 E0.03914
G1 X201.751 Y156.055 E0.02048
G1 X201.469 Y156.714 E0.02024
G1 X184.628 Y180.765 E0.82853
G1 X183.670 Y181.495 E0.03398
G1 X183.129 Y181.683 E0.01618
G1 X182.131 Y181.820 E0.02843
G1 X181.576 Y181.751 E0.01577
G1 X180.743 Y181.446 E0.02505
G1 X166.728 Y171.633 E0.48279
G1 X125.621 Y156.671 E1.23443
G1 X74.004 Y156.671 E1.45656
G1 X73.132 Y156.439 E0.02548
G1 X72.411 Y155.993 E0.02392
G1 X71.906 Y155.487 E0.02017
G1 X71.626 Y155.118 E0.01308
G1 X71.271 Y154.228 E0.02702
G1 X71.217 Y148.671 E0.15682
G1 X32.751 Y148.671 E1.08546
G1 X31.776 Y148.506 E0.02790
G1 X30.896 Y148.103 E0.02733
G1 X30.155 Y147.489 E0.02716
G1 X29.596 Y146.706 E0.02714
G1 X29.280 Y145.888 E0.02475
G1 X29.162 Y145.062 E0.02355
G1 X29.162 Y69.841 E2.12263
G1 X29.227 Y69.228 E0.01740
G1 X29.386 Y68.648 E0.01697
G1 X29.637 Y68.102 E0.01695
G1 X29.998 Y67.568 E0.01821
G1 X30.636 Y66.962 E0.02482
G1 X31.299 Y66.560 E0.02190
G1 X31.994 Y66.316 E0.02078
G1 X32.783 Y66.211 E0.02245
G1 X71.213 Y66.211 E1.08447
G1 X71.218 Y57.719 E0.23963
G1 X71.286 Y57.182 E0.01527
G1 X71.484 Y56.526 E0.01935
G1 X72.000 Y55.634 E0.02908
G1 X72.715 Y54.937 E0.02817
G1 X73.560 Y54.468 E0.02729
G1 X74.187 Y54.284 E0.01845
G1 X74.837 Y54.211 E0.01845
G1 X90.223 Y54.211 E0.43417
G1 X90.241 Y52.462 E0.04937
G1 X90.404 Y51.740 E0.02086
G1 X90.706 Y51.069 E0.02076
G1 X91.125 Y50.481 E0.02039
G1 X91.630 Y50.002 E0.01966
G1 X92.283 Y49.590 E0.02178
G1 X92.752 Y49.399 E0.01430
G1 X93.234 Y49.270 E0.01408
G1 X112.252 Y49.223 E0.53666
G1 X112.760 Y49.297 E0.01446
G1 X113.264 Y49.445 E0.01485
G1 X113.950 Y49.786 E0.02159
G1 X114.444 Y50.161 E0.01751
G1 X114.878 Y50.624 E0.01792
G1 X115.255 Y51.208 E0.01962
G1 X115.514 Y51.846 E0.01942
G1 X115.653 Y52.550 E0.02026
G1 X115.664 Y55.151 E0.07340
G1 X115.288 Y55.588 F9000.000
G1 F1200.000
G1 X131.107 Y55.591 E0.44638
G1 X131.720 Y55.675 E0.01745
G1 X132.283 Y55.860 E0.01674
G1 X133.011 Y56.290 E0.02387
G1 X133.608 Y56.892 E0.02391
G1 X134.030 Y57.588 E0.02296
G1 X150.048 Y57.588 E0.45203
G1 X150.802 Y57.696 E0.02149
G1 X151.483 Y57.954 E0.02055
G1 X152.189 Y58.440 E0.02418
G1 X152.753 Y59.097 E0.02445
G1 X153.116 Y59.841 E0.02336
G1 X153.280 Y60.646 E0.02317
G1 X153.295 Y70.888 E0.28903
G1 X180.754 Y70.888 E0.77487
G1 X181.516 Y71.097 E0.02229
G1 X181.929 Y71.320 E0.01326
G1 X182.592 Y71.941 E0.02561
G1 X182.842 Y72.271 E0.01171
G1 X183.195 Y73.322 E0.03128
G1 X183.195 Y140.915 E1.90738
G1 X200.572 Y153.082 E0.59860
G1 X201.076 Y153.690 E0.02229
G1 X201.288 Y154.113 E0.01334
G1 X201.489 Y155.311 E0.03430
G1 X201.394 Y155.931 E0.01769
G1 X201.148 Y156.515 E0.01788
G1 X184.336 Y180.525 E0.82713
G1 X183.517 Y181.150 E0.02908
G1 X183.056 Y181.313 E0.01379
G1 X182.148 Y181.442 E0.02587
G1 X181.681 Y181.389 E0.01326
G1 X180.938 Y181.122 E0.02229
G1 X166.903 Y171.296 E0.48346
G1 X125.687 Y156.294 E1.23771
G1 X74.030 Y156.294 E1.45770
G1 X73.259 Y156.083 E0.02258
G1 X72.663 Y155.711 E0.01982
G1 X72.182 Y155.230 E0.01918
G1 X71.944 Y154.913 E0.01121
G1 X71.635 Y154.124 E0.02390
G1 X71.592 Y148.294 E0.16451
G1 X32.766 Y148.294 E1.09561
G1 X31.908 Y148.152 E0.02455
G1 X31.114 Y147.795 E0.02456
G1 X30.445 Y147.247 E0.02440
G1 X29.938 Y146.545 E0.02444
G1 X29.650 Y145.811 E0.02224
G1 X29.539 Y145.048 E0.02177
G1 X29.539 Y69.851 E2.12197
G1 X29.595 Y69.311 E0.01531
G1 X29.736 Y68.790 E0.01524
G1 X29.959 Y68.298 E0.01524
G1 X30.274 Y67.827 E0.01600
G1 X30.880 Y67.250 E0.02361
G1 X31.475 Y66.894 E0.01957
G1 X32.098 Y66.678 E0.01860
G1 X32.794 Y66.588 E0.01981
G1 X71.590 Y66.588 E1.09477
G1 X71.595 Y57.731 E0.24994
G1 X71.652 Y57.273 E0.01300
G1 X71.823 Y56.693 E0.01709
G1 X72.284 Y55.883 E0.02629
G1 X72.922 Y55.253 E0.02531
G1 X73.689 Y54.823 E0.02480
G1 X74.247 Y54.656 E0.01644
G1 X74.848 Y54.588 E0.01707
G1 X90.598 Y54.588 E0.44444
G1 X90.614 Y52.523 E0.05828
G1 X90.757 Y51.875 E0.01871
G1 X91.025 Y51.271 E0.01866
