; generated by PrusaSlicer 2.3.0+ on 2022-05-15 at 20:54:29 UTC

; 

; external perimeters extrusion width = 0.90mm
; perimeters extrusion width = 0.90mm
; infill extrusion width = 0.90mm
; solid infill extrusion width = 0.90mm
; top infill extrusion width = 0.80mm
; first layer extrusion width = 0.84mm

M201 X500 Y500 Z100 E5000 ; sets maximum accelerations, mm/sec^2
M203 X500 Y500 Z10 E60 ; sets maximum feedrates, mm/sec
M204 P500 R1000 T500 ; sets acceleration (P, T) and retract acceleration (R), mm/sec^2
M205 X8.00 Y8.00 Z0.40 E5.00 ; sets the jerk limits, mm/sec
M205 S0 T0 ; sets the minimum extruding and travel feed rate, mm/sec
M107
;TYPE:Custom
G90 ; use absolute coordinates
M83 ; extruder relative mode
M104 S210 ; set extruder temp
M140 S60 ; set bed temp
M190 S60 ; wait for bed temp
M109 S210 ; wait for extruder temp
G28 ; home all
G1 Z2 F240
G1 X2 Y10 F3000
G1 Z0.28 F240
G92 E0
G1 Y190 E15 F1500 ; intro line
G1 X2.3 F5000
G92 E0
G1 Y10 E15 F1200 ; intro line
G92 E0
G21 ; set units to millimeters
G90 ; use absolute coordinates
M83 ; use relative distances for extrusion
; Filament gcode
;LAYER_CHANGE
;Z:0.32
;HEIGHT:0.32
;BEFORE_LAYER_CHANGE
G92 E0
;0.32


G1 E-5.00000 F3600.000
G1 Z0.320 F9000.000
;AFTER_LAYER_CHANGE
;0.32
G1 X116.709 Y24.513
G1 E5.00000 F2400.000
;TYPE:Skirt
;WIDTH:0.84
G1 F1200.000
G1 X131.355 Y24.528 E1.35258
G1 X131.906 Y24.605 E0.05144
G1 X132.449 Y24.748 E0.05181
G1 X133.321 Y25.138 E0.08819
G1 X133.945 Y25.564 E0.06977
G1 X134.403 Y25.984 E0.05749
G1 X134.824 Y26.511 E0.06227
G1 X150.074 Y26.511 E1.40844
G1 X151.089 Y26.644 E0.09454
G1 X151.614 Y26.807 E0.05076
G1 X152.124 Y27.027 E0.05127
G1 X153.042 Y27.646 E0.10230
G1 X153.652 Y28.270 E0.08061
G1 X154.065 Y28.869 E0.06712
G1 X154.427 Y29.646 E0.07919
G1 X154.629 Y30.385 E0.07077
G1 X154.703 Y31.022 E0.05921
G1 X154.708 Y39.811 E0.81178
G1 X180.992 Y39.811 E2.42747
G1 X181.733 Y39.959 E0.06981
G1 X182.294 Y40.191 E0.05607
G1 X182.727 Y40.453 E0.04675
G1 X183.800 Y41.487 E0.13762
G1 X184.185 Y42.040 E0.06224
G1 X184.481 Y42.750 E0.07095
G1 X184.609 Y43.427 E0.06372
G1 X184.609 Y110.516 E6.19607
G1 X201.578 Y122.398 E1.91310
G1 X202.100 Y122.944 E0.06981
G1 X202.427 Y123.456 E0.05607
G1 X202.631 Y123.918 E0.04675
G1 X202.936 Y125.647 E0.16206
G1 X202.902 Y126.152 E0.04674
G1 X202.771 Y126.744 E0.05607
G1 X202.466 Y127.436 E0.06981
G1 X185.359 Y151.868 E2.75462
G1 X184.870 Y152.345 E0.06302
G1 X184.297 Y152.718 E0.06313
G1 X183.588 Y152.992 E0.07027
G1 X182.111 Y153.225 E0.13810
G1 X181.606 Y153.191 E0.04675
G1 X181.011 Y153.059 E0.05624
G1 X180.457 Y152.830 E0.05540
G1 X166.245 Y142.898 E1.60131
G1 X125.438 Y128.046 E4.01062
G1 X73.632 Y128.030 E4.78459
G1 X73.049 Y127.897 E0.05526
G1 X72.486 Y127.664 E0.05626
G1 X71.913 Y127.289 E0.06328
G1 X70.866 Y126.227 E0.13769
G1 X70.549 Y125.717 E0.05547
G1 X70.294 Y125.081 E0.06327
G1 X70.175 Y124.423 E0.06178
G1 X70.175 Y120.046 E0.40425
G1 X32.675 Y120.041 E3.46331
G1 X32.099 Y119.983 E0.05353
G1 X31.520 Y119.853 E0.05475
G1 X30.283 Y119.284 E0.12575
G1 X29.835 Y118.950 E0.05161
G1 X29.419 Y118.564 E0.05243
G1 X28.641 Y117.461 E0.12468
G1 X28.420 Y116.951 E0.05134
G1 X28.258 Y116.425 E0.05078
G1 X28.125 Y115.410 E0.09453
G1 X28.125 Y40.159 E6.94991
G1 X28.204 Y39.392 E0.07127
G1 X28.400 Y38.661 E0.06982
G1 X28.743 Y37.913 E0.07607
G1 X29.170 Y37.283 E0.07023
G1 X30.026 Y36.455 E0.11003
G1 X30.474 Y36.160 E0.04951
G1 X30.953 Y35.914 E0.04972
G1 X31.850 Y35.622 E0.08716
G1 X32.760 Y35.511 E0.08467
G1 X70.176 Y35.511 E3.45559
G1 X70.179 Y28.063 E0.68792
G1 X70.282 Y27.254 E0.07532
G1 X70.529 Y26.453 E0.07739
G1 X70.806 Y25.891 E0.05783
G1 X71.226 Y25.278 E0.06865
G1 X72.087 Y24.445 E0.11064
G1 X72.563 Y24.137 E0.05233
G1 X73.089 Y23.878 E0.05420
G1 X73.916 Y23.619 E0.08004
G1 X74.813 Y23.511 E0.08343
G1 X89.141 Y23.511 E1.32329
G1 X89.239 Y22.478 E0.09590
G1 X89.442 Y21.685 E0.07560
G1 X89.811 Y20.882 E0.08156
G1 X90.256 Y20.241 E0.07208
G1 X90.846 Y19.642 E0.07765
G1 X91.654 Y19.087 E0.09055
G1 X92.465 Y18.740 E0.08152
G1 X93.360 Y18.543 E0.08456
G1 X93.844 Y18.511 E0.04482
G1 X112.056 Y18.512 E1.68196
G1 X112.710 Y18.570 E0.06072
G1 X113.405 Y18.734 E0.06588
G1 X114.265 Y19.106 E0.08654
G1 X114.944 Y19.563 E0.07558
G1 X115.551 Y20.149 E0.07790
G1 X116.043 Y20.831 E0.07774
G1 X116.427 Y21.642 E0.08281
G1 X116.639 Y22.441 E0.07639
G1 X116.709 Y23.156 E0.06639
G1 X116.709 Y24.393 E0.11418
G1 X115.938 Y25.283 F9000.000
G1 F1200.000
G1 X131.274 Y25.296 E1.41639
G1 X131.775 Y25.366 E0.04671
G1 X132.217 Y25.484 E0.04225
G1 X132.970 Y25.825 E0.07635
G1 X133.443 Y26.150 E0.05298
G1 X133.857 Y26.530 E0.05191
G1 X134.445 Y27.283 E0.08821
G1 X150.050 Y27.283 E1.44118
G1 X150.893 Y27.391 E0.07855
G1 X151.365 Y27.537 E0.04558
G1 X151.780 Y27.718 E0.04183
G1 X152.574 Y28.261 E0.08879
G1 X153.039 Y28.738 E0.06159
G1 X153.381 Y29.226 E0.05500
G1 X153.713 Y29.939 E0.07266
G1 X153.876 Y30.553 E0.05866
G1 X153.931 Y31.044 E0.04557
G1 X153.937 Y40.583 E0.88100
G1 X180.954 Y40.583 E2.49516
G1 X181.473 Y40.686 E0.04888
G1 X181.969 Y40.892 E0.04959
G1 X182.284 Y41.086 E0.03421
G1 X183.235 Y42.013 E0.12265
G1 X183.493 Y42.382 E0.04159
G1 X183.733 Y42.944 E0.05643
G1 X183.838 Y43.467 E0.04930
G1 X183.838 Y110.918 E6.22945
G1 X201.104 Y123.008 E1.94669
G1 X201.470 Y123.390 E0.04888
G1 X201.759 Y123.843 E0.04959
G1 X201.905 Y124.182 E0.03409
G1 X202.164 Y125.648 E0.13749
G1 X202.142 Y126.016 E0.03409
G1 X202.026 Y126.540 E0.04958
G1 X201.813 Y127.025 E0.04888
G1 X184.750 Y151.393 E2.74744
G1 X184.367 Y151.759 E0.04888
G1 X183.917 Y152.046 E0.04934
G1 X183.422 Y152.238 E0.04897
G1 X182.111 Y152.453 E0.12274
G1 X181.741 Y152.431 E0.03421
G1 X181.214 Y152.314 E0.04984
G1 X180.796 Y152.137 E0.04192
G1 X166.604 Y142.208 E1.59966
G1 X125.574 Y127.275 E4.03255
G1 X73.754 Y127.267 E4.78592
G1 X73.310 Y127.171 E0.04191
G1 X72.818 Y126.967 E0.04922
G1 X72.377 Y126.672 E0.04897
G1 X71.449 Y125.721 E0.12271
G1 X71.253 Y125.402 E0.03464
G1 X71.025 Y124.832 E0.05668
G1 X70.946 Y124.389 E0.04149
G1 X70.946 Y119.275 E0.47238
G1 X32.733 Y119.272 E3.52923
G1 X32.200 Y119.218 E0.04943
G1 X31.732 Y119.111 E0.04437
G1 X30.712 Y118.641 E0.10376
G1 X30.314 Y118.345 E0.04582
G1 X29.976 Y118.028 E0.04278
G1 X29.331 Y117.115 E0.10318
G1 X29.150 Y116.702 E0.04172
G1 X29.005 Y116.230 E0.04560
G1 X28.896 Y115.386 E0.07854
G1 X28.896 Y40.180 E6.94575
G1 X28.968 Y39.506 E0.06262
G1 X29.134 Y38.899 E0.05808
G1 X29.428 Y38.269 E0.06419
G1 X29.783 Y37.753 E0.05789
G1 X30.482 Y37.077 E0.08979
G1 X30.846 Y36.836 E0.04032
G1 X31.278 Y36.614 E0.04488
G1 X31.983 Y36.383 E0.06855
G1 X32.785 Y36.283 E0.07457
G1 X70.947 Y36.283 E3.52453
G1 X70.950 Y28.086 E0.75698
G1 X71.030 Y27.445 E0.05973
G1 X71.237 Y26.761 E0.06599
G1 X71.463 Y26.296 E0.04772
G1 X71.796 Y25.799 E0.05522
G1 X72.542 Y25.069 E0.09638
G1 X72.930 Y24.816 E0.04287
G1 X73.356 Y24.602 E0.04396
G1 X74.048 Y24.380 E0.06715
G1 X74.837 Y24.283 E0.07342
G1 X89.946 Y24.283 E1.39542
G1 X89.946 Y23.179 E0.10198
G1 X89.995 Y22.633 E0.05063
G1 X90.160 Y21.969 E0.06320
G1 X90.468 Y21.288 E0.06902
G1 X90.834 Y20.752 E0.05992
G1 X91.319 Y20.251 E0.06438
G1 X92.000 Y19.777 E0.07658
G1 X92.673 Y19.483 E0.06783
G1 X93.442 Y19.310 E0.07279
G1 X93.857 Y19.283 E0.03843
G1 X112.037 Y19.283 E1.67908
G1 X112.610 Y19.336 E0.05314
G1 X113.188 Y19.475 E0.05491
G1 X113.922 Y19.797 E0.07397
G1 X114.436 Y20.145 E0.05732
G1 X114.950 Y20.634 E0.06559
G1 X115.365 Y21.200 E0.06478
G1 X115.693 Y21.881 E0.06976
G1 X115.875 Y22.551 E0.06422
G1 X115.938 Y23.176 E0.05799
G1 X115.938 Y25.163 E0.18354
G1 X115.167 Y26.054 F9000.000
G1 F1200.000
G1 X131.198 Y26.064 E1.48062
G1 X131.601 Y26.118 E0.03748
G1 X131.987 Y26.221 E0.03698
G1 X132.562 Y26.481 E0.05821
G1 X132.982 Y26.769 E0.04706
G1 X133.310 Y27.074 E0.04137
G1 X133.639 Y27.492 E0.04914
G1 X133.933 Y28.054 E0.05858
G1 X150.026 Y28.054 E1.48627
G1 X150.702 Y28.139 E0.06290
G1 X151.077 Y28.253 E0.03624
G1 X151.435 Y28.410 E0.03608
G1 X152.102 Y28.871 E0.07485
G1 X152.429 Y29.211 E0.04354
G1 X152.697 Y29.586 E0.04265
G1 X152.999 Y30.233 E0.06589
G1 X153.113 Y30.671 E0.04180
G1 X153.160 Y31.068 E0.03692
G1 X153.166 Y41.354 E0.95001
G1 X180.916 Y41.354 E2.56286
G1 X181.213 Y41.413 E0.02795
G1 X181.641 Y41.590 E0.04280
G1 X181.834 Y41.713 E0.02110
G1 X182.668 Y42.537 E0.10834
G1 X182.800 Y42.724 E0.02110
G1 X183.008 Y43.211 E0.04888
G1 X183.067 Y43.505 E0.02773
G1 X183.067 Y111.319 E6.26306
G1 X200.631 Y123.618 E1.98027
G1 X200.840 Y123.836 E0.02795
G1 X201.089 Y124.227 E0.04280
G1 X201.177 Y124.437 E0.02099
G1 X201.392 Y125.657 E0.11442
G1 X201.381 Y125.884 E0.02099
G1 X201.281 Y126.336 E0.04279
G1 X201.159 Y126.613 E0.02795
G1 X184.140 Y150.920 E2.74044
G1 X183.921 Y151.129 E0.02795
G1 X183.534 Y151.375 E0.04236
G1 X183.253 Y151.485 E0.02784
G1 X182.101 Y151.681 E0.10790
G1 X181.873 Y151.670 E0.02110
G1 X181.421 Y151.570 E0.04280
G1 X181.144 Y151.448 E0.02795
G1 X166.963 Y141.518 E1.59882
G1 X125.710 Y126.503 E4.05449
G1 X73.798 Y126.496 E4.79442
G1 X73.576 Y126.446 E0.02099
G1 X73.148 Y126.269 E0.04280
G1 X72.897 Y126.101 E0.02784
G1 X72.076 Y125.270 E0.10790
G1 X71.955 Y125.079 E0.02088
G1 X71.757 Y124.584 E0.04932
G1 X71.718 Y124.357 E0.02121
G1 X71.718 Y118.503 E0.54064
G1 X32.786 Y118.502 E3.59556
G1 X32.347 Y118.461 E0.04073
G1 X31.943 Y118.368 E0.03824
G1 X31.137 Y117.996 E0.08202
G1 X30.824 Y117.766 E0.03592
G1 X30.532 Y117.492 E0.03696
G1 X30.022 Y116.771 E0.08154
G1 X29.867 Y116.414 E0.03594
G1 X29.752 Y116.038 E0.03626
G1 X29.668 Y115.363 E0.06289
G1 X29.668 Y40.199 E6.94186
G1 X29.720 Y39.678 E0.04830
G1 X29.869 Y39.138 E0.05175
G1 X30.109 Y38.632 E0.05176
G1 X30.393 Y38.226 E0.04571
G1 X30.938 Y37.701 E0.06990
G1 X31.253 Y37.491 E0.03496
G1 X31.598 Y37.316 E0.03571
G1 X32.182 Y37.129 E0.05666
G1 X32.807 Y37.054 E0.05811
G1 X71.718 Y37.054 E3.59370
G1 X71.722 Y28.109 E0.82613
G1 X71.779 Y27.631 E0.04449
G1 X71.947 Y27.064 E0.05460
G1 X72.125 Y26.693 E0.03801
G1 X72.371 Y26.315 E0.04164
G1 X72.997 Y25.693 E0.08151
G1 X73.332 Y25.475 E0.03694
G1 X73.670 Y25.307 E0.03482
G1 X74.243 Y25.127 E0.05547
G1 X74.859 Y25.054 E0.05729
G1 X90.718 Y25.054 E1.46466
G1 X90.718 Y23.197 E0.17154
G1 X90.760 Y22.735 E0.04279
G1 X90.898 Y22.197 E0.05137
G1 X91.153 Y21.645 E0.05616
G1 X91.449 Y21.219 E0.04793
G1 X91.797 Y20.858 E0.04624
G1 X92.352 Y20.464 E0.06287
G1 X92.886 Y20.226 E0.05399
G1 X93.526 Y20.078 E0.06074
G1 X93.870 Y20.054 E0.03186
G1 X112.019 Y20.054 E1.67610
G1 X112.507 Y20.101 E0.04533
G1 X112.969 Y20.215 E0.04397
G1 X113.525 Y20.459 E0.05602
G1 X113.930 Y20.728 E0.04490
G1 X114.391 Y21.167 E0.05883
G1 X114.719 Y21.622 E0.05173
G1 X114.960 Y22.123 E0.05135
G1 X115.112 Y22.666 E0.05208
G1 X115.167 Y23.197 E0.04932
G1 X115.167 Y25.934 E0.25285
G1 X114.395 Y26.826 F9000.000
G1 F1200.000
G1 X131.128 Y26.832 E1.54530
G1 X131.428 Y26.870 E0.02797
G1 X131.758 Y26.958 E0.03157
G1 X132.154 Y27.136 E0.04006
G1 X132.519 Y27.387 E0.04089
G1 X132.756 Y27.612 E0.03017
G1 X133.004 Y27.931 E0.03736
G1 X133.239 Y28.400 E0.04843
G1 X133.369 Y28.825 E0.04109
G1 X150.003 Y28.825 E1.53630
G1 X150.515 Y28.888 E0.04764
G1 X150.792 Y28.970 E0.02660
G1 X151.089 Y29.100 E0.02998
G1 X151.623 Y29.477 E0.06038
G1 X151.823 Y29.688 E0.02685
G1 X152.016 Y29.950 E0.03000
G1 X152.284 Y30.524 E0.05856
G1 X152.351 Y30.790 E0.02533
G1 X152.389 Y31.094 E0.02824
G1 X152.395 Y42.125 E1.01886
G1 X180.878 Y42.125 E2.63055
G1 X181.306 Y42.287 E0.04226
G1 X181.369 Y42.329 E0.00702
G1 X182.092 Y43.052 E0.09437
G1 X182.134 Y43.115 E0.00702
G1 X182.296 Y43.543 E0.04226
G1 X182.296 Y111.721 E6.29664
G1 X200.157 Y124.228 E2.01385
G1 X200.210 Y124.283 E0.00702
G1 X200.443 Y124.676 E0.04226
G1 X200.621 Y125.683 E0.09437
G1 X200.536 Y126.132 E0.04226
G1 X200.505 Y126.202 E0.00702
G1 X183.529 Y150.446 E2.73344
G1 X183.152 Y150.704 E0.04226
G1 X183.081 Y150.732 E0.00702
G1 X182.075 Y150.909 E0.09437
G1 X181.625 Y150.825 E0.04226
G1 X181.555 Y150.794 E0.00702
G1 X167.322 Y140.828 E1.60470
G1 X125.846 Y125.732 E4.07643
G1 X73.906 Y125.732 E4.79695
G1 X73.478 Y125.571 E0.04226
G1 X73.415 Y125.529 E0.00702
G1 X72.692 Y124.806 E0.09437
G1 X72.650 Y124.743 E0.00702
G1 X72.489 Y124.315 E0.04226
G1 X72.489 Y117.732 E0.60794
G1 X32.834 Y117.732 E3.66233
G1 X32.492 Y117.702 E0.03176
G1 X32.155 Y117.625 E0.03193
G1 X31.563 Y117.352 E0.06020
G1 X31.302 Y117.160 E0.02999
G1 X31.091 Y116.960 E0.02685
G1 X30.713 Y116.426 E0.06036
G1 X30.583 Y116.128 E0.02999
G1 X30.501 Y115.852 E0.02662
G1 X30.439 Y115.340 E0.04763
G1 X30.439 Y40.216 E6.93817
G1 X30.474 Y39.842 E0.03464
G1 X30.584 Y39.428 E0.03954
G1 X30.762 Y39.044 E0.03915
G1 X31.003 Y38.698 E0.03890
G1 X31.393 Y38.324 E0.04988
G1 X31.659 Y38.148 E0.02948
G1 X31.916 Y38.019 E0.02656
G1 X32.315 Y37.890 E0.03877
G1 X32.831 Y37.825 E0.04804
G1 X72.489 Y37.825 E3.66263
G1 X72.493 Y28.135 E0.89501
G1 X72.540 Y27.760 E0.03489
G1 X72.656 Y27.369 E0.03761
G1 X72.809 Y27.051 E0.03262
G1 X72.991 Y26.775 E0.03058
G1 X73.455 Y26.315 E0.06034
G1 X73.698 Y26.154 E0.02685
G1 X73.983 Y26.012 E0.02944
G1 X74.431 Y25.875 E0.04328
G1 X74.879 Y25.825 E0.04160
G1 X91.489 Y25.825 E1.53402
G1 X91.489 Y23.216 E0.24103
G1 X91.524 Y22.842 E0.03465
G1 X91.634 Y22.428 E0.03953
G1 X91.809 Y22.051 E0.03839
G1 X92.028 Y21.729 E0.03599
G1 X92.324 Y21.422 E0.03938
G1 X92.757 Y21.121 E0.04867
G1 X93.157 Y20.948 E0.04024
G1 X93.610 Y20.845 E0.04296
G1 X93.885 Y20.825 E0.02540
G1 X111.999 Y20.826 E1.67299
G1 X112.400 Y20.865 E0.03720
G1 X112.745 Y20.954 E0.03292
G1 X113.135 Y21.125 E0.03929
G1 X113.426 Y21.313 E0.03206
G1 X113.833 Y21.700 E0.05183
G1 X114.042 Y21.992 E0.03314
G1 X114.230 Y22.374 E0.03930
G1 X114.349 Y22.784 E0.03948
G1 X114.395 Y23.218 E0.04031
G1 X114.395 Y26.706 E0.32209
G1 X113.624 Y27.597 F9000.000
G1 F1200.000
G1 X131.062 Y27.601 E1.61051
G1 X131.269 Y27.625 E0.01919
G1 X131.475 Y27.677 E0.01969
G1 X131.801 Y27.823 E0.03296
G1 X132.045 Y27.996 E0.02763
G1 X132.196 Y28.142 E0.01936
G1 X132.364 Y28.364 E0.02577
G1 X132.525 Y28.694 E0.03393
G1 X132.602 Y28.986 E0.02787
G1 X132.631 Y29.597 E0.05644
G1 X149.982 Y29.597 E1.60247
G1 X150.329 Y29.637 E0.03226
G1 X150.546 Y29.702 E0.02092
G1 X150.738 Y29.788 E0.01945
G1 X151.090 Y30.036 E0.03970
G1 X151.245 Y30.199 E0.02081
G1 X151.369 Y30.370 E0.01953
G1 X151.545 Y30.748 E0.03849
G1 X151.596 Y30.952 E0.01945
G1 X151.620 Y31.159 E0.01919
G1 X151.624 Y42.897 E1.08408
G1 X180.763 Y42.897 E2.69118
G1 X180.905 Y42.955 E0.01417
G1 X181.465 Y43.516 E0.07318
G1 X181.524 Y43.658 E0.01417
G1 X181.524 Y112.122 E6.32313
G1 X199.621 Y124.794 E2.04034
G1 X199.703 Y124.923 E0.01417
G1 X199.841 Y125.704 E0.07319
G1 X199.808 Y125.853 E0.01417
G1 X182.963 Y149.910 E2.71226
G1 X182.834 Y149.992 E0.01417
G1 X182.054 Y150.130 E0.07318
G1 X181.904 Y150.097 E0.01417
G1 X167.682 Y140.138 E1.60349
G1 X125.982 Y124.961 E4.09837
G1 X74.021 Y124.961 E4.79892
G1 X73.879 Y124.902 E0.01417
G1 X73.319 Y124.342 E0.07318
G1 X73.260 Y124.200 E0.01417
G1 X73.260 Y116.961 E0.66859
G1 X32.853 Y116.961 E3.73189
G1 X32.592 Y116.937 E0.02418
G1 X32.373 Y116.885 E0.02073
G1 X31.983 Y116.705 E0.03970
G1 X31.813 Y116.581 E0.01946
G1 X31.649 Y116.426 E0.02081
G1 X31.401 Y116.075 E0.03969
G1 X31.315 Y115.883 E0.01946
G1 X31.251 Y115.665 E0.02094
G1 X31.210 Y115.319 E0.03225
G1 X31.210 Y40.236 E6.93435
G1 X31.238 Y39.955 E0.02609
G1 X31.317 Y39.672 E0.02713
G1 X31.441 Y39.411 E0.02665
G1 X31.608 Y39.178 E0.02644
G1 X31.853 Y38.944 E0.03134
G1 X32.027 Y38.826 E0.01946
G1 X32.231 Y38.724 E0.02104
G1 X32.509 Y38.637 E0.02684
G1 X32.852 Y38.597 E0.03196
G1 X73.260 Y38.597 E3.73190
G1 X73.264 Y28.162 E0.96370
G1 X73.300 Y27.893 E0.02504
G1 X73.365 Y27.675 E0.02107
G1 X73.491 Y27.411 E0.02694
G1 X73.607 Y27.240 E0.01916
G1 X73.912 Y26.937 E0.03970
G1 X74.100 Y26.813 E0.02081
G1 X74.293 Y26.719 E0.01975
G1 X74.558 Y26.637 E0.02563
G1 X74.902 Y26.597 E0.03204
G1 X92.260 Y26.597 E1.60310
G1 X92.260 Y23.236 E0.31041
G1 X92.288 Y22.955 E0.02609
G1 X92.367 Y22.671 E0.02713
G1 X92.491 Y22.411 E0.02663
G1 X92.607 Y22.240 E0.01908
G1 X92.849 Y21.989 E0.03226
G1 X93.151 Y21.785 E0.03364
