; generated by PrusaSlicer 2.3.0+ on 2023-02-03 at 10:12:18 UTC

; 

; external perimeters extrusion width = 0.45mm
; perimeters extrusion width = 0.45mm
; infill extrusion width = 0.45mm
; solid infill extrusion width = 0.45mm
; top infill extrusion width = 0.40mm
; first layer extrusion width = 0.42mm

M201 X500 Y500 Z100 E5000 ; sets maximum accelerations, mm/sec^2
M203 X500 Y500 Z10 E60 ; sets maximum feedrates, mm/sec
M204 P500 R1000 T500 ; sets acceleration (P, T) and retract acceleration (R), mm/sec^2
M205 X8.00 Y8.00 Z0.40 E5.00 ; sets the jerk limits, mm/sec
M205 S0 T0 ; sets the minimum extruding and travel feed rate, mm/sec
M107
;TYPE:Custom
G90 ; use absolute coordinates
M83 ; extruder relative mode
M104 S210 ; set extruder temp
M140 S60 ; set bed temp
M190 S60 ; wait for bed temp
M109 S210 ; wait for extruder temp
G28 ; home all
G1 Z2 F240
G1 X2 Y10 F3000
G1 Z0.28 F240
G92 E0
G1 Y190 E15 F1500 ; intro line
G1 X2.3 F5000
G92 E0
G1 Y10 E15 F1200 ; intro line
G92 E0
G21 ; set units to millimeters
G90 ; use absolute coordinates
M83 ; use relative distances for extrusion
; Filament gcode
;LAYER_CHANGE
;Z:0.2
;HEIGHT:0.2
;BEFORE_LAYER_CHANGE
G92 E0
;0.2


G1 E-5.00000 F3600.000
G1 Z0.200 F9000.000
;AFTER_LAYER_CHANGE
;0.2
G1 X185.081 Y91.067
G1 E5.00000 F2400.000
;TYPE:Skirt
;WIDTH:0.42
G1 F1200.000
G1 X185.081 Y157.794 E1.88295
G1 X184.782 Y159.017 E0.03553
G1 X184.364 Y159.850 E0.02632
G1 X183.087 Y161.168 E0.05178
G1 X182.104 Y161.698 E0.03150
G1 X180.877 Y161.997 E0.03565
G1 X155.176 Y161.997 E0.72524
G1 X155.149 Y170.614 E0.24316
G1 X154.866 Y171.864 E0.03615
G1 X154.209 Y173.116 E0.03992
G1 X153.336 Y174.062 E0.03630
G1 X152.237 Y174.778 E0.03704
G1 X151.197 Y175.149 E0.03113
G1 X150.114 Y175.297 E0.03085
G1 X135.085 Y175.297 E0.42412
G1 X134.151 Y176.212 E0.03688
G1 X133.084 Y176.847 E0.03504
G1 X132.201 Y177.149 E0.02635
G1 X131.252 Y177.288 E0.02705
G1 X117.166 Y177.297 E0.39748
G1 X117.157 Y178.571 E0.03597
G1 X116.959 Y179.584 E0.02913
G1 X116.565 Y180.542 E0.02922
G1 X115.993 Y181.396 E0.02900
G1 X115.324 Y182.073 E0.02687
G1 X114.526 Y182.626 E0.02741
G1 X113.612 Y183.032 E0.02821
G1 X112.857 Y183.221 E0.02197
G1 X112.072 Y183.298 E0.02224
G1 X92.944 Y183.213 E0.53980
G1 X92.258 Y183.026 E0.02006
G1 X91.573 Y182.741 E0.02094
G1 X90.712 Y182.195 E0.02876
G1 X89.993 Y181.516 E0.02791
G1 X89.402 Y180.690 E0.02866
G1 X88.988 Y179.782 E0.02815
G1 X88.749 Y178.758 E0.02967
G1 X88.733 Y178.297 E0.01302
G1 X74.794 Y178.297 E0.39334
G1 X73.914 Y178.200 E0.02498
G1 X73.041 Y177.950 E0.02563
G1 X71.832 Y177.287 E0.03891
G1 X70.823 Y176.309 E0.03964
G1 X70.132 Y175.148 E0.03813
G1 X69.827 Y174.207 E0.02793
G1 X69.710 Y173.334 E0.02486
G1 X69.706 Y166.297 E0.19855
G1 X32.718 Y166.297 E1.04375
G1 X31.569 Y166.131 E0.03276
G1 X30.474 Y165.716 E0.03305
G1 X29.495 Y165.059 E0.03328
G1 X28.694 Y164.213 E0.03286
G1 X27.961 Y162.844 E0.04381
G1 X27.654 Y161.278 E0.04504
G1 X27.654 Y85.885 E2.12751
G1 X27.820 Y84.736 E0.03276
G1 X28.235 Y83.641 E0.03306
G1 X28.893 Y82.662 E0.03327
G1 X29.738 Y81.861 E0.03286
G1 X31.107 Y81.128 E0.04381
G1 X32.673 Y80.821 E0.04504
G1 X69.717 Y80.820 E1.04535
G1 X69.743 Y76.753 E0.11477
G1 X70.093 Y75.573 E0.03475
G1 X70.626 Y74.692 E0.02906
G1 X71.551 Y73.765 E0.03694
G1 X72.557 Y73.168 E0.03302
G1 X73.896 Y72.820 E0.03904
G1 X125.355 Y72.820 E1.45210
G1 X166.025 Y58.018 E1.22132
G1 X179.957 Y48.263 E0.47993
G1 X181.226 Y47.779 E0.03832
G1 X182.612 Y47.695 E0.03919
G1 X183.454 Y47.843 E0.02410
G1 X184.166 Y48.066 E0.02106
G1 X185.790 Y49.265 E0.05697
G1 X202.749 Y73.484 E0.83432
G1 X203.185 Y74.475 E0.03056
G1 X203.374 Y75.537 E0.03043
G1 X203.030 Y77.620 E0.05959
G1 X202.585 Y78.446 E0.02649
G1 X201.754 Y79.392 E0.03553
G1 X185.130 Y91.032 E0.57268
G1 X184.704 Y90.870 F9000.000
G1 F1200.000
G1 X184.704 Y157.770 E1.88783
G1 X184.422 Y158.904 E0.03298
G1 X184.041 Y159.654 E0.02373
G1 X182.881 Y160.851 E0.04704
G1 X181.989 Y161.338 E0.02868
G1 X180.853 Y161.620 E0.03302
G1 X154.800 Y161.620 E0.73519
G1 X154.772 Y170.592 E0.25316
G1 X154.504 Y171.755 E0.03369
G1 X153.914 Y172.880 E0.03585
G1 X153.109 Y173.760 E0.03365
G1 X152.087 Y174.432 E0.03450
G1 X151.126 Y174.778 E0.02884
G1 X150.101 Y174.920 E0.02919
G1 X134.871 Y174.920 E0.42977
G1 X134.742 Y175.105 E0.00637
G1 X133.938 Y175.900 E0.03189
G1 X132.909 Y176.512 E0.03380
G1 X132.097 Y176.786 E0.02418
G1 X131.238 Y176.911 E0.02448
G1 X116.790 Y176.920 E0.40770
G1 X116.783 Y178.518 E0.04510
G1 X116.603 Y179.460 E0.02706
G1 X116.240 Y180.349 E0.02710
G1 X115.712 Y181.145 E0.02695
G1 X115.093 Y181.774 E0.02490
G1 X114.355 Y182.290 E0.02541
G1 X113.504 Y182.670 E0.02630
G1 X112.779 Y182.852 E0.02109
G1 X112.065 Y182.920 E0.02025
G1 X93.018 Y182.843 E0.53748
G1 X92.390 Y182.673 E0.01837
G1 X91.760 Y182.414 E0.01920
G1 X90.930 Y181.887 E0.02776
G1 X90.267 Y181.256 E0.02583
G1 X89.720 Y180.487 E0.02662
G1 X89.340 Y179.644 E0.02609
G1 X89.121 Y178.694 E0.02752
G1 X89.105 Y177.920 E0.02184
G1 X74.805 Y177.920 E0.40353
G1 X73.972 Y177.827 E0.02363
G1 X73.166 Y177.594 E0.02367
G1 X72.038 Y176.970 E0.03640
G1 X71.105 Y176.058 E0.03680
G1 X70.468 Y174.976 E0.03543
G1 X70.191 Y174.108 E0.02569
G1 X70.087 Y173.321 E0.02241
G1 X70.083 Y165.920 E0.20884
G1 X32.732 Y165.920 E1.05400
G1 X31.645 Y165.761 E0.03101
G1 X30.630 Y165.372 E0.03067
G1 X29.724 Y164.759 E0.03087
G1 X28.987 Y163.974 E0.03039
G1 X28.308 Y162.693 E0.04091
G1 X28.031 Y161.260 E0.04118
G1 X28.031 Y85.899 E2.12662
G1 X28.190 Y84.811 E0.03101
G1 X28.579 Y83.797 E0.03068
G1 X29.193 Y82.891 E0.03087
G1 X29.977 Y82.154 E0.03039
G1 X31.258 Y81.475 E0.04090
G1 X32.691 Y81.198 E0.04118
G1 X70.092 Y81.198 E1.05543
G1 X70.119 Y76.783 E0.12459
G1 X70.429 Y75.746 E0.03053
G1 X70.911 Y74.940 E0.02650
G1 X71.767 Y74.076 E0.03433
G1 X72.680 Y73.525 E0.03010
G1 X73.921 Y73.198 E0.03621
G1 X125.421 Y73.198 E1.45328
G1 X166.201 Y58.355 E1.22460
G1 X180.154 Y48.585 E0.48065
G1 X181.331 Y48.142 E0.03551
G1 X182.568 Y48.070 E0.03496
G1 X183.376 Y48.213 E0.02314
G1 X184.023 Y48.416 E0.01914
G1 X185.499 Y49.506 E0.05178
G1 X202.429 Y73.684 E0.83292
G1 X202.830 Y74.604 E0.02832
G1 X202.998 Y75.569 E0.02764
G1 X202.683 Y77.470 E0.05437
G1 X202.286 Y78.215 E0.02383
G1 X201.518 Y79.097 E0.03298
G1 X184.753 Y90.836 E0.57756
G1 X184.327 Y90.674 F9000.000
G1 F1200.000
G1 X184.327 Y157.746 E1.89270
G1 X184.062 Y158.790 E0.03038
G1 X183.719 Y159.456 E0.02113
G1 X182.632 Y160.567 E0.04388
G1 X181.873 Y160.979 E0.02435
G1 X180.830 Y161.243 E0.03039
G1 X154.424 Y161.243 E0.74513
G1 X154.399 Y170.530 E0.26205
G1 X154.158 Y171.604 E0.03107
G1 X153.617 Y172.646 E0.03312
G1 X152.880 Y173.459 E0.03098
G1 X151.938 Y174.085 E0.03192
G1 X151.017 Y174.417 E0.02762
G1 X150.089 Y174.543 E0.02643
G1 X134.664 Y174.543 E0.43525
G1 X134.461 Y174.853 E0.01046
G1 X133.690 Y175.615 E0.03059
G1 X132.735 Y176.177 E0.03126
G1 X131.995 Y176.423 E0.02202
G1 X131.199 Y176.536 E0.02269
G1 X116.415 Y176.543 E0.41718
G1 X116.406 Y178.498 E0.05518
G1 X116.236 Y179.369 E0.02504
G1 X115.915 Y180.157 E0.02402
G1 X115.429 Y180.895 E0.02492
G1 X114.861 Y181.476 E0.02293
G1 X114.183 Y181.953 E0.02340
G1 X113.395 Y182.309 E0.02440
G1 X112.728 Y182.478 E0.01942
G1 X112.056 Y182.543 E0.01903
G1 X93.092 Y182.472 E0.53516
G1 X92.520 Y182.319 E0.01670
G1 X91.947 Y182.085 E0.01748
G1 X91.175 Y181.600 E0.02574
G1 X90.562 Y181.021 E0.02378
G1 X90.056 Y180.314 E0.02452
G1 X89.691 Y179.507 E0.02500
G1 X89.493 Y178.631 E0.02534
G1 X89.478 Y177.543 E0.03070
G1 X74.815 Y177.543 E0.41376
G1 X74.031 Y177.454 E0.02227
G1 X73.293 Y177.238 E0.02171
G1 X72.244 Y176.653 E0.03389
G1 X71.389 Y175.808 E0.03394
G1 X70.805 Y174.805 E0.03274
G1 X70.556 Y174.012 E0.02346
G1 X70.464 Y173.309 E0.02000
G1 X70.460 Y165.543 E0.21914
G1 X32.745 Y165.543 E1.06426
G1 X31.760 Y165.402 E0.02809
G1 X30.786 Y165.028 E0.02944
G1 X29.955 Y164.460 E0.02841
G1 X29.280 Y163.736 E0.02792
G1 X28.655 Y162.543 E0.03800
G1 X28.408 Y161.243 E0.03735
G1 X28.408 Y85.912 E2.12575
G1 X28.549 Y84.927 E0.02809
G1 X28.923 Y83.953 E0.02944
G1 X29.492 Y83.121 E0.02841
G1 X30.215 Y82.447 E0.02792
G1 X31.408 Y81.822 E0.03800
G1 X32.708 Y81.575 E0.03735
G1 X70.467 Y81.575 E1.06551
G1 X70.496 Y76.812 E0.13440
G1 X70.765 Y75.918 E0.02635
G1 X71.197 Y75.187 E0.02394
G1 X71.984 Y74.384 E0.03174
G1 X72.805 Y73.882 E0.02717
G1 X73.946 Y73.575 E0.03334
G1 X125.488 Y73.575 E1.45444
G1 X166.377 Y58.692 E1.22788
G1 X180.351 Y48.908 E0.48140
G1 X181.384 Y48.517 E0.03116
G1 X182.525 Y48.445 E0.03228
G1 X183.298 Y48.582 E0.02214
G1 X183.879 Y48.766 E0.01721
G1 X185.208 Y49.747 E0.04661
G1 X202.109 Y73.886 E0.83153
G1 X202.463 Y74.691 E0.02482
G1 X202.621 Y75.602 E0.02609
G1 X202.335 Y77.322 E0.04919
G1 X201.986 Y77.986 E0.02118
G1 X201.282 Y78.801 E0.03038
G1 X184.376 Y90.640 E0.58242
G1 X183.949 Y90.478 F9000.000
G1 F1200.000
G1 X183.949 Y157.722 E1.89755
G1 X183.703 Y158.673 E0.02774
G1 X183.399 Y159.255 E0.01852
G1 X182.384 Y160.282 E0.04073
G1 X181.757 Y160.619 E0.02011
G1 X180.805 Y160.866 E0.02774
G1 X154.048 Y160.866 E0.75506
G1 X154.027 Y170.469 E0.27099
G1 X153.811 Y171.455 E0.02846
G1 X153.320 Y172.413 E0.03038
G1 X152.650 Y173.160 E0.02831
G1 X151.786 Y173.739 E0.02934
G1 X150.945 Y174.046 E0.02528
G1 X150.075 Y174.166 E0.02476
G1 X134.455 Y174.166 E0.44080
G1 X134.180 Y174.601 E0.01452
G1 X133.442 Y175.330 E0.02925
G1 X132.564 Y175.841 E0.02868
G1 X131.894 Y176.059 E0.01987
G1 X131.160 Y176.161 E0.02092
G1 X116.040 Y176.166 E0.42668
G1 X116.029 Y178.478 E0.06525
G1 X115.870 Y179.277 E0.02299
G1 X115.574 Y179.996 E0.02195
G1 X115.125 Y180.670 E0.02286
G1 X114.605 Y181.199 E0.02094
G1 X114.011 Y181.618 E0.02050
G1 X113.284 Y181.948 E0.02251
G1 X112.676 Y182.104 E0.01773
G1 X112.048 Y182.166 E0.01780
G1 X93.165 Y182.101 E0.53286
G1 X92.650 Y181.964 E0.01505
G1 X92.132 Y181.756 E0.01576
G1 X91.419 Y181.311 E0.02371
G1 X90.857 Y180.785 E0.02173
G1 X90.391 Y180.140 E0.02244
G1 X90.054 Y179.403 E0.02288
G1 X89.870 Y178.605 E0.02309
G1 X89.850 Y177.166 E0.04061
G1 X74.826 Y177.166 E0.42396
G1 X74.121 Y177.088 E0.02000
G1 X73.420 Y176.883 E0.02062
G1 X72.452 Y176.338 E0.03133
G1 X71.674 Y175.560 E0.03107
G1 X71.143 Y174.636 E0.03005
G1 X70.921 Y173.917 E0.02125
G1 X70.841 Y173.297 E0.01764
G1 X70.836 Y165.166 E0.22944
G1 X32.759 Y165.166 E1.07450
G1 X31.836 Y165.032 E0.02632
G1 X30.944 Y164.685 E0.02700
G1 X30.187 Y164.162 E0.02597
G1 X29.574 Y163.498 E0.02548
G1 X29.020 Y162.444 E0.03361
G1 X28.785 Y161.225 E0.03505
G1 X28.785 Y85.926 E2.12485
G1 X28.919 Y85.003 E0.02632
G1 X29.266 Y84.111 E0.02701
G1 X29.789 Y83.354 E0.02597
G1 X30.453 Y82.741 E0.02548
G1 X31.507 Y82.187 E0.03360
G1 X32.726 Y81.952 E0.03505
G1 X70.842 Y81.952 E1.07557
G1 X70.873 Y76.842 E0.14420
G1 X71.102 Y76.088 E0.02223
G1 X71.484 Y75.433 E0.02140
G1 X72.204 Y74.691 E0.02916
G1 X72.933 Y74.237 E0.02423
G1 X73.972 Y73.952 E0.03042
G1 X125.554 Y73.952 E1.45559
G1 X166.552 Y59.030 E1.23116
G1 X180.547 Y49.230 E0.48210
G1 X181.488 Y48.880 E0.02834
G1 X182.481 Y48.821 E0.02807
G1 X183.220 Y48.951 E0.02115
G1 X183.734 Y49.116 E0.01526
G1 X184.916 Y49.989 E0.04147
G1 X201.789 Y74.086 E0.83012
G1 X202.107 Y74.819 E0.02255
G1 X202.244 Y75.633 E0.02329
G1 X201.987 Y77.175 E0.04411
G1 X201.684 Y77.759 E0.01855
G1 X201.046 Y78.507 E0.02774
G1 X183.999 Y90.443 E0.58727
G1 X183.572 Y90.282 F9000.000
G1 F1200.000
G1 X183.572 Y157.697 E1.90238
G1 X183.344 Y158.554 E0.02505
G1 X183.079 Y159.053 E0.01594
G1 X182.179 Y159.965 E0.03615
G1 X181.637 Y160.261 E0.01743
G1 X180.780 Y160.489 E0.02502
G1 X153.671 Y160.489 E0.76498
G1 X153.654 Y170.411 E0.27997
G1 X153.463 Y171.307 E0.02587
G1 X153.021 Y172.182 E0.02765
G1 X152.418 Y172.861 E0.02564
G1 X151.633 Y173.393 E0.02676
G1 X150.871 Y173.675 E0.02292
G1 X150.062 Y173.789 E0.02306
G1 X134.243 Y173.789 E0.44641
G1 X133.896 Y174.351 E0.01863
G1 X133.230 Y175.017 E0.02659
G1 X132.427 Y175.489 E0.02627
G1 X131.794 Y175.695 E0.01879
G1 X131.123 Y175.786 E0.01912
G1 X115.664 Y175.789 E0.43622
G1 X115.652 Y178.457 E0.07531
G1 X115.504 Y179.183 E0.02089
G1 X115.233 Y179.833 E0.01988
G1 X114.822 Y180.445 E0.02081
G1 X114.372 Y180.902 E0.01808
G1 X113.837 Y181.283 E0.01855
G1 X113.173 Y181.587 E0.02061
G1 X112.623 Y181.730 E0.01602
G1 X112.039 Y181.789 E0.01656
G1 X93.238 Y181.731 E0.53054
G1 X92.758 Y181.603 E0.01403
G1 X92.289 Y181.413 E0.01428
G1 X91.636 Y181.002 E0.02178
G1 X91.129 Y180.524 E0.01966
G1 X90.709 Y179.936 E0.02039
G1 X90.406 Y179.265 E0.02077
G1 X90.242 Y178.542 E0.02093
G1 X90.224 Y176.789 E0.04947
G1 X74.836 Y176.789 E0.43421
G1 X74.181 Y176.715 E0.01863
G1 X73.548 Y176.528 E0.01861
G1 X72.662 Y176.023 E0.02877
G1 X71.960 Y175.313 E0.02819
G1 X71.482 Y174.470 E0.02736
G1 X71.287 Y173.823 E0.01904
G1 X71.218 Y173.285 E0.01532
G1 X71.213 Y164.789 E0.23974
G1 X32.772 Y164.789 E1.08477
G1 X31.950 Y164.672 E0.02342
G1 X31.138 Y164.361 E0.02455
G1 X30.449 Y163.890 E0.02354
G1 X29.869 Y163.261 E0.02414
G1 X29.368 Y162.296 E0.03070
G1 X29.162 Y161.207 E0.03126
G1 X29.162 Y85.939 E2.12400
G1 X29.279 Y85.117 E0.02342
G1 X29.590 Y84.304 E0.02456
G1 X30.061 Y83.616 E0.02354
G1 X30.690 Y83.035 E0.02414
G1 X31.655 Y82.534 E0.03069
G1 X32.744 Y82.329 E0.03126
G1 X71.217 Y82.329 E1.08566
G1 X71.250 Y76.873 E0.15395
G1 X71.455 Y76.222 E0.01927
G1 X71.772 Y75.677 E0.01778
G1 X72.426 Y74.997 E0.02665
G1 X73.063 Y74.592 E0.02128
G1 X73.999 Y74.329 E0.02744
G1 X125.621 Y74.329 E1.45672
G1 X166.728 Y59.367 E1.23443
G1 X180.743 Y49.554 E0.48279
G1 X181.591 Y49.244 E0.02548
G1 X182.437 Y49.196 E0.02392
G1 X183.141 Y49.320 E0.02017
G1 X183.589 Y49.465 E0.01329
G1 X184.625 Y50.230 E0.03634
G1 X201.469 Y74.286 E0.82870
G1 X201.751 Y74.945 E0.02024
G1 X201.867 Y75.662 E0.02048
G1 X201.638 Y77.030 E0.03914
G1 X201.381 Y77.533 E0.01594
G1 X200.809 Y78.212 E0.02505
G1 X183.622 Y90.247 E0.59210
G1 X183.195 Y90.085 F9000.000
G1 F1200.000
G1 X183.195 Y157.671 E1.90718
G1 X182.987 Y158.433 E0.02229
G1 X182.761 Y158.849 E0.01335
G1 X181.932 Y159.678 E0.03310
G1 X181.516 Y159.903 E0.01335
G1 X180.754 Y160.112 E0.02229
G1 X153.295 Y160.112 E0.77487
G1 X153.280 Y170.354 E0.28901
G1 X153.114 Y171.162 E0.02329
G1 X152.721 Y171.953 E0.02491
G1 X152.185 Y172.565 E0.02296
G1 X151.478 Y173.049 E0.02418
G1 X150.797 Y173.305 E0.02053
G1 X150.048 Y173.412 E0.02134
G1 X134.029 Y173.412 E0.45206
G1 X133.611 Y174.103 E0.02278
G1 X133.016 Y174.706 E0.02391
G1 X132.289 Y175.137 E0.02387
G1 X131.725 Y175.324 E0.01675
G1 X131.110 Y175.408 E0.01753
G1 X115.288 Y175.412 E0.44646
G1 X115.279 Y178.401 E0.08434
G1 X115.139 Y179.090 E0.01984
G1 X114.909 Y179.640 E0.01682
G1 X114.541 Y180.194 E0.01878
G1 X114.116 Y180.625 E0.01707
G1 X113.634 Y180.964 E0.01663
G1 X113.062 Y181.227 E0.01777
G1 X112.543 Y181.362 E0.01514
G1 X112.031 Y181.412 E0.01451
G1 X93.312 Y181.360 E0.52823
G1 X92.867 Y181.242 E0.01299
G1 X92.447 Y181.071 E0.01278
G1 X91.854 Y180.694 E0.01983
G1 X91.404 Y180.264 E0.01757
G1 X91.028 Y179.734 E0.01834
G1 X90.758 Y179.130 E0.01867
G1 X90.614 Y178.481 E0.01877
G1 X90.598 Y176.412 E0.05838
G1 X74.847 Y176.412 E0.44447
G1 X74.241 Y176.342 E0.01723
G1 X73.677 Y176.173 E0.01661
G1 X72.912 Y175.740 E0.02482
G1 X72.247 Y175.067 E0.02670
G1 X71.822 Y174.305 E0.02460
G1 X71.653 Y173.732 E0.01686
G1 X71.596 Y173.273 E0.01306
G1 X71.590 Y164.412 E0.25005
G1 X32.786 Y164.412 E1.09501
G1 X32.026 Y164.302 E0.02166
G1 X31.296 Y164.018 E0.02211
G1 X30.682 Y163.593 E0.02108
G1 X30.165 Y163.027 E0.02164
G1 X29.716 Y162.150 E0.02780
G1 X29.539 Y161.191 E0.02752
G1 X29.539 Y85.953 E2.12313
G1 X29.649 Y85.193 E0.02166
G1 X29.933 Y84.463 E0.02211
G1 X30.358 Y83.849 E0.02107
G1 X30.925 Y83.331 E0.02164
G1 X31.802 Y82.883 E0.02780
G1 X32.760 Y82.706 E0.02752
G1 X71.591 Y82.706 E1.09576
G1 X71.627 Y76.906 E0.16366
G1 X71.807 Y76.359 E0.01626
G1 X72.060 Y75.921 E0.01429
G1 X72.651 Y75.300 E0.02418
G1 X73.196 Y74.946 E0.01833
G1 X74.026 Y74.706 E0.02439
G1 X125.687 Y74.706 E1.45782
G1 X166.903 Y59.704 E1.23771
G1 X180.938 Y49.878 E0.48346
G1 X181.691 Y49.608 E0.02257
G1 X182.392 Y49.571 E0.01982
G1 X183.062 Y49.689 E0.01918
G1 X183.443 Y49.813 E0.01131
