; generated by PrusaSlicer 2.3.0+ on 2022-05-20 at 19:31:48 UTC

; 

; external perimeters extrusion width = 0.90mm
; perimeters extrusion width = 0.90mm
; infill extrusion width = 0.90mm
; solid infill extrusion width = 0.90mm
; top infill extrusion width = 0.80mm
; first layer extrusion width = 0.84mm

M201 X500 Y500 Z100 E5000 ; sets maximum accelerations, mm/sec^2
M203 X500 Y500 Z10 E60 ; sets maximum feedrates, mm/sec
M204 P500 R1000 T500 ; sets acceleration (P, T) and retract acceleration (R), mm/sec^2
M205 X8.00 Y8.00 Z0.40 E5.00 ; sets the jerk limits, mm/sec
M205 S0 T0 ; sets the minimum extruding and travel feed rate, mm/sec
M107
;TYPE:Custom
G90 ; use absolute coordinates
M83 ; extruder relative mode
M104 S210 ; set extruder temp
M140 S60 ; set bed temp
M190 S60 ; wait for bed temp
M109 S210 ; wait for extruder temp
G28 ; home all
G1 Z2 F240
G1 X2 Y10 F3000
G1 Z0.28 F240
G92 E0
G1 Y190 E15 F1500 ; intro line
G1 X2.3 F5000
G92 E0
G1 Y10 E15 F1200 ; intro line
G92 E0
G21 ; set units to millimeters
G90 ; use absolute coordinates
M83 ; use relative distances for extrusion
; Filament gcode
;LAYER_CHANGE
;Z:0.32
;HEIGHT:0.32
;BEFORE_LAYER_CHANGE
G92 E0
;0.32


G1 E-5.00000 F3600.000
G1 Z0.320 F9000.000
;AFTER_LAYER_CHANGE
;0.32
G1 X141.863 Y26.435
G1 E5.00000 F2400.000
;TYPE:Skirt
;WIDTH:0.84
G1 F1200.000
G1 X156.260 Y26.439 E1.32961
G1 X157.017 Y26.528 E0.07037
G1 X157.742 Y26.735 E0.06963
G1 X158.413 Y27.047 E0.06831
G1 X159.033 Y27.464 E0.06911
G1 X159.699 Y28.110 E0.08560
G1 X160.250 Y28.916 E0.09018
G1 X160.526 Y29.521 E0.06148
G1 X160.713 Y30.153 E0.06084
G1 X160.816 Y30.915 E0.07098
G1 X160.823 Y38.435 E0.69455
G1 X198.239 Y38.435 E3.45556
G1 X199.243 Y38.565 E0.09351
G1 X199.819 Y38.745 E0.05576
G1 X200.360 Y38.989 E0.05475
G1 X201.384 Y39.721 E0.11629
G1 X201.770 Y40.135 E0.05224
G1 X202.105 Y40.582 E0.05157
G1 X202.680 Y41.824 E0.12643
G1 X202.820 Y42.461 E0.06022
G1 X202.875 Y43.091 E0.05845
G1 X202.875 Y118.309 E6.94686
G1 X202.823 Y118.926 E0.05716
G1 X202.687 Y119.559 E0.05979
G1 X202.103 Y120.826 E0.12885
G1 X201.761 Y121.281 E0.05259
G1 X201.385 Y121.682 E0.05073
G1 X200.421 Y122.380 E0.10991
G1 X199.501 Y122.769 E0.09224
G1 X198.900 Y122.907 E0.05699
G1 X198.303 Y122.966 E0.05542
G1 X160.825 Y122.970 E3.46127
G1 X160.825 Y127.347 E0.40425
G1 X160.706 Y128.005 E0.06178
G1 X160.451 Y128.641 E0.06327
G1 X160.134 Y129.151 E0.05547
G1 X159.087 Y130.212 E0.13769
G1 X158.516 Y130.587 E0.06313
G1 X157.891 Y130.840 E0.06222
G1 X157.290 Y130.962 E0.05664
G1 X105.562 Y130.969 E4.77741
G1 X64.755 Y145.822 E4.01064
G1 X50.456 Y155.801 E1.61039
G1 X49.984 Y155.983 E0.04675
G1 X49.391 Y156.115 E0.05605
G1 X48.629 Y156.130 E0.07044
G1 X47.161 Y155.844 E0.13810
G1 X46.698 Y155.639 E0.04675
G1 X46.186 Y155.313 E0.05607
G1 X45.640 Y154.790 E0.06981
G1 X28.534 Y130.359 E2.75444
G1 X28.229 Y129.668 E0.06981
G1 X28.098 Y129.075 E0.05607
G1 X28.064 Y128.570 E0.04674
G1 X28.369 Y126.842 E0.16206
G1 X28.573 Y126.379 E0.04675
G1 X28.900 Y125.867 E0.05607
G1 X29.422 Y125.321 E0.06981
G1 X46.391 Y113.440 E1.91310
G1 X46.391 Y46.353 E6.19589
G1 X46.538 Y45.611 E0.06981
G1 X46.770 Y45.050 E0.05607
G1 X47.032 Y44.617 E0.04674
G1 X48.273 Y43.376 E0.16206
G1 X48.706 Y43.115 E0.04674
G1 X49.267 Y42.882 E0.05607
G1 X50.008 Y42.735 E0.06981
G1 X76.292 Y42.735 E2.42742
G1 X76.295 Y33.985 E0.80807
G1 X76.412 Y33.115 E0.08113
G1 X76.650 Y32.367 E0.07245
G1 X77.004 Y31.675 E0.07181
G1 X77.446 Y31.077 E0.06865
G1 X78.001 Y30.531 E0.07190
G1 X78.599 Y30.107 E0.06773
G1 X79.306 Y29.761 E0.07269
G1 X80.097 Y29.529 E0.07617
G1 X80.936 Y29.435 E0.07791
G1 X96.177 Y29.435 E1.40765
G1 X96.583 Y28.922 E0.06038
G1 X97.014 Y28.520 E0.05445
G1 X97.609 Y28.103 E0.06715
G1 X98.501 Y27.688 E0.09081
G1 X99.133 Y27.521 E0.06038
G1 X99.751 Y27.445 E0.05745
G1 X114.291 Y27.435 E1.34294
G1 X114.293 Y26.044 E0.12847
G1 X114.385 Y25.244 E0.07443
G1 X114.626 Y24.426 E0.07877
G1 X114.991 Y23.698 E0.07520
G1 X115.455 Y23.065 E0.07254
G1 X115.982 Y22.548 E0.06813
G1 X116.734 Y22.032 E0.08428
G1 X117.684 Y21.629 E0.09526
G1 X118.316 Y21.490 E0.05977
G1 X118.947 Y21.435 E0.05849
G1 X137.216 Y21.436 E1.68725
G1 X137.943 Y21.514 E0.06749
G1 X138.658 Y21.704 E0.06842
G1 X139.505 Y22.101 E0.08639
G1 X140.263 Y22.660 E0.08692
G1 X140.847 Y23.292 E0.07946
G1 X141.219 Y23.860 E0.06272
G1 X141.502 Y24.456 E0.06094
G1 X141.731 Y25.241 E0.07557
G1 X141.850 Y26.316 E0.09983
G1 X141.055 Y27.206 F9000.000
G1 F1200.000
G1 X156.197 Y27.208 E1.39852
G1 X156.838 Y27.279 E0.05949
G1 X157.499 Y27.468 E0.06349
G1 X158.054 Y27.730 E0.05667
G1 X158.569 Y28.081 E0.05760
G1 X159.129 Y28.631 E0.07244
G1 X159.591 Y29.318 E0.07650
G1 X159.796 Y29.770 E0.04583
G1 X159.954 Y30.291 E0.05034
G1 X160.045 Y30.943 E0.06074
G1 X160.053 Y39.206 E0.76318
G1 X198.215 Y39.206 E3.52451
G1 X199.049 Y39.313 E0.07769
G1 X199.525 Y39.459 E0.04593
G1 X200.008 Y39.677 E0.04892
G1 X200.849 Y40.278 E0.09551
G1 X201.166 Y40.615 E0.04275
G1 X201.463 Y41.012 E0.04578
G1 X201.937 Y42.034 E0.10405
G1 X202.055 Y42.556 E0.04939
G1 X202.104 Y43.109 E0.05127
G1 X202.104 Y118.292 E6.94366
G1 X202.057 Y118.833 E0.05015
G1 X201.943 Y119.352 E0.04902
G1 X201.460 Y120.398 E0.10639
G1 X201.183 Y120.770 E0.04287
G1 X200.847 Y121.128 E0.04534
G1 X200.075 Y121.689 E0.08810
G1 X199.291 Y122.026 E0.07889
G1 X198.798 Y122.142 E0.04677
G1 X198.245 Y122.196 E0.05125
G1 X160.054 Y122.198 E3.52722
G1 X160.054 Y127.313 E0.47238
G1 X159.975 Y127.755 E0.04149
G1 X159.747 Y128.325 E0.05668
G1 X159.551 Y128.645 E0.03464
G1 X158.623 Y129.596 E0.12271
G1 X158.182 Y129.891 E0.04897
G1 X157.690 Y130.094 E0.04922
G1 X157.246 Y130.191 E0.04191
G1 X105.426 Y130.198 E4.78592
G1 X64.396 Y145.132 E4.03255
G1 X50.129 Y155.101 E1.60750
G1 X49.785 Y155.237 E0.03410
G1 X49.261 Y155.354 E0.04957
G1 X48.731 Y155.365 E0.04897
G1 X47.425 Y155.118 E0.12274
G1 X47.086 Y154.971 E0.03421
G1 X46.633 Y154.682 E0.04959
G1 X46.250 Y154.317 E0.04888
G1 X29.187 Y129.948 E2.74744
G1 X28.974 Y129.464 E0.04888
G1 X28.858 Y128.940 E0.04958
G1 X28.836 Y128.571 E0.03409
G1 X29.095 Y127.105 E0.13749
G1 X29.241 Y126.766 E0.03409
G1 X29.530 Y126.313 E0.04959
G1 X29.896 Y125.931 E0.04888
G1 X47.162 Y113.841 E1.94669
G1 X47.162 Y46.391 E6.22947
G1 X47.265 Y45.871 E0.04888
G1 X47.471 Y45.375 E0.04959
G1 X47.664 Y45.061 E0.03409
G1 X48.717 Y44.008 E0.13748
G1 X49.031 Y43.815 E0.03409
G1 X49.527 Y43.610 E0.04959
G1 X50.046 Y43.506 E0.04888
G1 X77.063 Y43.506 E2.49514
G1 X77.066 Y34.010 E0.87699
G1 X77.158 Y33.311 E0.06513
G1 X77.354 Y32.684 E0.06066
G1 X77.647 Y32.102 E0.06022
G1 X78.010 Y31.604 E0.05692
G1 X78.518 Y31.105 E0.06575
G1 X79.014 Y30.759 E0.05584
G1 X79.610 Y30.470 E0.06115
G1 X80.276 Y30.280 E0.06400
G1 X80.956 Y30.206 E0.06315
G1 X96.558 Y30.206 E1.44095
G1 X97.133 Y29.464 E0.08674
G1 X97.521 Y29.102 E0.04904
G1 X97.970 Y28.785 E0.05072
G1 X98.737 Y28.423 E0.07834
G1 X99.256 Y28.283 E0.04962
G1 X99.822 Y28.213 E0.05265
G1 X115.062 Y28.207 E1.40754
G1 X115.064 Y26.066 E0.19773
G1 X115.135 Y25.424 E0.05963
G1 X115.334 Y24.734 E0.06630
G1 X115.636 Y24.122 E0.06302
G1 X116.023 Y23.588 E0.06093
G1 X116.454 Y23.160 E0.05610
G1 X117.078 Y22.723 E0.07038
G1 X117.890 Y22.373 E0.08166
G1 X118.411 Y22.256 E0.04931
G1 X118.964 Y22.206 E0.05130
G1 X137.197 Y22.208 E1.68385
G1 X137.780 Y22.268 E0.05415
G1 X138.370 Y22.420 E0.05632
G1 X139.085 Y22.749 E0.07265
G1 X139.726 Y23.215 E0.07320
G1 X140.223 Y23.747 E0.06724
G1 X140.535 Y24.216 E0.05199
G1 X140.791 Y24.756 E0.05524
G1 X140.981 Y25.421 E0.06382
G1 X141.052 Y26.062 E0.05955
G1 X141.054 Y27.086 E0.09462
G1 X140.282 Y27.978 F9000.000
G1 F1200.000
G1 X156.140 Y27.978 E1.46452
G1 X156.665 Y28.032 E0.04881
G1 X157.206 Y28.182 E0.05178
G1 X157.647 Y28.386 E0.04490
G1 X158.104 Y28.697 E0.05108
G1 X158.554 Y29.147 E0.05873
G1 X158.928 Y29.712 E0.06265
G1 X159.080 Y30.059 E0.03492
G1 X159.195 Y30.433 E0.03619
G1 X159.273 Y30.972 E0.05030
G1 X159.282 Y39.978 E0.83170
G1 X198.192 Y39.978 E3.59351
G1 X198.860 Y40.061 E0.06222
G1 X199.232 Y40.173 E0.03584
G1 X199.656 Y40.364 E0.04296
G1 X200.313 Y40.834 E0.07466
G1 X200.589 Y41.127 E0.03711
G1 X200.820 Y41.439 E0.03590
G1 X201.194 Y42.244 E0.08193
G1 X201.296 Y42.699 E0.04307
G1 X201.332 Y43.124 E0.03947
G1 X201.332 Y118.277 E6.94081
G1 X201.298 Y118.693 E0.03859
G1 X201.199 Y119.145 E0.04270
G1 X200.818 Y119.969 E0.08378
G1 X200.579 Y120.290 E0.03700
G1 X200.314 Y120.569 E0.03555
G1 X199.662 Y121.036 E0.07405
G1 X199.084 Y121.283 E0.05810
G1 X198.649 Y121.384 E0.04122
G1 X198.193 Y121.427 E0.04231
G1 X159.282 Y121.427 E3.59360
G1 X159.282 Y127.281 E0.54065
G1 X159.243 Y127.507 E0.02121
G1 X159.045 Y128.003 E0.04932
G1 X158.924 Y128.194 E0.02088
G1 X158.103 Y129.025 E0.10790
G1 X157.852 Y129.192 E0.02784
G1 X157.424 Y129.370 E0.04280
G1 X157.202 Y129.419 E0.02099
G1 X105.290 Y129.427 E4.79442
G1 X64.037 Y144.442 E4.05448
G1 X49.794 Y154.406 E1.60535
G1 X49.584 Y154.492 E0.02100
G1 X49.131 Y154.592 E0.04280
G1 X48.830 Y154.599 E0.02784
G1 X47.681 Y154.389 E0.10790
G1 X47.470 Y154.301 E0.02110
G1 X47.079 Y154.052 E0.04280
G1 X46.860 Y153.843 E0.02795
G1 X29.841 Y129.537 E2.74044
G1 X29.719 Y129.260 E0.02795
G1 X29.619 Y128.807 E0.04279
G1 X29.608 Y128.580 E0.02099
G1 X29.823 Y127.360 E0.11442
G1 X29.911 Y127.151 E0.02099
G1 X30.160 Y126.760 E0.04280
G1 X30.369 Y126.541 E0.02795
G1 X47.933 Y114.243 E1.98027
G1 X47.933 Y46.428 E6.26306
G1 X47.992 Y46.132 E0.02795
G1 X48.170 Y45.704 E0.04280
G1 X48.291 Y45.512 E0.02099
G1 X49.167 Y44.636 E0.11442
G1 X49.359 Y44.514 E0.02099
G1 X49.787 Y44.337 E0.04280
G1 X50.084 Y44.278 E0.02795
G1 X77.834 Y44.278 E2.56285
G1 X77.837 Y34.035 E0.94598
G1 X77.906 Y33.503 E0.04954
G1 X78.060 Y32.996 E0.04894
G1 X78.294 Y32.523 E0.04871
G1 X78.576 Y32.129 E0.04474
G1 X79.033 Y31.680 E0.05922
G1 X79.422 Y31.414 E0.04350
G1 X79.908 Y31.182 E0.04975
G1 X80.449 Y31.032 E0.05182
G1 X80.975 Y30.978 E0.04882
G1 X97.055 Y30.978 E1.48514
G1 X97.363 Y30.415 E0.05923
G1 X97.683 Y30.005 E0.04806
G1 X97.995 Y29.711 E0.03962
G1 X98.338 Y29.464 E0.03895
G1 X98.974 Y29.158 E0.06523
G1 X99.429 Y29.036 E0.04347
G1 X99.888 Y28.982 E0.04269
G1 X115.833 Y28.978 E1.47262
G1 X115.835 Y26.089 E0.26681
G1 X115.897 Y25.547 E0.05035
G1 X116.063 Y24.989 E0.05378
G1 X116.310 Y24.498 E0.05073
G1 X116.593 Y24.108 E0.04449
G1 X116.931 Y23.766 E0.04445
G1 X117.428 Y23.411 E0.05640
G1 X118.097 Y23.117 E0.06751
G1 X118.554 Y23.014 E0.04323
G1 X118.980 Y22.978 E0.03949
G1 X137.175 Y22.979 E1.68044
G1 X137.667 Y23.032 E0.04563
G1 X138.137 Y23.156 E0.04492
G1 X138.720 Y23.430 E0.05951
G1 X139.235 Y23.811 E0.05915
G1 X139.631 Y24.243 E0.05416
G1 X139.873 Y24.612 E0.04074
G1 X140.077 Y25.051 E0.04476
G1 X140.228 Y25.593 E0.05195
G1 X140.282 Y26.119 E0.04881
G1 X140.282 Y27.858 E0.16056
G1 X139.511 Y28.749 F9000.000
G1 F1200.000
G1 X156.118 Y28.749 E1.53379
G1 X156.548 Y28.795 E0.03987
G1 X156.959 Y28.913 E0.03950
G1 X157.285 Y29.068 E0.03331
G1 X157.632 Y29.308 E0.03905
G1 X157.976 Y29.658 E0.04532
G1 X158.235 Y30.052 E0.04351
G1 X158.364 Y30.346 E0.02968
G1 X158.447 Y30.623 E0.02672
G1 X158.506 Y31.050 E0.03974
G1 X158.511 Y40.749 E0.89578
G1 X198.169 Y40.749 E3.66263
G1 X198.675 Y40.810 E0.04710
G1 X198.951 Y40.891 E0.02651
G1 X199.248 Y41.020 E0.02997
G1 X199.783 Y41.396 E0.06039
G1 X199.984 Y41.606 E0.02684
G1 X200.177 Y41.867 E0.02997
G1 X200.452 Y42.458 E0.06022
G1 X200.530 Y42.795 E0.03196
G1 X200.561 Y43.142 E0.03214
G1 X200.561 Y118.260 E6.93760
G1 X200.532 Y118.599 E0.03143
G1 X200.456 Y118.933 E0.03165
G1 X200.174 Y119.544 E0.06211
G1 X200.001 Y119.778 E0.02683
G1 X199.779 Y120.013 E0.02991
G1 X199.315 Y120.347 E0.05278
G1 X198.867 Y120.542 E0.04511
G1 X198.545 Y120.619 E0.03055
G1 X198.173 Y120.655 E0.03452
G1 X158.511 Y120.656 E3.66305
G1 X158.511 Y127.238 E0.60794
G1 X158.350 Y127.666 E0.04226
G1 X158.308 Y127.729 E0.00702
G1 X157.585 Y128.452 E0.09437
G1 X157.522 Y128.494 E0.00702
G1 X157.094 Y128.656 E0.04226
G1 X105.154 Y128.656 E4.79695
G1 X63.678 Y143.752 E4.07643
G1 X49.445 Y153.718 E1.60470
G1 X49.375 Y153.748 E0.00702
G1 X48.925 Y153.833 E0.04226
G1 X47.919 Y153.655 E0.09437
G1 X47.525 Y153.422 E0.04226
G1 X47.471 Y153.370 E0.00702
G1 X30.495 Y129.125 E2.73344
G1 X30.464 Y129.056 E0.00702
G1 X30.379 Y128.606 E0.04226
G1 X30.557 Y127.600 E0.09437
G1 X30.790 Y127.206 E0.04226
G1 X30.843 Y127.151 E0.00702
G1 X48.704 Y114.644 E2.01385
G1 X48.704 Y46.466 E6.29664
G1 X48.866 Y46.038 E0.04226
G1 X48.908 Y45.975 E0.00702
G1 X49.631 Y45.252 E0.09437
G1 X49.694 Y45.210 E0.00702
G1 X50.122 Y45.049 E0.04226
G1 X78.605 Y45.049 E2.63056
G1 X78.609 Y34.058 E1.01504
G1 X78.655 Y33.688 E0.03445
G1 X78.769 Y33.301 E0.03728
G1 X78.946 Y32.937 E0.03742
G1 X79.144 Y32.653 E0.03199
G1 X79.546 Y32.257 E0.05211
G1 X79.822 Y32.074 E0.03056
G1 X80.201 Y31.897 E0.03864
G1 X80.615 Y31.786 E0.03958
G1 X80.992 Y31.749 E0.03502
G1 X97.634 Y31.749 E1.53697
G1 X97.794 Y31.236 E0.04960
G1 X97.996 Y30.856 E0.03971
G1 X98.240 Y30.540 E0.03691
G1 X98.470 Y30.320 E0.02940
G1 X98.761 Y30.110 E0.03317
G1 X99.216 Y29.891 E0.04663
G1 X99.550 Y29.798 E0.03202
G1 X99.955 Y29.751 E0.03767
G1 X116.605 Y29.749 E1.53768
G1 X116.605 Y26.147 E0.33265
G1 X116.649 Y25.723 E0.03940
G1 X116.771 Y25.296 E0.04104
G1 X116.958 Y24.917 E0.03898
G1 X117.164 Y24.627 E0.03287
G1 X117.457 Y24.331 E0.03847
G1 X117.783 Y24.097 E0.03702
G1 X118.312 Y23.858 E0.05360
G1 X118.651 Y23.780 E0.03216
G1 X118.998 Y23.749 E0.03216
G1 X137.157 Y23.750 E1.67710
G1 X137.499 Y23.785 E0.03181
G1 X137.902 Y23.892 E0.03849
G1 X138.348 Y24.106 E0.04568
G1 X138.739 Y24.402 E0.04531
G1 X139.006 Y24.695 E0.03662
G1 X139.187 Y24.966 E0.03005
G1 X139.363 Y25.345 E0.03865
G1 X139.474 Y25.759 E0.03958
G1 X139.511 Y26.137 E0.03501
G1 X139.511 Y28.629 E0.23018
G1 X138.740 Y29.520 F9000.000
G1 F1200.000
G1 X156.101 Y29.520 E1.60340
G1 X156.379 Y29.548 E0.02578
G1 X156.660 Y29.625 E0.02699
G1 X156.921 Y29.749 E0.02664
G1 X157.156 Y29.916 E0.02666
G1 X157.357 Y30.120 E0.02644
G1 X157.547 Y30.402 E0.03135
G1 X157.633 Y30.594 E0.01945
G1 X157.699 Y30.812 E0.02106
G1 X157.737 Y31.120 E0.02867
G1 X157.740 Y41.520 E0.96050
G1 X198.148 Y41.520 E3.73190
G1 X198.490 Y41.560 E0.03187
G1 X198.707 Y41.624 E0.02087
G1 X198.900 Y41.709 E0.01945
G1 X199.252 Y41.956 E0.03971
G1 X199.407 Y42.119 E0.02080
G1 X199.531 Y42.289 E0.01945
G1 X199.712 Y42.679 E0.03971
G1 X199.765 Y42.897 E0.02073
G1 X199.790 Y43.161 E0.02443
G1 X199.790 Y118.242 E6.93421
G1 X199.767 Y118.500 E0.02391
G1 X199.715 Y118.716 E0.02051
G1 X199.529 Y119.118 E0.04089
G1 X199.396 Y119.298 E0.02073
G1 X199.248 Y119.452 E0.01976
G1 X198.961 Y119.660 E0.03273
G1 X198.642 Y119.803 E0.03230
G1 X198.436 Y119.855 E0.01955
G1 X198.153 Y119.884 E0.02632
G1 X157.740 Y119.884 E3.73240
G1 X157.740 Y127.123 E0.66859
G1 X157.681 Y127.265 E0.01417
G1 X157.121 Y127.826 E0.07318
G1 X156.979 Y127.884 E0.01417
G1 X105.018 Y127.884 E4.79892
G1 X63.318 Y143.062 E4.09837
G1 X49.096 Y153.020 E1.60349
G1 X48.946 Y153.053 E0.01417
G1 X48.166 Y152.916 E0.07318
G1 X48.037 Y152.833 E0.01417
G1 X31.192 Y128.777 E2.71226
G1 X31.159 Y128.627 E0.01417
G1 X31.297 Y127.847 E0.07319
G1 X31.379 Y127.717 E0.01417
G1 X49.476 Y115.046 E2.04034
G1 X49.476 Y46.581 E6.32313
G1 X49.535 Y46.439 E0.01417
G1 X50.095 Y45.879 E0.07318
G1 X50.237 Y45.820 E0.01417
G1 X79.376 Y45.820 E2.69118
G1 X79.380 Y34.086 E1.08375
G1 X79.415 Y33.821 E0.02468
G1 X79.479 Y33.603 E0.02102
G1 X79.604 Y33.339 E0.02693
G1 X79.721 Y33.166 E0.01922
G1 X80.014 Y32.871 E0.03849
G1 X80.186 Y32.754 E0.01922
G1 X80.446 Y32.629 E0.02662
G1 X80.729 Y32.549 E0.02714
G1 X81.013 Y32.520 E0.02633
G1 X98.367 Y32.520 E1.60276
G1 X98.400 Y31.903 E0.05707
G1 X98.501 Y31.549 E0.03401
G1 X98.633 Y31.292 E0.02674
G1 X98.801 Y31.069 E0.02575
G1 X98.954 Y30.920 E0.01974
G1 X99.137 Y30.784 E0.02105
G1 X99.469 Y30.621 E0.03416
G1 X99.679 Y30.559 E0.02021
G1 X99.980 Y30.522 E0.02800
G1 X117.376 Y30.520 E1.60661
G1 X117.376 Y26.164 E0.40237
G1 X117.401 Y25.899 E0.02456
G1 X117.503 Y25.542 E0.03424
G1 X117.603 Y25.340 E0.02083
G1 X117.772 Y25.104 E0.02684
G1 X117.977 Y24.901 E0.02665
