; generated by PrusaSlicer 2.3.0+ on 2023-02-03 at 10:07:53 UTC

; 

; external perimeters extrusion width = 0.45mm
; perimeters extrusion width = 0.45mm
; infill extrusion width = 0.45mm
; solid infill extrusion width = 0.45mm
; top infill extrusion width = 0.40mm
; first layer extrusion width = 0.42mm

M201 X500 Y500 Z100 E5000 ; sets maximum accelerations, mm/sec^2
M203 X500 Y500 Z10 E60 ; sets maximum feedrates, mm/sec
M204 P500 R1000 T500 ; sets acceleration (P, T) and retract acceleration (R), mm/sec^2
M205 X8.00 Y8.00 Z0.40 E5.00 ; sets the jerk limits, mm/sec
M205 S0 T0 ; sets the minimum extruding and travel feed rate, mm/sec
M107
;TYPE:Custom
G90 ; use absolute coordinates
M83 ; extruder relative mode
M104 S210 ; set extruder temp
M140 S60 ; set bed temp
M190 S60 ; wait for bed temp
M109 S210 ; wait for extruder temp
G28 ; home all
G1 Z2 F240
G1 X2 Y10 F3000
G1 Z0.28 F240
G92 E0
G1 Y190 E15 F1500 ; intro line
G1 X2.3 F5000
G92 E0
G1 Y10 E15 F1200 ; intro line
G92 E0
G21 ; set units to millimeters
G90 ; use absolute coordinates
M83 ; use relative distances for extrusion
; Filament gcode
;LAYER_CHANGE
;Z:0.2
;HEIGHT:0.2
;BEFORE_LAYER_CHANGE
G92 E0
;0.2


G1 E-5.00000 F3600.000
G1 Z0.200 F9000.000
;AFTER_LAYER_CHANGE
;0.2
G1 X183.634 Y89.776
G1 E5.00000 F2400.000
;TYPE:Skirt
;WIDTH:0.42
G1 F1200.000
G1 X183.634 Y155.640 E1.85860
G1 X183.336 Y156.863 E0.03553
G1 X182.916 Y157.699 E0.02638
G1 X181.586 Y159.055 E0.05362
G1 X180.654 Y159.545 E0.02972
G1 X179.430 Y159.844 E0.03554
G1 X153.730 Y159.844 E0.72524
G1 X153.702 Y168.460 E0.24312
G1 X153.425 Y169.697 E0.03577
G1 X152.832 Y170.860 E0.03685
G1 X151.936 Y171.869 E0.03808
G1 X150.798 Y172.622 E0.03851
G1 X149.758 Y172.994 E0.03117
G1 X148.668 Y173.144 E0.03105
G1 X133.639 Y173.144 E0.42409
G1 X132.697 Y174.064 E0.03716
G1 X131.629 Y174.697 E0.03504
G1 X130.745 Y174.998 E0.02634
G1 X129.828 Y175.133 E0.02617
G1 X115.715 Y175.143 E0.39826
G1 X115.704 Y176.483 E0.03781
G1 X115.465 Y177.583 E0.03175
G1 X115.015 Y178.573 E0.03071
G1 X114.415 Y179.397 E0.02874
G1 X113.842 Y179.949 E0.02247
G1 X113.186 Y180.412 E0.02266
G1 X112.300 Y180.831 E0.02764
G1 X111.476 Y181.056 E0.02409
G1 X110.632 Y181.144 E0.02394
G1 X95.734 Y181.131 E0.42041
G1 X94.525 Y180.909 E0.03469
G1 X93.432 Y180.427 E0.03370
G1 X92.256 Y179.481 E0.04259
G1 X91.670 Y178.726 E0.02698
G1 X91.224 Y177.851 E0.02769
G1 X90.918 Y176.719 E0.03310
G1 X90.897 Y176.144 E0.01624
G1 X76.934 Y176.144 E0.39403
G1 X75.951 Y176.021 E0.02794
G1 X74.994 Y175.715 E0.02836
G1 X73.824 Y175.010 E0.03854
G1 X72.857 Y174.000 E0.03946
G1 X72.122 Y172.568 E0.04543
G1 X71.876 Y171.339 E0.03535
G1 X71.861 Y164.144 E0.20305
G1 X34.872 Y164.144 E1.04379
G1 X33.659 Y163.962 E0.03463
G1 X32.573 Y163.533 E0.03296
G1 X31.608 Y162.871 E0.03302
G1 X30.791 Y161.984 E0.03402
G1 X30.434 Y161.409 E0.01909
G1 X30.146 Y160.797 E0.01909
G1 X29.807 Y159.134 E0.04789
G1 X29.807 Y87.332 E2.02618
G1 X29.989 Y86.119 E0.03463
G1 X30.418 Y85.033 E0.03295
G1 X31.080 Y84.067 E0.03302
G1 X31.967 Y83.251 E0.03402
G1 X32.542 Y82.894 E0.01909
G1 X33.154 Y82.606 E0.01909
G1 X34.817 Y82.267 E0.04789
G1 X71.871 Y82.267 E1.04563
G1 X71.896 Y78.200 E0.11477
G1 X72.247 Y77.019 E0.03475
G1 X72.780 Y76.138 E0.02906
G1 X73.705 Y75.212 E0.03694
G1 X74.711 Y74.614 E0.03302
G1 X76.050 Y74.267 E0.03904
G1 X126.026 Y74.267 E1.41027
G1 X167.217 Y59.275 E1.23697
G1 X179.825 Y50.446 E0.43433
G1 X181.127 Y49.935 E0.03946
G1 X182.545 Y49.848 E0.04011
G1 X183.973 Y50.183 E0.04139
G1 X184.777 Y50.618 E0.02579
G1 X185.723 Y51.449 E0.03552
G1 X200.598 Y72.692 E0.73181
G1 X201.042 Y73.717 E0.03152
G1 X201.223 Y74.857 E0.03258
G1 X200.873 Y76.832 E0.05660
G1 X200.431 Y77.651 E0.02625
G1 X199.600 Y78.597 E0.03553
G1 X183.683 Y89.742 E0.54833
G1 X183.257 Y89.580 F9000.000
G1 F1200.000
G1 X183.257 Y155.617 E1.86348
G1 X182.975 Y156.751 E0.03298
G1 X182.594 Y157.501 E0.02375
G1 X181.339 Y158.769 E0.05034
G1 X180.541 Y159.185 E0.02540
G1 X179.407 Y159.467 E0.03298
G1 X153.354 Y159.467 E0.73519
G1 X153.325 Y168.437 E0.25313
G1 X153.063 Y169.589 E0.03334
G1 X152.509 Y170.666 E0.03417
G1 X151.672 Y171.599 E0.03537
G1 X150.648 Y172.275 E0.03462
G1 X149.686 Y172.623 E0.02888
G1 X148.655 Y172.767 E0.02938
G1 X133.424 Y172.767 E0.42979
G1 X133.290 Y172.959 E0.00660
G1 X132.485 Y173.752 E0.03189
G1 X131.454 Y174.363 E0.03381
G1 X130.642 Y174.635 E0.02417
G1 X129.788 Y174.758 E0.02437
G1 X115.341 Y174.766 E0.40768
G1 X115.327 Y176.460 E0.04780
G1 X115.101 Y177.481 E0.02950
G1 X114.680 Y178.398 E0.02847
G1 X114.121 Y179.160 E0.02667
G1 X113.592 Y179.667 E0.02069
G1 X112.983 Y180.094 E0.02098
G1 X112.155 Y180.482 E0.02580
G1 X111.393 Y180.687 E0.02227
G1 X110.623 Y180.767 E0.02185
G1 X95.784 Y180.757 E0.41875
G1 X94.656 Y180.555 E0.03232
G1 X93.608 Y180.092 E0.03233
G1 X92.511 Y179.203 E0.03984
G1 X91.980 Y178.511 E0.02462
G1 X91.570 Y177.699 E0.02566
G1 X91.288 Y176.645 E0.03079
G1 X91.268 Y175.767 E0.02479
G1 X76.946 Y175.767 E0.40416
G1 X76.016 Y175.650 E0.02644
G1 X75.132 Y175.363 E0.02624
G1 X74.042 Y174.701 E0.03598
G1 X73.149 Y173.760 E0.03660
G1 X72.486 Y172.467 E0.04101
G1 X72.253 Y171.320 E0.03304
G1 X72.238 Y163.767 E0.21313
G1 X34.886 Y163.767 E1.05402
G1 X33.776 Y163.603 E0.03168
G1 X32.766 Y163.209 E0.03057
G1 X31.869 Y162.599 E0.03061
G1 X31.102 Y161.769 E0.03189
G1 X30.760 Y161.220 E0.01826
G1 X30.497 Y160.658 E0.01751
G1 X30.184 Y159.116 E0.04440
G1 X30.184 Y87.346 E2.02526
G1 X30.348 Y86.235 E0.03167
G1 X30.742 Y85.226 E0.03057
G1 X31.352 Y84.329 E0.03061
G1 X32.182 Y83.562 E0.03189
G1 X32.731 Y83.220 E0.01825
G1 X33.293 Y82.957 E0.01751
G1 X34.835 Y82.644 E0.04441
G1 X72.246 Y82.644 E1.05568
G1 X72.273 Y78.229 E0.12459
G1 X72.582 Y77.192 E0.03053
G1 X73.064 Y76.387 E0.02650
G1 X73.920 Y75.522 E0.03433
G1 X74.834 Y74.971 E0.03010
G1 X76.075 Y74.644 E0.03621
G1 X126.092 Y74.644 E1.41144
G1 X167.393 Y59.612 E1.24025
G1 X180.022 Y50.769 E0.43508
G1 X181.235 Y50.298 E0.03672
G1 X182.487 Y50.221 E0.03540
G1 X183.818 Y50.528 E0.03854
G1 X184.546 Y50.917 E0.02329
G1 X185.428 Y51.684 E0.03297
G1 X200.278 Y72.892 E0.73059
G1 X200.686 Y73.843 E0.02920
G1 X200.846 Y74.883 E0.02970
G1 X200.526 Y76.681 E0.05154
G1 X200.132 Y77.420 E0.02363
G1 X199.365 Y78.301 E0.03297
G1 X183.306 Y89.546 E0.55321
G1 X182.880 Y89.384 F9000.000
G1 F1200.000
G1 X182.880 Y155.593 E1.86835
G1 X182.615 Y156.636 E0.03038
G1 X182.272 Y157.303 E0.02114
G1 X181.137 Y158.449 E0.04553
G1 X180.426 Y158.825 E0.02271
G1 X179.383 Y159.090 E0.03035
G1 X152.978 Y159.090 E0.74513
G1 X152.953 Y168.376 E0.26204
G1 X152.716 Y169.440 E0.03077
G1 X152.210 Y170.434 E0.03147
G1 X151.442 Y171.299 E0.03265
G1 X150.498 Y171.928 E0.03201
G1 X149.576 Y172.262 E0.02766
G1 X148.642 Y172.390 E0.02661
G1 X133.217 Y172.390 E0.43526
G1 X133.009 Y172.706 E0.01068
G1 X132.237 Y173.466 E0.03059
G1 X131.282 Y174.027 E0.03126
G1 X130.541 Y174.271 E0.02201
G1 X129.748 Y174.383 E0.02258
G1 X114.967 Y174.389 E0.41712
G1 X114.950 Y176.436 E0.05777
G1 X114.738 Y177.378 E0.02723
G1 X114.347 Y178.221 E0.02623
G1 X113.828 Y178.922 E0.02460
G1 X113.343 Y179.383 E0.01890
G1 X112.781 Y179.775 E0.01932
G1 X112.012 Y180.133 E0.02395
G1 X111.311 Y180.319 E0.02045
G1 X110.614 Y180.390 E0.01979
G1 X95.832 Y180.382 E0.41712
G1 X94.787 Y180.200 E0.02993
G1 X93.783 Y179.758 E0.03096
G1 X92.797 Y178.956 E0.03586
G1 X92.290 Y178.296 E0.02349
G1 X91.916 Y177.548 E0.02359
G1 X91.659 Y176.572 E0.02849
G1 X91.641 Y175.390 E0.03337
G1 X76.957 Y175.390 E0.41436
G1 X76.115 Y175.285 E0.02394
G1 X75.270 Y175.011 E0.02508
G1 X74.261 Y174.393 E0.03337
G1 X73.443 Y173.522 E0.03374
G1 X72.850 Y172.366 E0.03666
G1 X72.630 Y171.300 E0.03072
G1 X72.614 Y163.390 E0.22321
G1 X34.899 Y163.390 E1.06426
G1 X33.891 Y163.243 E0.02876
G1 X32.959 Y162.884 E0.02819
G1 X32.130 Y162.326 E0.02819
G1 X31.412 Y161.554 E0.02975
G1 X31.097 Y161.049 E0.01678
G1 X30.848 Y160.518 E0.01655
G1 X30.561 Y159.097 E0.04092
G1 X30.561 Y87.359 E2.02436
G1 X30.708 Y86.351 E0.02875
G1 X31.067 Y85.419 E0.02819
G1 X31.626 Y84.590 E0.02819
G1 X32.397 Y83.872 E0.02975
G1 X32.902 Y83.557 E0.01678
G1 X33.433 Y83.308 E0.01655
G1 X34.854 Y83.021 E0.04092
G1 X72.620 Y83.021 E1.06573
G1 X72.650 Y78.259 E0.13440
G1 X72.919 Y77.364 E0.02635
G1 X73.350 Y76.634 E0.02394
G1 X74.138 Y75.831 E0.03174
G1 X74.959 Y75.328 E0.02717
G1 X76.100 Y75.021 E0.03334
G1 X126.159 Y75.021 E1.41261
G1 X167.568 Y59.949 E1.24352
G1 X180.220 Y51.090 E0.43585
G1 X181.290 Y50.672 E0.03242
G1 X182.432 Y50.595 E0.03229
G1 X183.666 Y50.873 E0.03568
G1 X184.317 Y51.217 E0.02078
G1 X185.132 Y51.920 E0.03038
G1 X199.957 Y73.092 E0.72935
G1 X200.329 Y73.967 E0.02684
G1 X200.469 Y74.907 E0.02682
G1 X200.179 Y76.532 E0.04656
G1 X199.832 Y77.191 E0.02101
G1 X199.129 Y78.006 E0.03038
G1 X182.929 Y89.349 E0.55807
G1 X182.503 Y89.187 F9000.000
G1 F1200.000
G1 X182.503 Y155.568 E1.87319
G1 X182.256 Y156.520 E0.02774
G1 X181.952 Y157.102 E0.01852
G1 X180.892 Y158.162 E0.04231
G1 X180.310 Y158.466 E0.01852
G1 X179.358 Y158.713 E0.02774
G1 X152.601 Y158.713 E0.75506
G1 X152.580 Y168.316 E0.27099
G1 X152.368 Y169.293 E0.02822
G1 X151.910 Y170.204 E0.02876
G1 X151.210 Y171.000 E0.02992
G1 X150.346 Y171.582 E0.02940
G1 X149.504 Y171.891 E0.02532
G1 X148.629 Y172.013 E0.02493
G1 X133.008 Y172.013 E0.44079
G1 X132.728 Y172.453 E0.01473
G1 X131.990 Y173.181 E0.02925
G1 X131.111 Y173.690 E0.02868
G1 X130.441 Y173.907 E0.01986
G1 X129.710 Y174.008 E0.02082
G1 X114.593 Y174.012 E0.42660
G1 X114.573 Y176.412 E0.06773
G1 X114.375 Y177.273 E0.02492
G1 X114.014 Y178.043 E0.02400
G1 X113.536 Y178.682 E0.02253
G1 X113.095 Y179.099 E0.01713
G1 X112.580 Y179.455 E0.01766
G1 X111.869 Y179.783 E0.02210
G1 X111.231 Y179.950 E0.01863
G1 X110.605 Y180.013 E0.01775
G1 X95.879 Y180.008 E0.41555
G1 X94.917 Y179.846 E0.02751
G1 X93.959 Y179.423 E0.02956
G1 X93.082 Y178.708 E0.03192
G1 X92.618 Y178.109 E0.02139
G1 X92.275 Y177.431 E0.02145
G1 X92.035 Y176.543 E0.02595
G1 X92.012 Y175.013 E0.04318
G1 X76.969 Y175.013 E0.42451
G1 X76.181 Y174.914 E0.02242
G1 X75.409 Y174.660 E0.02292
G1 X74.482 Y174.087 E0.03077
G1 X73.737 Y173.285 E0.03089
G1 X73.214 Y172.264 E0.03238
G1 X73.007 Y171.279 E0.02838
G1 X72.990 Y163.013 E0.23327
G1 X34.913 Y163.013 E1.07449
G1 X33.968 Y162.873 E0.02698
G1 X33.117 Y162.541 E0.02579
G1 X32.360 Y162.026 E0.02581
G1 X31.722 Y161.338 E0.02649
G1 X31.433 Y160.879 E0.01531
G1 X31.199 Y160.379 E0.01557
G1 X30.938 Y159.078 E0.03743
G1 X30.938 Y87.373 E2.02344
G1 X31.078 Y86.428 E0.02697
G1 X31.410 Y85.577 E0.02578
G1 X31.925 Y84.820 E0.02582
G1 X32.613 Y84.182 E0.02649
G1 X33.072 Y83.893 E0.01531
G1 X33.572 Y83.659 E0.01557
G1 X34.873 Y83.398 E0.03743
G1 X72.995 Y83.398 E1.07578
G1 X73.027 Y78.288 E0.14419
G1 X73.256 Y77.535 E0.02223
G1 X73.637 Y76.879 E0.02140
G1 X74.358 Y76.138 E0.02916
G1 X75.086 Y75.684 E0.02423
G1 X76.126 Y75.398 E0.03042
G1 X126.225 Y75.398 E1.41375
G1 X167.744 Y60.287 E1.24680
G1 X180.419 Y51.412 E0.43663
G1 X181.347 Y51.045 E0.02817
G1 X182.379 Y50.970 E0.02919
G1 X183.515 Y51.220 E0.03282
G1 X184.090 Y51.518 E0.01828
G1 X184.838 Y52.156 E0.02774
G1 X199.637 Y73.291 E0.72808
G1 X199.972 Y74.090 E0.02445
G1 X200.091 Y74.930 E0.02394
G1 X199.831 Y76.384 E0.04168
G1 X199.531 Y76.963 E0.01842
G1 X198.893 Y77.711 E0.02774
G1 X182.552 Y89.153 E0.56292
G1 X182.126 Y88.991 F9000.000
G1 F1200.000
G1 X182.126 Y155.543 E1.87802
G1 X181.898 Y156.401 E0.02505
G1 X181.633 Y156.899 E0.01593
G1 X180.690 Y157.843 E0.03764
G1 X180.191 Y158.107 E0.01593
G1 X179.333 Y158.336 E0.02505
G1 X152.225 Y158.336 E0.76498
G1 X152.207 Y168.257 E0.27998
G1 X152.019 Y169.148 E0.02569
G1 X151.609 Y169.976 E0.02606
G1 X150.977 Y170.703 E0.02719
G1 X150.192 Y171.237 E0.02680
G1 X149.430 Y171.521 E0.02294
G1 X148.615 Y171.636 E0.02322
G1 X132.797 Y171.636 E0.44639
G1 X132.446 Y172.203 E0.01882
G1 X131.778 Y172.868 E0.02659
G1 X130.975 Y173.338 E0.02627
G1 X130.341 Y173.543 E0.01878
G1 X129.673 Y173.632 E0.01903
G1 X114.218 Y173.635 E0.43614
G1 X114.201 Y176.350 E0.07661
G1 X114.025 Y177.133 E0.02265
G1 X113.699 Y177.834 E0.02181
G1 X113.265 Y178.420 E0.02057
G1 X112.847 Y178.814 E0.01623
G1 X112.380 Y179.135 E0.01598
G1 X111.757 Y179.423 E0.01938
G1 X111.178 Y179.577 E0.01691
G1 X110.595 Y179.636 E0.01652
G1 X95.924 Y179.633 E0.41401
G1 X95.047 Y179.491 E0.02506
G1 X94.135 Y179.088 E0.02814
G1 X93.366 Y178.459 E0.02802
G1 X92.945 Y177.920 E0.01931
G1 X92.633 Y177.311 E0.01932
G1 X92.412 Y176.512 E0.02337
G1 X92.384 Y174.636 E0.05296
G1 X76.981 Y174.636 E0.43465
G1 X76.247 Y174.542 E0.02088
G1 X75.550 Y174.310 E0.02073
G1 X74.704 Y173.781 E0.02816
G1 X74.032 Y173.049 E0.02804
G1 X73.577 Y172.160 E0.02817
G1 X73.384 Y171.258 E0.02602
G1 X73.367 Y162.636 E0.24332
G1 X34.927 Y162.636 E1.08473
G1 X34.083 Y162.514 E0.02406
G1 X33.309 Y162.216 E0.02341
G1 X32.621 Y161.752 E0.02341
G1 X32.031 Y161.122 E0.02435
G1 X31.759 Y160.688 E0.01445
G1 X31.551 Y160.241 E0.01394
G1 X31.315 Y159.060 E0.03397
G1 X31.315 Y87.386 E2.02255
G1 X31.437 Y86.543 E0.02406
G1 X31.736 Y85.769 E0.02341
G1 X32.199 Y85.080 E0.02341
G1 X32.829 Y84.491 E0.02435
G1 X33.263 Y84.219 E0.01445
G1 X33.710 Y84.010 E0.01393
G1 X34.891 Y83.775 E0.03397
G1 X73.370 Y83.775 E1.08583
G1 X73.404 Y78.320 E0.15395
G1 X73.609 Y77.668 E0.01927
G1 X73.925 Y77.124 E0.01778
G1 X74.580 Y76.443 E0.02665
G1 X75.216 Y76.039 E0.02128
G1 X76.152 Y75.775 E0.02744
G1 X126.292 Y75.775 E1.41488
G1 X167.920 Y60.624 E1.25008
G1 X180.617 Y51.733 E0.43743
G1 X181.407 Y51.419 E0.02397
G1 X182.328 Y51.344 E0.02608
G1 X183.366 Y51.567 E0.02997
G1 X183.864 Y51.821 E0.01577
G1 X184.543 Y52.393 E0.02505
G1 X199.316 Y73.492 E0.72682
G1 X199.602 Y74.167 E0.02071
G1 X199.713 Y74.953 E0.02239
G1 X199.483 Y76.238 E0.03684
G1 X199.228 Y76.738 E0.01584
G1 X198.656 Y77.417 E0.02505
G1 X182.175 Y88.957 E0.56775
G1 X181.749 Y88.795 F9000.000
G1 F1200.000
G1 X181.749 Y155.517 E1.88283
G1 X181.540 Y156.279 E0.02229
G1 X181.315 Y156.695 E0.01335
G1 X180.485 Y157.525 E0.03310
G1 X180.069 Y157.750 E0.01335
G1 X179.307 Y157.959 E0.02229
G1 X151.848 Y157.959 E0.77487
G1 X151.834 Y168.201 E0.28903
G1 X151.669 Y169.005 E0.02317
G1 X151.307 Y169.750 E0.02336
G1 X150.743 Y170.407 E0.02445
G1 X150.037 Y170.893 E0.02419
G1 X149.356 Y171.151 E0.02055
G1 X148.602 Y171.259 E0.02149
G1 X132.583 Y171.259 E0.45203
G1 X132.161 Y171.954 E0.02296
G1 X131.565 Y172.556 E0.02391
G1 X130.836 Y172.986 E0.02387
G1 X130.273 Y173.172 E0.01674
G1 X129.660 Y173.255 E0.01745
G1 X113.842 Y173.258 E0.44637
G1 X113.828 Y176.289 E0.08554
G1 X113.673 Y176.995 E0.02040
G1 X113.383 Y177.627 E0.01961
G1 X112.993 Y178.159 E0.01861
G1 X112.621 Y178.512 E0.01449
G1 X112.180 Y178.816 E0.01510
G1 X111.643 Y179.063 E0.01669
G1 X111.123 Y179.203 E0.01518
G1 X110.585 Y179.259 E0.01527
G1 X95.967 Y179.259 E0.41252
G1 X95.176 Y179.136 E0.02257
G1 X94.311 Y178.754 E0.02667
G1 X93.624 Y178.184 E0.02521
G1 X93.255 Y177.704 E0.01709
G1 X92.991 Y177.191 E0.01626
G1 X92.782 Y176.436 E0.02212
G1 X92.757 Y174.259 E0.06144
G1 X76.993 Y174.259 E0.44484
G1 X76.315 Y174.171 E0.01931
G1 X75.693 Y173.960 E0.01852
G1 X74.928 Y173.477 E0.02554
G1 X74.329 Y172.816 E0.02517
G1 X73.926 Y172.014 E0.02533
G1 X73.758 Y171.201 E0.02341
G1 X73.743 Y162.259 E0.25236
G1 X34.941 Y162.259 E1.09497
G1 X34.160 Y162.144 E0.02228
G1 X33.467 Y161.873 E0.02099
G1 X32.851 Y161.453 E0.02104
G1 X32.341 Y160.906 E0.02111
G1 X32.096 Y160.518 E0.01294
G1 X31.902 Y160.102 E0.01294
G1 X31.693 Y159.042 E0.03051
G1 X31.693 Y87.400 E2.02164
G1 X31.807 Y86.619 E0.02228
G1 X32.078 Y85.927 E0.02099
G1 X32.498 Y85.310 E0.02104
G1 X33.045 Y84.800 E0.02111
G1 X33.433 Y84.556 E0.01294
G1 X33.849 Y84.362 E0.01294
G1 X34.909 Y84.152 E0.03051
G1 X73.745 Y84.152 E1.09589
G1 X73.781 Y78.353 E0.16366
G1 X73.960 Y77.806 E0.01626
G1 X74.214 Y77.367 E0.01429
G1 X74.805 Y76.747 E0.02418
G1 X75.349 Y76.393 E0.01833
G1 X76.180 Y76.152 E0.02439
G1 X126.358 Y76.152 E1.41599
G1 X168.095 Y60.961 E1.25335
G1 X180.816 Y52.054 E0.43823
G1 X181.469 Y51.791 E0.01985
G1 X182.279 Y51.719 E0.02296
G1 X183.221 Y51.916 E0.02714
G1 X183.641 Y52.126 E0.01327
