; generated by PrusaSlicer 2.3.0+ on 2022-05-20 at 19:32:34 UTC

; 

; external perimeters extrusion width = 0.90mm
; perimeters extrusion width = 0.90mm
; infill extrusion width = 0.90mm
; solid infill extrusion width = 0.90mm
; top infill extrusion width = 0.80mm
; first layer extrusion width = 0.84mm

M201 X500 Y500 Z100 E5000 ; sets maximum accelerations, mm/sec^2
M203 X500 Y500 Z10 E60 ; sets maximum feedrates, mm/sec
M204 P500 R1000 T500 ; sets acceleration (P, T) and retract acceleration (R), mm/sec^2
M205 X8.00 Y8.00 Z0.40 E5.00 ; sets the jerk limits, mm/sec
M205 S0 T0 ; sets the minimum extruding and travel feed rate, mm/sec
M107
;TYPE:Custom
G90 ; use absolute coordinates
M83 ; extruder relative mode
M104 S210 ; set extruder temp
M140 S60 ; set bed temp
M190 S60 ; wait for bed temp
M109 S210 ; wait for extruder temp
G28 ; home all
G1 Z2 F240
G1 X2 Y10 F3000
G1 Z0.28 F240
G92 E0
G1 Y190 E15 F1500 ; intro line
G1 X2.3 F5000
G92 E0
G1 Y10 E15 F1200 ; intro line
G92 E0
G21 ; set units to millimeters
G90 ; use absolute coordinates
M83 ; use relative distances for extrusion
; Filament gcode
;LAYER_CHANGE
;Z:0.32
;HEIGHT:0.32
;BEFORE_LAYER_CHANGE
G92 E0
;0.32


G1 E-5.00000 F3600.000
G1 Z0.320 F9000.000
;AFTER_LAYER_CHANGE
;0.32
G1 X158.672 Y55.376
G1 E5.00000 F2400.000
;TYPE:Skirt
;WIDTH:0.84
G1 F1200.000
G1 X196.066 Y55.376 E3.45362
G1 X196.782 Y55.445 E0.06639
G1 X197.480 Y55.620 E0.06649
G1 X198.155 Y55.905 E0.06769
G1 X198.776 Y56.287 E0.06732
G1 X199.605 Y57.065 E0.10498
G1 X200.226 Y58.003 E0.10391
G1 X200.443 Y58.516 E0.05141
G1 X200.596 Y59.029 E0.04949
G1 X200.722 Y60.014 E0.09169
G1 X200.722 Y131.657 E6.61666
G1 X200.651 Y132.381 E0.06718
G1 X200.479 Y133.067 E0.06532
G1 X200.208 Y133.715 E0.06490
G1 X199.827 Y134.343 E0.06780
G1 X199.043 Y135.186 E0.10636
G1 X198.098 Y135.814 E0.10478
G1 X197.582 Y136.032 E0.05171
G1 X197.069 Y136.186 E0.04947
G1 X196.084 Y136.311 E0.09171
G1 X158.671 Y136.311 E3.45534
G1 X158.668 Y143.749 E0.68699
G1 X158.591 Y144.435 E0.06376
G1 X158.350 Y145.280 E0.08114
G1 X157.888 Y146.184 E0.09376
G1 X157.549 Y146.633 E0.05195
G1 X157.165 Y147.039 E0.05157
G1 X156.054 Y147.811 E0.12496
G1 X155.532 Y148.032 E0.05236
G1 X155.019 Y148.186 E0.04948
G1 X154.034 Y148.311 E0.09171
G1 X139.707 Y148.311 E1.32315
G1 X139.595 Y149.414 E0.10243
G1 X139.370 Y150.232 E0.07838
G1 X138.991 Y151.013 E0.08013
G1 X138.586 Y151.587 E0.06492
G1 X138.075 Y152.117 E0.06798
G1 X137.235 Y152.712 E0.09508
G1 X136.410 Y153.073 E0.08313
G1 X135.582 Y153.266 E0.07851
G1 X135.012 Y153.311 E0.05286
G1 X120.392 Y153.311 E1.35022
G1 X119.547 Y153.218 E0.07850
G1 X118.871 Y153.030 E0.06485
G1 X118.273 Y152.766 E0.06031
G1 X117.606 Y152.341 E0.07305
G1 X117.046 Y151.839 E0.06949
G1 X116.479 Y151.114 E0.08499
G1 X116.054 Y150.270 E0.08726
G1 X115.807 Y149.382 E0.08514
G1 X115.737 Y148.666 E0.06647
G1 X115.737 Y147.310 E0.12526
G1 X101.092 Y147.294 E1.35255
G1 X100.540 Y147.217 E0.05145
G1 X99.998 Y147.074 E0.05183
G1 X99.126 Y146.685 E0.08819
G1 X98.502 Y146.258 E0.06979
G1 X98.043 Y145.837 E0.05751
G1 X97.623 Y145.311 E0.06223
G1 X82.373 Y145.311 E1.40844
G1 X81.358 Y145.178 E0.09454
G1 X80.832 Y145.016 E0.05077
G1 X80.323 Y144.795 E0.05128
G1 X79.404 Y144.176 E0.10231
G1 X78.794 Y143.552 E0.08059
G1 X78.382 Y142.954 E0.06711
G1 X78.019 Y142.177 E0.07921
G1 X77.818 Y141.437 E0.07076
G1 X77.744 Y140.801 E0.05921
G1 X77.739 Y132.011 E0.81179
G1 X51.455 Y132.011 E2.42747
G1 X50.713 Y131.863 E0.06981
G1 X50.153 Y131.631 E0.05607
G1 X49.719 Y131.369 E0.04674
G1 X48.479 Y130.128 E0.16206
G1 X48.217 Y129.695 E0.04674
G1 X47.985 Y129.134 E0.05607
G1 X47.837 Y128.393 E0.06981
G1 X47.837 Y62.169 E6.11619
G1 X31.576 Y50.783 E1.83340
G1 X31.053 Y50.237 E0.06981
G1 X30.727 Y49.725 E0.05607
G1 X30.522 Y49.262 E0.04674
G1 X30.217 Y47.534 E0.16206
G1 X30.251 Y47.029 E0.04674
G1 X30.383 Y46.436 E0.05607
G1 X30.687 Y45.744 E0.06981
G1 X45.729 Y24.263 E2.42196
G1 X46.275 Y23.740 E0.06981
G1 X46.787 Y23.414 E0.05607
G1 X47.250 Y23.209 E0.04675
G1 X48.715 Y22.923 E0.13783
G1 X49.314 Y22.918 E0.05534
G1 X50.066 Y23.068 E0.07084
G1 X50.767 Y23.374 E0.07071
G1 X63.563 Y32.334 E1.44270
G1 X104.891 Y47.376 E4.06181
G1 X155.054 Y47.376 E4.63284
G1 X155.793 Y47.523 E0.06963
G1 X156.425 Y47.792 E0.06335
G1 X156.933 Y48.132 E0.05646
G1 X157.981 Y49.195 E0.13788
G1 X158.292 Y49.693 E0.05421
G1 X158.545 Y50.321 E0.06259
G1 X158.672 Y50.992 E0.06302
G1 X158.672 Y55.256 E0.39382
G1 X157.900 Y56.147 F9000.000
G1 F1200.000
G1 X196.047 Y56.147 E3.52307
G1 X196.675 Y56.209 E0.05832
G1 X197.258 Y56.359 E0.05551
G1 X197.822 Y56.601 E0.05674
G1 X198.336 Y56.922 E0.05597
G1 X198.990 Y57.532 E0.08258
G1 X199.532 Y58.341 E0.08989
G1 X199.710 Y58.759 E0.04200
G1 X199.848 Y59.219 E0.04440
G1 X199.950 Y60.037 E0.07615
G1 X199.950 Y131.637 E6.61268
G1 X199.887 Y132.273 E0.05904
G1 X199.740 Y132.844 E0.05446
G1 X199.510 Y133.386 E0.05430
G1 X199.190 Y133.906 E0.05644
G1 X198.574 Y134.572 E0.08379
G1 X197.760 Y135.120 E0.09061
G1 X197.339 Y135.299 E0.04226
G1 X196.879 Y135.437 E0.04439
G1 X196.060 Y135.539 E0.07616
G1 X157.899 Y135.539 E3.52438
G1 X157.896 Y143.729 E0.75635
G1 X157.838 Y144.262 E0.04952
G1 X157.643 Y144.969 E0.06778
G1 X157.250 Y145.750 E0.08074
G1 X156.972 Y146.120 E0.04269
G1 X156.632 Y146.480 E0.04580
G1 X155.715 Y147.118 E0.10313
G1 X155.289 Y147.299 E0.04274
G1 X154.829 Y147.437 E0.04439
G1 X154.010 Y147.539 E0.07616
G1 X138.899 Y147.539 E1.39558
G1 X138.899 Y148.677 E0.10510
G1 X138.842 Y149.247 E0.05284
G1 X138.659 Y149.930 E0.06535
G1 X138.311 Y150.648 E0.07363
G1 X138.007 Y151.077 E0.04861
G1 X137.592 Y151.514 E0.05559
G1 X136.882 Y152.025 E0.08085
G1 X136.195 Y152.332 E0.06951
G1 X135.490 Y152.500 E0.06694
G1 X134.996 Y152.539 E0.04575
G1 X120.412 Y152.539 E1.34692
G1 X119.719 Y152.466 E0.06439
G1 X119.155 Y152.312 E0.05400
G1 X118.611 Y152.072 E0.05485
G1 X118.093 Y151.742 E0.05675
G1 X117.627 Y151.331 E0.05742
G1 X117.146 Y150.726 E0.07134
G1 X116.784 Y150.021 E0.07319
G1 X116.571 Y149.269 E0.07212
G1 X116.508 Y148.646 E0.05787
G1 X116.508 Y146.539 E0.19462
G1 X101.172 Y146.526 E1.41637
G1 X100.671 Y146.456 E0.04672
G1 X100.229 Y146.338 E0.04226
G1 X99.477 Y145.997 E0.07635
G1 X99.004 Y145.672 E0.05300
G1 X98.589 Y145.292 E0.05193
G1 X98.001 Y144.539 E0.08818
G1 X82.397 Y144.539 E1.44118
G1 X81.553 Y144.431 E0.07855
G1 X81.082 Y144.285 E0.04559
G1 X80.667 Y144.104 E0.04184
G1 X79.872 Y143.562 E0.08880
G1 X79.408 Y143.084 E0.06157
G1 X79.066 Y142.596 E0.05499
G1 X78.734 Y141.883 E0.07267
G1 X78.571 Y141.269 E0.05865
G1 X78.515 Y140.779 E0.04556
G1 X78.509 Y131.239 E0.88101
G1 X51.493 Y131.239 E2.49516
G1 X50.974 Y131.136 E0.04888
G1 X50.478 Y130.931 E0.04959
G1 X50.163 Y130.737 E0.03409
G1 X49.111 Y129.685 E0.13748
G1 X48.917 Y129.370 E0.03409
G1 X48.712 Y128.874 E0.04959
G1 X48.608 Y128.355 E0.04888
G1 X48.608 Y61.767 E6.14977
G1 X32.049 Y50.173 E1.86698
G1 X31.683 Y49.790 E0.04888
G1 X31.395 Y49.337 E0.04959
G1 X31.248 Y48.999 E0.03409
G1 X30.990 Y47.533 E0.13748
G1 X31.012 Y47.164 E0.03409
G1 X31.128 Y46.640 E0.04959
G1 X31.341 Y46.156 E0.04888
G1 X46.339 Y24.736 E2.41496
G1 X46.721 Y24.370 E0.04888
G1 X47.174 Y24.082 E0.04959
G1 X47.514 Y23.935 E0.03421
G1 X48.819 Y23.688 E0.12265
G1 X49.269 Y23.689 E0.04159
G1 X49.867 Y23.814 E0.05643
G1 X50.356 Y24.028 E0.04930
G1 X63.204 Y33.024 E1.44856
G1 X104.755 Y48.147 E4.08375
G1 X155.016 Y48.147 E4.64190
G1 X155.535 Y48.251 E0.04888
G1 X156.029 Y48.455 E0.04934
G1 X156.469 Y48.750 E0.04897
G1 X157.397 Y49.701 E0.12274
G1 X157.592 Y50.017 E0.03421
G1 X157.797 Y50.513 E0.04959
G1 X157.900 Y51.032 E0.04888
G1 X157.900 Y56.027 E0.46138
G1 X157.129 Y56.919 F9000.000
G1 F1200.000
G1 X196.029 Y56.919 E3.59269
G1 X196.519 Y56.965 E0.04546
G1 X196.983 Y57.080 E0.04412
G1 X197.488 Y57.297 E0.05077
G1 X197.890 Y57.552 E0.04394
G1 X198.427 Y58.060 E0.06826
G1 X198.836 Y58.675 E0.06823
G1 X198.992 Y59.040 E0.03661
G1 X199.099 Y59.405 E0.03517
G1 X199.179 Y60.060 E0.06096
G1 X199.179 Y131.617 E6.60869
G1 X199.123 Y132.162 E0.05063
G1 X199.002 Y132.616 E0.04337
G1 X198.815 Y133.051 E0.04375
G1 X198.557 Y133.464 E0.04490
G1 X198.043 Y134.011 E0.06933
G1 X197.425 Y134.424 E0.06871
G1 X197.058 Y134.581 E0.03685
G1 X196.693 Y134.688 E0.03515
G1 X196.037 Y134.768 E0.06097
G1 X157.128 Y134.768 E3.59348
G1 X157.125 Y143.710 E0.82581
G1 X157.085 Y144.096 E0.03583
G1 X156.933 Y144.665 E0.05439
G1 X156.610 Y145.317 E0.06720
G1 X156.369 Y145.638 E0.03711
G1 X156.101 Y145.920 E0.03592
G1 X155.376 Y146.424 E0.08158
G1 X155.008 Y146.581 E0.03694
G1 X154.643 Y146.688 E0.03515
G1 X153.987 Y146.768 E0.06097
G1 X138.129 Y146.768 E1.46465
G1 X138.127 Y148.656 E0.17440
G1 X138.078 Y149.134 E0.04432
G1 X137.926 Y149.688 E0.05307
G1 X137.636 Y150.274 E0.06042
G1 X137.397 Y150.605 E0.03766
G1 X137.106 Y150.915 E0.03927
G1 X136.528 Y151.338 E0.06614
G1 X135.914 Y151.612 E0.06210
G1 X135.398 Y151.733 E0.04902
G1 X134.979 Y151.768 E0.03876
G1 X120.431 Y151.768 E1.34363
G1 X119.885 Y151.712 E0.05064
G1 X119.431 Y151.591 E0.04339
G1 X118.998 Y151.404 E0.04358
G1 X118.535 Y151.109 E0.05073
G1 X118.168 Y150.781 E0.04545
G1 X117.779 Y150.283 E0.05838
G1 X117.491 Y149.709 E0.05931
G1 X117.335 Y149.157 E0.05302
G1 X117.280 Y148.626 E0.04932
G1 X117.280 Y145.768 E0.26393
G1 X101.248 Y145.758 E1.48060
G1 X100.846 Y145.705 E0.03749
G1 X100.459 Y145.601 E0.03699
G1 X99.885 Y145.341 E0.05820
G1 X99.465 Y145.053 E0.04708
G1 X99.136 Y144.748 E0.04139
G1 X98.808 Y144.330 E0.04911
G1 X98.513 Y143.768 E0.05858
G1 X82.420 Y143.768 E1.48627
G1 X81.745 Y143.683 E0.06291
G1 X81.369 Y143.569 E0.03625
G1 X81.011 Y143.413 E0.03608
G1 X80.345 Y142.951 E0.07486
G1 X80.018 Y142.612 E0.04353
G1 X79.749 Y142.236 E0.04263
G1 X79.448 Y141.589 E0.06590
G1 X79.334 Y141.151 E0.04179
G1 X79.286 Y140.755 E0.03691
G1 X79.280 Y130.468 E0.95002
G1 X51.531 Y130.468 E2.56286
G1 X51.234 Y130.409 E0.02795
G1 X50.806 Y130.232 E0.04280
G1 X50.614 Y130.110 E0.02099
G1 X49.738 Y129.234 E0.11442
G1 X49.616 Y129.042 E0.02099
G1 X49.439 Y128.614 E0.04280
G1 X49.380 Y128.317 E0.02795
G1 X49.380 Y61.366 E6.18336
G1 X32.523 Y49.562 E1.90057
G1 X32.313 Y49.344 E0.02795
G1 X32.064 Y48.953 E0.04280
G1 X31.977 Y48.743 E0.02099
G1 X31.762 Y47.523 E0.11442
G1 X31.772 Y47.296 E0.02099
G1 X31.873 Y46.844 E0.04280
G1 X31.994 Y46.567 E0.02795
G1 X46.949 Y25.210 E2.40796
G1 X47.168 Y25.000 E0.02795
G1 X47.558 Y24.751 E0.04280
G1 X47.769 Y24.663 E0.02110
G1 X48.923 Y24.453 E0.10834
G1 X49.152 Y24.452 E0.02110
G1 X49.670 Y24.560 E0.04888
G1 X49.945 Y24.681 E0.02773
G1 X62.845 Y33.714 E1.45447
G1 X104.619 Y48.919 E4.10569
G1 X154.978 Y48.919 E4.65096
G1 X155.275 Y48.978 E0.02795
G1 X155.699 Y49.153 E0.04236
G1 X155.949 Y49.321 E0.02784
G1 X156.770 Y50.152 E0.10790
G1 X156.893 Y50.345 E0.02110
G1 X157.070 Y50.773 E0.04280
G1 X157.129 Y51.070 E0.02795
G1 X157.129 Y56.799 E0.52912
G1 X156.358 Y57.690 F9000.000
G1 F1200.000
G1 X196.010 Y57.690 E3.66212
G1 X196.412 Y57.730 E0.03734
G1 X196.757 Y57.818 E0.03292
G1 X197.147 Y57.990 E0.03928
G1 X197.438 Y58.178 E0.03201
G1 X197.859 Y58.584 E0.05403
G1 X198.142 Y59.013 E0.04753
G1 X198.259 Y59.282 E0.02703
G1 X198.350 Y59.591 E0.02977
G1 X198.408 Y60.082 E0.04568
G1 X198.408 Y131.599 E6.60500
G1 X198.368 Y132.001 E0.03733
G1 X198.279 Y132.346 E0.03291
G1 X198.143 Y132.670 E0.03248
G1 X197.922 Y133.024 E0.03850
G1 X197.573 Y133.399 E0.04731
G1 X197.082 Y133.732 E0.05483
G1 X196.816 Y133.848 E0.02678
G1 X196.507 Y133.939 E0.02975
G1 X196.016 Y133.997 E0.04569
G1 X156.357 Y133.997 E3.66267
G1 X156.354 Y143.687 E0.89500
G1 X156.321 Y143.984 E0.02753
G1 X156.222 Y144.365 E0.03634
G1 X155.968 Y144.889 E0.05382
G1 X155.794 Y145.124 E0.02704
G1 X155.570 Y145.359 E0.02998
G1 X155.032 Y145.732 E0.06039
G1 X154.766 Y145.848 E0.02685
G1 X154.457 Y145.939 E0.02975
G1 X153.966 Y145.997 E0.04569
G1 X137.358 Y145.997 E1.53381
G1 X137.356 Y148.635 E0.24361
G1 X137.315 Y149.016 E0.03546
G1 X137.195 Y149.438 E0.04051
G1 X136.965 Y149.893 E0.04709
G1 X136.793 Y150.124 E0.02656
G1 X136.574 Y150.355 E0.02943
G1 X136.115 Y150.686 E0.05228
G1 X135.644 Y150.889 E0.04736
G1 X135.305 Y150.967 E0.03213
G1 X134.962 Y150.997 E0.03176
G1 X120.449 Y150.997 E1.34038
G1 X120.047 Y150.957 E0.03733
G1 X119.701 Y150.868 E0.03292
G1 X119.377 Y150.732 E0.03248
G1 X119.024 Y150.511 E0.03851
G1 X118.708 Y150.229 E0.03912
G1 X118.447 Y149.896 E0.03909
G1 X118.219 Y149.454 E0.04590
G1 X118.098 Y149.038 E0.04005
G1 X118.051 Y148.604 E0.04028
G1 X118.051 Y144.997 E0.33317
G1 X101.319 Y144.990 E1.54529
G1 X101.019 Y144.952 E0.02797
G1 X100.688 Y144.864 E0.03158
G1 X100.293 Y144.686 E0.04006
G1 X99.928 Y144.435 E0.04091
G1 X99.690 Y144.210 E0.03018
G1 X99.443 Y143.891 E0.03733
G1 X99.207 Y143.422 E0.04843
G1 X99.078 Y142.997 E0.04109
G1 X82.443 Y142.997 E1.53629
G1 X81.931 Y142.934 E0.04764
G1 X81.655 Y142.852 E0.02661
G1 X81.358 Y142.722 E0.02998
G1 X80.823 Y142.345 E0.06038
G1 X80.624 Y142.134 E0.02684
G1 X80.431 Y141.873 E0.02998
G1 X80.163 Y141.298 E0.05858
G1 X80.096 Y141.032 E0.02532
G1 X80.058 Y140.729 E0.02823
G1 X80.051 Y129.697 E1.01887
G1 X51.568 Y129.697 E2.63055
G1 X51.140 Y129.535 E0.04226
G1 X51.077 Y129.493 E0.00702
G1 X50.355 Y128.771 E0.09437
G1 X50.312 Y128.708 E0.00702
G1 X50.151 Y128.279 E0.04226
G1 X50.151 Y60.964 E6.21694
G1 X32.996 Y48.952 E1.93415
G1 X32.738 Y48.575 E0.04226
G1 X32.710 Y48.504 E0.00702
G1 X32.533 Y47.498 E0.09437
G1 X32.617 Y47.048 E0.04226
G1 X32.648 Y46.978 E0.00702
G1 X47.559 Y25.683 E2.40096
G1 X47.614 Y25.630 E0.00702
G1 X48.008 Y25.397 E0.04226
G1 X49.014 Y25.220 E0.09437
G1 X49.464 Y25.304 E0.04226
G1 X49.533 Y25.335 E0.00702
G1 X62.486 Y34.404 E1.46035
G1 X104.483 Y49.690 E4.12763
G1 X154.940 Y49.690 E4.66003
G1 X155.015 Y49.705 E0.00702
G1 X155.432 Y49.894 E0.04226
G1 X156.154 Y50.616 E0.09437
G1 X156.196 Y50.679 E0.00702
G1 X156.358 Y51.108 E0.04226
G1 X156.358 Y57.570 E0.59686
G1 X155.586 Y58.461 F9000.000
G1 F1200.000
G1 X195.994 Y58.461 E3.73189
G1 X196.252 Y58.485 E0.02389
G1 X196.530 Y58.556 E0.02658
G1 X196.796 Y58.677 E0.02696
G1 X196.983 Y58.801 E0.02068
G1 X197.245 Y59.051 E0.03348
G1 X197.450 Y59.355 E0.03386
G1 X197.540 Y59.564 E0.02104
G1 X197.599 Y59.769 E0.01966
G1 X197.636 Y60.103 E0.03104
G1 X197.636 Y131.583 E6.60163
G1 X197.613 Y131.841 E0.02388
G1 X197.541 Y132.122 E0.02687
G1 X197.450 Y132.331 E0.02106
G1 X197.295 Y132.574 E0.02658
G1 X197.047 Y132.834 E0.03319
G1 X196.743 Y133.039 E0.03386
G1 X196.534 Y133.130 E0.02105
G1 X196.329 Y133.188 E0.01964
G1 X195.995 Y133.225 E0.03105
G1 X155.586 Y133.225 E3.73197
G1 X155.582 Y143.663 E0.96402
G1 X155.558 Y143.870 E0.01919
G1 X155.507 Y144.073 E0.01938
G1 X155.324 Y144.462 E0.03971
G1 X155.190 Y144.643 E0.02080
G1 X155.043 Y144.794 E0.01945
G1 X154.690 Y145.040 E0.03970
G1 X154.484 Y145.130 E0.02081
G1 X154.279 Y145.188 E0.01964
G1 X153.945 Y145.225 E0.03105
G1 X136.586 Y145.225 E1.60317
G1 X136.586 Y148.582 E0.31001
G1 X136.561 Y148.853 E0.02512
G1 X136.485 Y149.135 E0.02702
G1 X136.323 Y149.463 E0.03378
G1 X136.190 Y149.643 E0.02066
G1 X136.044 Y149.794 E0.01938
G1 X135.761 Y149.999 E0.03225
G1 X135.426 Y150.149 E0.03393
G1 X135.205 Y150.202 E0.02099
G1 X134.944 Y150.225 E0.02418
G1 X120.465 Y150.225 E1.33724
G1 X120.207 Y150.202 E0.02388
G1 X119.925 Y150.130 E0.02688
G1 X119.716 Y150.039 E0.02106
G1 X119.470 Y149.882 E0.02696
G1 X119.257 Y149.687 E0.02667
G1 X119.084 Y149.460 E0.02637
G1 X118.928 Y149.148 E0.03224
G1 X118.850 Y148.868 E0.02682
G1 X118.822 Y148.586 E0.02610
G1 X118.822 Y144.225 E0.40277
G1 X101.384 Y144.221 E1.61050
G1 X101.178 Y144.197 E0.01919
G1 X100.971 Y144.145 E0.01970
G1 X100.646 Y143.999 E0.03296
G1 X100.401 Y143.826 E0.02764
G1 X100.251 Y143.680 E0.01937
G1 X100.082 Y143.458 E0.02575
G1 X99.921 Y143.128 E0.03393
G1 X99.845 Y142.836 E0.02787
G1 X99.816 Y142.225 E0.05644
G1 X82.465 Y142.225 E1.60247
G1 X82.118 Y142.185 E0.03226
G1 X81.900 Y142.120 E0.02093
G1 X81.708 Y142.034 E0.01946
G1 X81.357 Y141.787 E0.03970
G1 X81.202 Y141.623 E0.02080
G1 X81.078 Y141.452 E0.01952
G1 X80.902 Y141.074 E0.03850
G1 X80.850 Y140.870 E0.01945
