; generated by PrusaSlicer 2.3.0+ on 2022-08-24 at 08:31:32 UTC

; 

; external perimeters extrusion width = 0.90mm
; perimeters extrusion width = 0.90mm
; infill extrusion width = 0.90mm
; solid infill extrusion width = 0.90mm
; top infill extrusion width = 0.80mm
; first layer extrusion width = 0.84mm

M201 X500 Y500 Z100 E5000 ; sets maximum accelerations, mm/sec^2
M203 X500 Y500 Z10 E60 ; sets maximum feedrates, mm/sec
M204 P500 R1000 T500 ; sets acceleration (P, T) and retract acceleration (R), mm/sec^2
M205 X8.00 Y8.00 Z0.40 E5.00 ; sets the jerk limits, mm/sec
M205 S0 T0 ; sets the minimum extruding and travel feed rate, mm/sec
M107
;TYPE:Custom
G90 ; use absolute coordinates
M83 ; extruder relative mode
M104 S210 ; set extruder temp
M140 S60 ; set bed temp
M190 S60 ; wait for bed temp
M109 S210 ; wait for extruder temp
G28 ; home all
G1 Z2 F240
G1 X2 Y10 F3000
G1 Z0.28 F240
G92 E0
G1 Y190 E15 F1500 ; intro line
G1 X2.3 F5000
G92 E0
G1 Y10 E15 F1200 ; intro line
G92 E0
G21 ; set units to millimeters
G90 ; use absolute coordinates
M83 ; use relative distances for extrusion
; Filament gcode
;LAYER_CHANGE
;Z:0.4
;HEIGHT:0.4
;BEFORE_LAYER_CHANGE
G92 E0
;0.4


G1 E-5.00000 F3600.000
G1 Z0.400 F9000.000
;AFTER_LAYER_CHANGE
;0.4
G1 X79.074 Y77.074
G1 E5.00000 F2400.000
;TYPE:Perimeter
;WIDTH:0.84
G1 F1200.000
G1 X87.926 Y77.074 E0.99914
G1 X87.926 Y153.926 E8.67467
G1 X79.074 Y153.926 E0.99914
G1 X79.074 Y77.194 E8.66112
G1 X78.320 Y76.320 F9000.000
;TYPE:External perimeter
G1 F1200.000
G1 X88.680 Y76.320 E1.16939
G1 X88.680 Y154.680 E8.84492
G1 X78.320 Y154.680 E1.16939
G1 X78.320 Y76.440 E8.83138
G1 X79.030 Y76.689 F9000.000
G1 E-3.50000 F3600.000
;WIPE_START
G1 F7200.000
G1 X81.320 Y76.405 E-1.42500
;WIPE_END
G1 E-0.07500 F3600.000
G1 X86.162 Y77.300 F9000.000
G1 E5.00000 F2400.000
;TYPE:Solid infill
;WIDTH:0.846198
G1 F1200.000
G1 X87.360 Y78.499 E0.19285
G1 X87.360 Y79.574 E0.12237
G1 X85.426 Y77.640 E0.31129
G1 X84.351 Y77.640 E0.12237
G1 X87.360 Y80.649 E0.48435
G1 X87.360 Y81.725 E0.12237
G1 X83.275 Y77.640 E0.65741
G1 X82.200 Y77.640 E0.12237
G1 X87.360 Y82.800 E0.83048
G1 X87.360 Y83.875 E0.12237
G1 X81.125 Y77.640 E1.00354
G1 X80.050 Y77.640 E0.12237
G1 X87.360 Y84.950 E1.17660
G1 X87.360 Y86.026 E0.12237
G1 X79.640 Y78.305 E1.24255
G1 X79.640 Y79.381 E0.12237
G1 X87.360 Y87.101 E1.24255
G1 X87.360 Y88.176 E0.12237
G1 X79.640 Y80.456 E1.24255
G1 X79.640 Y81.531 E0.12237
G1 X87.360 Y89.252 E1.24255
G1 X87.360 Y90.327 E0.12237
G1 X79.640 Y82.607 E1.24255
G1 X79.640 Y83.682 E0.12237
G1 X87.360 Y91.402 E1.24255
G1 X87.360 Y92.478 E0.12237
G1 X79.640 Y84.757 E1.24255
G1 X79.640 Y85.832 E0.12237
G1 X87.360 Y93.553 E1.24255
G1 X87.360 Y94.628 E0.12237
G1 X79.640 Y86.908 E1.24255
G1 X79.640 Y87.983 E0.12237
G1 X87.360 Y95.704 E1.24255
G1 X87.360 Y96.779 E0.12237
G1 X79.640 Y89.058 E1.24255
G1 X79.640 Y90.134 E0.12237
G1 X87.360 Y97.854 E1.24255
G1 X87.360 Y98.929 E0.12237
G1 X79.640 Y91.209 E1.24255
G1 X79.640 Y92.284 E0.12237
G1 X87.360 Y100.005 E1.24255
G1 X87.360 Y101.080 E0.12237
G1 X79.640 Y93.360 E1.24255
G1 X79.640 Y94.435 E0.12237
G1 X87.360 Y102.155 E1.24255
G1 X87.360 Y103.231 E0.12237
G1 X79.640 Y95.510 E1.24255
G1 X79.640 Y96.586 E0.12237
G1 X87.360 Y104.306 E1.24255
G1 X87.360 Y105.381 E0.12237
G1 X79.640 Y97.661 E1.24255
G1 X79.640 Y98.736 E0.12237
G1 X87.360 Y106.457 E1.24255
G1 X87.360 Y107.532 E0.12237
G1 X79.640 Y99.811 E1.24255
G1 X79.640 Y100.887 E0.12237
G1 X87.360 Y108.607 E1.24255
G1 X87.360 Y109.683 E0.12237
G1 X79.640 Y101.962 E1.24255
G1 X79.640 Y103.037 E0.12237
G1 X87.360 Y110.758 E1.24255
G1 X87.360 Y111.833 E0.12237
G1 X79.640 Y104.113 E1.24255
G1 X79.640 Y105.188 E0.12237
G1 X87.360 Y112.908 E1.24255
G1 X87.360 Y113.984 E0.12237
G1 X79.640 Y106.263 E1.24255
G1 X79.640 Y107.339 E0.12237
G1 X87.360 Y115.059 E1.24255
G1 X87.360 Y116.134 E0.12237
G1 X79.640 Y108.414 E1.24255
G1 X79.640 Y109.489 E0.12237
G1 X87.360 Y117.210 E1.24255
G1 X87.360 Y118.285 E0.12237
G1 X79.640 Y110.565 E1.24255
G1 X79.640 Y111.640 E0.12237
G1 X87.360 Y119.360 E1.24255
G1 X87.360 Y120.436 E0.12237
G1 X79.640 Y112.715 E1.24255
G1 X79.640 Y113.790 E0.12237
G1 X87.360 Y121.511 E1.24255
G1 X87.360 Y122.586 E0.12237
G1 X79.640 Y114.866 E1.24255
G1 X79.640 Y115.941 E0.12237
G1 X87.360 Y123.662 E1.24255
G1 X87.360 Y124.737 E0.12237
G1 X79.640 Y117.016 E1.24255
G1 X79.640 Y118.092 E0.12237
G1 X87.360 Y125.812 E1.24255
G1 X87.360 Y126.887 E0.12237
G1 X79.640 Y119.167 E1.24255
G1 X79.640 Y120.242 E0.12237
G1 X87.360 Y127.963 E1.24255
G1 X87.360 Y129.038 E0.12237
G1 X79.640 Y121.318 E1.24255
G1 X79.640 Y122.393 E0.12237
G1 X87.360 Y130.113 E1.24255
G1 X87.360 Y131.189 E0.12237
G1 X79.640 Y123.468 E1.24255
G1 X79.640 Y124.544 E0.12237
G1 X87.360 Y132.264 E1.24255
G1 X87.360 Y133.339 E0.12237
G1 X79.640 Y125.619 E1.24255
G1 X79.640 Y126.694 E0.12237
G1 X87.360 Y134.415 E1.24255
G1 X87.360 Y135.490 E0.12237
G1 X79.640 Y127.769 E1.24255
G1 X79.640 Y128.845 E0.12237
G1 X87.360 Y136.565 E1.24255
G1 X87.360 Y137.641 E0.12237
G1 X79.640 Y129.920 E1.24255
G1 X79.640 Y130.995 E0.12237
G1 X87.360 Y138.716 E1.24255
G1 X87.360 Y139.791 E0.12237
G1 X79.640 Y132.071 E1.24255
G1 X79.640 Y133.146 E0.12237
G1 X87.360 Y140.866 E1.24255
G1 X87.360 Y141.942 E0.12237
G1 X79.640 Y134.221 E1.24255
G1 X79.640 Y135.297 E0.12237
G1 X87.360 Y143.017 E1.24255
G1 X87.360 Y144.092 E0.12237
G1 X79.640 Y136.372 E1.24255
G1 X79.640 Y137.447 E0.12237
G1 X87.360 Y145.168 E1.24255
G1 X87.360 Y146.243 E0.12237
G1 X79.640 Y138.522 E1.24255
G1 X79.640 Y139.598 E0.12237
G1 X87.360 Y147.318 E1.24255
G1 X87.360 Y148.394 E0.12237
G1 X79.640 Y140.673 E1.24255
G1 X79.640 Y141.748 E0.12237
G1 X87.360 Y149.469 E1.24255
G1 X87.360 Y150.544 E0.12237
G1 X79.640 Y142.824 E1.24255
G1 X79.640 Y143.899 E0.12237
G1 X87.360 Y151.620 E1.24255
G1 X87.360 Y152.695 E0.12237
G1 X79.640 Y144.974 E1.24255
G1 X79.640 Y146.050 E0.12237
G1 X86.950 Y153.360 E1.17658
G1 X85.875 Y153.360 E0.12237
G1 X79.640 Y147.125 E1.00352
G1 X79.640 Y148.200 E0.12237
G1 X84.800 Y153.360 E0.83046
G1 X83.724 Y153.360 E0.12237
G1 X79.640 Y149.276 E0.65739
G1 X79.640 Y150.351 E0.12237
G1 X82.649 Y153.360 E0.48433
G1 X81.574 Y153.360 E0.12237
G1 X79.640 Y151.426 E0.31127
G1 X79.640 Y152.501 E0.12237
G1 X80.838 Y153.700 E0.19283
G1 E-3.50000 F3600.000
;WIPE_START
G1 F7200.000
G1 X79.640 Y152.501 E-0.80484
G1 X79.640 Y151.426 E-0.51077
G1 X79.803 Y151.589 E-0.10939
;WIPE_END
G1 E-0.07500 F3600.000
G1 X94.074 Y153.700 F9000.000
G1 E5.00000 F2400.000
;TYPE:Perimeter
;WIDTH:0.84
G1 F1200.000
G1 X94.074 Y77.074 E8.64913
G1 X110.926 Y77.074 E1.90214
G1 X110.926 Y153.926 E8.67467
G1 X94.074 Y153.926 E1.90214
G1 X94.074 Y153.820 E0.01199
G1 X93.320 Y154.680 F9000.000
;TYPE:External perimeter
G1 F1200.000
G1 X93.320 Y76.320 E8.84492
G1 X111.680 Y76.320 E2.07239
G1 X111.680 Y154.680 E8.84492
G1 X93.440 Y154.680 E2.05885
G1 X93.381 Y153.882 F9000.000
G1 E-3.50000 F3600.000
;WIPE_START
G1 F7200.000
G1 X93.435 Y151.680 E-1.42500
;WIPE_END
G1 E-0.07500 F3600.000
G1 X110.700 Y78.828 F9000.000
G1 E5.00000 F2400.000
;TYPE:Solid infill
;WIDTH:0.841301
G1 F1200.000
G1 X109.512 Y77.640 E0.18994
G1 X108.443 Y77.640 E0.12080
G1 X110.360 Y79.557 E0.30652
G1 X110.360 Y80.625 E0.12080
G1 X107.375 Y77.640 E0.47736
G1 X106.307 Y77.640 E0.12080
G1 X110.360 Y81.693 E0.64820
G1 X110.360 Y82.762 E0.12080
G1 X105.238 Y77.640 E0.81904
G1 X104.170 Y77.640 E0.12080
G1 X110.360 Y83.830 E0.98988
G1 X110.360 Y84.899 E0.12080
G1 X103.101 Y77.640 E1.16072
G1 X102.033 Y77.640 E0.12080
G1 X110.360 Y85.967 E1.33156
G1 X110.360 Y87.035 E0.12080
G1 X100.965 Y77.640 E1.50240
G1 X99.896 Y77.640 E0.12080
G1 X110.360 Y88.104 E1.67324
G1 X110.360 Y89.172 E0.12080
G1 X98.828 Y77.640 E1.84408
G1 X97.760 Y77.640 E0.12080
G1 X110.360 Y90.240 E2.01492
G1 X110.360 Y91.309 E0.12080
G1 X96.691 Y77.640 E2.18576
G1 X95.623 Y77.640 E0.12080
G1 X110.360 Y92.377 E2.35660
G1 X110.360 Y93.446 E0.12080
G1 X94.640 Y77.725 E2.51379
G1 X94.640 Y78.793 E0.12080
G1 X110.360 Y94.514 E2.51379
G1 X110.360 Y95.582 E0.12080
G1 X94.640 Y79.862 E2.51379
G1 X94.640 Y80.930 E0.12080
G1 X110.360 Y96.651 E2.51379
G1 X110.360 Y97.719 E0.12080
G1 X94.640 Y81.999 E2.51379
G1 X94.640 Y83.067 E0.12080
G1 X110.360 Y98.787 E2.51379
G1 X110.360 Y99.856 E0.12080
G1 X94.640 Y84.135 E2.51379
G1 X94.640 Y85.204 E0.12080
G1 X110.360 Y100.924 E2.51379
G1 X110.360 Y101.993 E0.12080
G1 X94.640 Y86.272 E2.51379
G1 X94.640 Y87.341 E0.12080
G1 X110.360 Y103.061 E2.51379
G1 X110.360 Y104.129 E0.12080
G1 X94.640 Y88.409 E2.51379
G1 X94.640 Y89.477 E0.12080
G1 X110.360 Y105.198 E2.51379
G1 X110.360 Y106.266 E0.12080
G1 X94.640 Y90.546 E2.51379
G1 X94.640 Y91.614 E0.12080
G1 X110.360 Y107.335 E2.51379
G1 X110.360 Y108.403 E0.12080
G1 X94.640 Y92.682 E2.51379
G1 X94.640 Y93.751 E0.12080
G1 X110.360 Y109.471 E2.51379
G1 X110.360 Y110.540 E0.12080
G1 X94.640 Y94.819 E2.51379
G1 X94.640 Y95.888 E0.12080
G1 X110.360 Y111.608 E2.51379
G1 X110.360 Y112.676 E0.12080
G1 X94.640 Y96.956 E2.51379
G1 X94.640 Y98.024 E0.12080
G1 X110.360 Y113.745 E2.51379
G1 X110.360 Y114.813 E0.12080
G1 X94.640 Y99.093 E2.51379
G1 X94.640 Y100.161 E0.12080
G1 X110.360 Y115.882 E2.51379
G1 X110.360 Y116.950 E0.12080
G1 X94.640 Y101.230 E2.51379
G1 X94.640 Y102.298 E0.12080
G1 X110.360 Y118.018 E2.51379
G1 X110.360 Y119.087 E0.12080
G1 X94.640 Y103.366 E2.51379
G1 X94.640 Y104.435 E0.12080
G1 X110.360 Y120.155 E2.51379
G1 X110.360 Y121.224 E0.12080
G1 X94.640 Y105.503 E2.51379
G1 X94.640 Y106.571 E0.12080
G1 X110.360 Y122.292 E2.51379
G1 X110.360 Y123.360 E0.12080
G1 X94.640 Y107.640 E2.51379
G1 X94.640 Y108.708 E0.12080
G1 X110.360 Y124.429 E2.51379
G1 X110.360 Y125.497 E0.12080
G1 X94.640 Y109.777 E2.51379
G1 X94.640 Y110.845 E0.12080
G1 X110.360 Y126.565 E2.51379
G1 X110.360 Y127.634 E0.12080
G1 X94.640 Y111.913 E2.51379
G1 X94.640 Y112.982 E0.12080
G1 X110.360 Y128.702 E2.51379
G1 X110.360 Y129.771 E0.12080
G1 X94.640 Y114.050 E2.51379
G1 X94.640 Y115.118 E0.12080
G1 X110.360 Y130.839 E2.51379
G1 X110.360 Y131.907 E0.12080
G1 X94.640 Y116.187 E2.51379
G1 X94.640 Y117.255 E0.12080
G1 X110.360 Y132.976 E2.51379
G1 X110.360 Y134.044 E0.12080
G1 X94.640 Y118.324 E2.51379
G1 X94.640 Y119.392 E0.12080
G1 X110.360 Y135.112 E2.51379
G1 X110.360 Y136.181 E0.12080
G1 X94.640 Y120.460 E2.51379
G1 X94.640 Y121.529 E0.12080
G1 X110.360 Y137.249 E2.51379
G1 X110.360 Y138.318 E0.12080
G1 X94.640 Y122.597 E2.51379
G1 X94.640 Y123.666 E0.12080
G1 X110.360 Y139.386 E2.51379
G1 X110.360 Y140.454 E0.12080
G1 X94.640 Y124.734 E2.51379
G1 X94.640 Y125.802 E0.12080
G1 X110.360 Y141.523 E2.51379
G1 X110.360 Y142.591 E0.12080
G1 X94.640 Y126.871 E2.51379
G1 X94.640 Y127.939 E0.12080
G1 X110.360 Y143.660 E2.51379
G1 X110.360 Y144.728 E0.12080
G1 X94.640 Y129.007 E2.51379
G1 X94.640 Y130.076 E0.12080
G1 X110.360 Y145.796 E2.51379
G1 X110.360 Y146.865 E0.12080
G1 X94.640 Y131.144 E2.51379
G1 X94.640 Y132.213 E0.12080
G1 X110.360 Y147.933 E2.51379
G1 X110.360 Y149.001 E0.12080
G1 X94.640 Y133.281 E2.51379
G1 X94.640 Y134.349 E0.12080
G1 X110.360 Y150.070 E2.51379
G1 X110.360 Y151.138 E0.12080
G1 X94.640 Y135.418 E2.51379
G1 X94.640 Y136.486 E0.12080
G1 X110.360 Y152.207 E2.51379
G1 X110.360 Y153.275 E0.12080
G1 X94.640 Y137.554 E2.51379
G1 X94.640 Y138.623 E0.12080
G1 X109.377 Y153.360 E2.35659
G1 X108.309 Y153.360 E0.12080
G1 X94.640 Y139.691 E2.18575
G1 X94.640 Y140.760 E0.12080
G1 X107.240 Y153.360 E2.01491
G1 X106.172 Y153.360 E0.12080
G1 X94.640 Y141.828 E1.84407
G1 X94.640 Y142.896 E0.12080
G1 X105.104 Y153.360 E1.67323
G1 X104.035 Y153.360 E0.12080
G1 X94.640 Y143.965 E1.50239
G1 X94.640 Y145.033 E0.12080
G1 X102.967 Y153.360 E1.33155
G1 X101.898 Y153.360 E0.12080
G1 X94.640 Y146.102 E1.16071
G1 X94.640 Y147.170 E0.12080
G1 X100.830 Y153.360 E0.98987
G1 X99.762 Y153.360 E0.12080
G1 X94.640 Y148.238 E0.81903
G1 X94.640 Y149.307 E0.12080
G1 X98.693 Y153.360 E0.64819
G1 X97.625 Y153.360 E0.12080
G1 X94.640 Y150.375 E0.47735
G1 X94.640 Y151.443 E0.12080
G1 X96.557 Y153.360 E0.30651
G1 X95.488 Y153.360 E0.12080
G1 X94.300 Y152.172 E0.18993
G1 E-3.50000 F3600.000
;WIPE_START
G1 F7200.000
G1 X95.488 Y153.360 E-0.79790
G1 X96.557 Y153.360 E-0.50748
G1 X96.378 Y153.182 E-0.11962
;WIPE_END
G1 E-0.07500 F3600.000
G1 X120.074 Y153.926 F9000.000
G1 E5.00000 F2400.000
;TYPE:Perimeter
;WIDTH:0.84
G1 F1200.000
G1 X120.074 Y77.074 E8.67467
G1 X128.926 Y77.074 E0.99914
G1 X128.926 Y153.926 E8.67467
G1 X120.194 Y153.926 E0.98559
G1 X119.320 Y154.680 F9000.000
;TYPE:External perimeter
G1 F1200.000
G1 X119.320 Y76.320 E8.84492
G1 X129.680 Y76.320 E1.16939
G1 X129.680 Y154.680 E8.84492
G1 X119.440 Y154.680 E1.15584
G1 X119.355 Y153.881 F9000.000
G1 E-3.50000 F3600.000
;WIPE_START
G1 F7200.000
G1 X119.435 Y151.680 E-1.42500
;WIPE_END
G1 E-0.07500 F3600.000
G1 X127.162 Y77.300 F9000.000
G1 E5.00000 F2400.000
;TYPE:Solid infill
;WIDTH:0.846198
G1 F1200.000
G1 X128.360 Y78.499 E0.19285
G1 X128.360 Y79.574 E0.12237
G1 X126.426 Y77.640 E0.31129
G1 X125.351 Y77.640 E0.12237
G1 X128.360 Y80.649 E0.48435
G1 X128.360 Y81.725 E0.12237
G1 X124.275 Y77.640 E0.65741
G1 X123.200 Y77.640 E0.12237
G1 X128.360 Y82.800 E0.83048
G1 X128.360 Y83.875 E0.12237
G1 X122.125 Y77.640 E1.00354
G1 X121.050 Y77.640 E0.12237
G1 X128.360 Y84.950 E1.17660
G1 X128.360 Y86.026 E0.12237
G1 X120.640 Y78.305 E1.24255
G1 X120.640 Y79.381 E0.12237
G1 X128.360 Y87.101 E1.24255
G1 X128.360 Y88.176 E0.12237
G1 X120.640 Y80.456 E1.24255
G1 X120.640 Y81.531 E0.12237
G1 X128.360 Y89.252 E1.24255
G1 X128.360 Y90.327 E0.12237
G1 X120.640 Y82.607 E1.24255
G1 X120.640 Y83.682 E0.12237
G1 X128.360 Y91.402 E1.24255
G1 X128.360 Y92.478 E0.12237
G1 X120.640 Y84.757 E1.24255
G1 X120.640 Y85.832 E0.12237
G1 X128.360 Y93.553 E1.24255
G1 X128.360 Y94.628 E0.12237
G1 X120.640 Y86.908 E1.24255
G1 X120.640 Y87.983 E0.12237
G1 X128.360 Y95.704 E1.24255
G1 X128.360 Y96.779 E0.12237
G1 X120.640 Y89.058 E1.24255
G1 X120.640 Y90.134 E0.12237
G1 X128.360 Y97.854 E1.24255
G1 X128.360 Y98.929 E0.12237
G1 X120.640 Y91.209 E1.24255
G1 X120.640 Y92.284 E0.12237
G1 X128.360 Y100.005 E1.24255
G1 X128.360 Y101.080 E0.12237
G1 X120.640 Y93.360 E1.24255
G1 X120.640 Y94.435 E0.12237
G1 X128.360 Y102.155 E1.24255
G1 X128.360 Y103.231 E0.12237
G1 X120.640 Y95.510 E1.24255
G1 X120.640 Y96.586 E0.12237
G1 X128.360 Y104.306 E1.24255
G1 X128.360 Y105.381 E0.12237
G1 X120.640 Y97.661 E1.24255
G1 X120.640 Y98.736 E0.12237
G1 X128.360 Y106.457 E1.24255
G1 X128.360 Y107.532 E0.12237
G1 X120.640 Y99.811 E1.24255
G1 X120.640 Y100.887 E0.12237
G1 X128.360 Y108.607 E1.24255
G1 X128.360 Y109.683 E0.12237
G1 X120.640 Y101.962 E1.24255
G1 X120.640 Y103.037 E0.12237
G1 X128.360 Y110.758 E1.24255
G1 X128.360 Y111.833 E0.12237
G1 X120.640 Y104.113 E1.24255
G1 X120.640 Y105.188 E0.12237
G1 X128.360 Y112.908 E1.24255
G1 X128.360 Y113.984 E0.12237
G1 X120.640 Y106.263 E1.24255
G1 X120.640 Y107.339 E0.12237
G1 X128.360 Y115.059 E1.24255
G1 X128.360 Y116.134 E0.12237
G1 X120.640 Y108.414 E1.24255
G1 X120.640 Y109.489 E0.12237
G1 X128.360 Y117.210 E1.24255
G1 X128.360 Y118.285 E0.12237
G1 X120.640 Y110.565 E1.24255
G1 X120.640 Y111.640 E0.12237
G1 X128.360 Y119.360 E1.24255
G1 X128.360 Y120.436 E0.12237
G1 X120.640 Y112.715 E1.24255
G1 X120.640 Y113.790 E0.12237
G1 X128.360 Y121.511 E1.24255
G1 X128.360 Y122.586 E0.12237
G1 X120.640 Y114.866 E1.24255
G1 X120.640 Y115.941 E0.12237
G1 X128.360 Y123.662 E1.24255
G1 X128.360 Y124.737 E0.12237
G1 X120.640 Y117.016 E1.24255
G1 X120.640 Y118.092 E0.12237
G1 X128.360 Y125.812 E1.24255
G1 X128.360 Y126.887 E0.12237
G1 X120.640 Y119.167 E1.24255
G1 X120.640 Y120.242 E0.12237
G1 X128.360 Y127.963 E1.24255
G1 X128.360 Y129.038 E0.12237
G1 X120.640 Y121.318 E1.24255
G1 X120.640 Y122.393 E0.12237
G1 X128.360 Y130.113 E1.24255
G1 X128.360 Y131.189 E0.12237
G1 X120.640 Y123.468 E1.24255
G1 X120.640 Y124.544 E0.12237
G1 X128.360 Y132.264 E1.24255
G1 X128.360 Y133.339 E0.12237
G1 X120.640 Y125.619 E1.24255
G1 X120.640 Y126.694 E0.12237
G1 X128.360 Y134.415 E1.24255
G1 X128.360 Y135.490 E0.12237
G1 X120.640 Y127.769 E1.24255
